(1001)
(T1  D=0.0312 CR=0. - ZMIN=0. - FLAT END MILL)
G0 G90 G94 G17
G20
G53 G0 Z0.

(2D CONTOUR6)
M5
T1
S12000 M3
G4 P4.
G55
M8
G0 X4.5047 Y2.4888
Z0.6625
Z0.2625
G1 Z0.1319 F1.8
Z0.0356
X4.5045 Y2.4887 Z0.0344 F14.2
X4.504 Y2.4882 Z0.0334
X4.5033 Y2.4874 Z0.0327
X4.5025 Y2.4866 Z0.0325
X4.5003 Y2.4844
X4.4997 Y2.4833
X4.4994 Y2.4821
X4.4997 Y2.4809
X4.5004 Y2.4799
X4.5032 Y2.4772
X4.5039 Y2.4764
X4.5065 Y2.4735
X4.507 Y2.473
X4.5093 Y2.4702
X4.5099 Y2.4695
X4.5122 Y2.4665
X4.5126 Y2.4659
X4.5148 Y2.4628
X4.5151 Y2.4622
X4.5173 Y2.4589
X4.5177 Y2.4582
X4.5198 Y2.4547
X4.5201 Y2.4542
X4.5221 Y2.4505
X4.5225 Y2.4499
X4.5244 Y2.446
X4.5246 Y2.4455
X4.5266 Y2.4414
X4.5268 Y2.441
X4.5287 Y2.4367
X4.5289 Y2.4362
X4.5307 Y2.4317
X4.5309 Y2.4312
X4.5326 Y2.4265
X4.5327 Y2.4263
X4.5344 Y2.4215
X4.5346 Y2.4209
X4.5362 Y2.4158
X4.5363 Y2.4155
X4.5379 Y2.4103
X4.538 Y2.4099
X4.5395 Y2.4045
X4.5396 Y2.4042
X4.5411 Y2.3986
X4.5412 Y2.3982
X4.5425 Y2.3924
X4.5426 Y2.3921
X4.5439 Y2.3861
X4.544 Y2.3858
X4.5452 Y2.3797
X4.5453 Y2.3792
X4.5464 Y2.3729
X4.5465 Y2.3727
X4.5476 Y2.3661
Y2.366
X4.5487 Y2.3592
Y2.3588
X4.5497 Y2.3519
Y2.3518
X4.5506 Y2.3447
Y2.3443
X4.5514 Y2.3378
Y2.3377
X4.552 Y2.3312
X4.5521 Y2.331
X4.5527 Y2.3244
Y2.3242
X4.5533 Y2.3175
Y2.3174
X4.5538 Y2.3106
Y2.3105
X4.5543 Y2.3037
Y2.3036
X4.5547 Y2.2967
X4.5551 Y2.2898
Y2.2897
X4.5555 Y2.2828
Y2.2827
X4.5559 Y2.2758
X4.5563 Y2.2689
Y2.2687
X4.5566 Y2.2618
X4.5573 Y2.2479
X4.5577 Y2.2409
X4.558 Y2.234
X4.5584 Y2.2271
X4.5588 Y2.2203
X4.5592 Y2.2135
X4.5597 Y2.2068
X4.5602 Y2.2001
X4.5607 Y2.1935
X4.5613 Y2.187
X4.5619 Y2.1806
X4.5626 Y2.1743
X4.5634 Y2.1679
X4.5641 Y2.1618
X4.565 Y2.1557
X4.5659 Y2.1498
X4.5669 Y2.1439
X4.568 Y2.1381
X4.5691 Y2.1325
X4.5703 Y2.127
X4.5716 Y2.1216
X4.573 Y2.1162
X4.5744 Y2.111
X4.5759 Y2.106
X4.5775 Y2.1011
X4.5792 Y2.0963
X4.581 Y2.0917
X4.5828 Y2.0871
X4.5848 Y2.0827
X4.5868 Y2.0786
X4.589 Y2.0744
X4.5912 Y2.0704
X4.5935 Y2.0666
X4.5959 Y2.063
X4.5984 Y2.0595
X4.6011 Y2.056
X4.6037 Y2.0528
X4.6066 Y2.0497
X4.6095 Y2.0466
X4.6124 Y2.0438
X4.6156 Y2.0409
X4.6187 Y2.0382
X4.6219 Y2.0356
X4.6253 Y2.033
X4.6287 Y2.0306
X4.6321 Y2.0282
X4.6356 Y2.0258
X4.6392 Y2.0236
X4.6427 Y2.0214
X4.6464 Y2.0192
X4.65 Y2.0171
X4.6537 Y2.0151
X4.6574 Y2.0131
X4.6612 Y2.011
X4.6648 Y2.0091
X4.6685 Y2.0071
X4.6722 Y2.0052
X4.6723
X4.6759 Y2.0032
X4.6795 Y2.0013
X4.6796
X4.6831 Y1.9994
X4.6833 Y1.9993
X4.6867 Y1.9974
Y1.9973
X4.6901 Y1.9955
X4.6903 Y1.9954
X4.6935 Y1.9935
X4.6937 Y1.9934
X4.6969 Y1.9915
X4.6972 Y1.9913
X4.7003 Y1.9894
X4.7007 Y1.9892
X4.7037 Y1.9872
X4.7039 Y1.9871
X4.7068 Y1.9851
X4.7073 Y1.9848
X4.7101 Y1.9828
X4.7104 Y1.9826
X4.7132 Y1.9805
X4.7137 Y1.9801
X4.7164 Y1.978
X4.7168 Y1.9777
X4.7194 Y1.9755
X4.72 Y1.975
X4.7224 Y1.9727
X4.7228 Y1.9724
X4.7252 Y1.9701
X4.7258 Y1.9695
X4.7281 Y1.9671
X4.7286 Y1.9666
X4.7308 Y1.964
X4.7314 Y1.9634
X4.7335 Y1.9607
X4.734 Y1.9602
X4.736 Y1.9574
X4.7364 Y1.9569
X4.7384 Y1.954
X4.7389 Y1.9532
X4.7407 Y1.9503
X4.7411 Y1.9496
X4.7429 Y1.9465
X4.7433 Y1.9458
X4.7449 Y1.9425
X4.7452 Y1.9419
X4.7468 Y1.9385
X4.7471 Y1.9379
X4.7486 Y1.9343
X4.749 Y1.9334
X4.7503 Y1.9296
X4.7504 Y1.9292
X4.7517 Y1.9253
X4.752 Y1.9246
X4.7531 Y1.9205
X4.7533 Y1.9198
X4.7544 Y1.9156
Y1.9153
X4.7555 Y1.9109
X4.7556 Y1.9103
X4.7565 Y1.9058
Y1.9056
X4.7574 Y1.9009
X4.7575 Y1.9004
X4.7582 Y1.8957
X4.7583 Y1.8955
X4.759 Y1.8907
Y1.8904
X4.7597 Y1.8855
Y1.8852
X4.7602 Y1.8803
X4.7603 Y1.8802
X4.7608 Y1.8753
Y1.8751
X4.7613 Y1.8702
Y1.8699
X4.7617 Y1.8649
Y1.8648
X4.762 Y1.8599
X4.7624 Y1.855
Y1.8547
X4.7627 Y1.8499
Y1.8498
X4.7629 Y1.845
Y1.8449
X4.7631 Y1.8402
X4.7633 Y1.8357
X4.7635 Y1.8312
Y1.8309
X4.7637 Y1.8267
X4.7638 Y1.8226
Y1.8225
X4.7639 Y1.8185
X4.7641 Y1.8146
X4.7642 Y1.811
X4.7643 Y1.8076
X4.7645 Y1.8042
X4.7646 Y1.8011
X4.7648 Y1.7982
X4.7651 Y1.7954
X4.7653 Y1.793
X4.7656 Y1.7905
X4.766 Y1.7882
X4.7664 Y1.7863
X4.7668 Y1.7844
X4.7673 Y1.7825
X4.7679 Y1.7808
X4.7684 Y1.7794
X4.7691 Y1.7779
X4.7698 Y1.7764
X4.7705 Y1.7751
X4.7714 Y1.7738
X4.7724 Y1.7725
X4.7735 Y1.7712
X4.7747 Y1.7698
X4.7761 Y1.7685
X4.7776 Y1.7671
X4.7792 Y1.7657
X4.7812 Y1.7642
X4.7832 Y1.7627
X4.7854 Y1.7611
X4.7876 Y1.7596
X4.7901 Y1.758
X4.7926 Y1.7563
X4.7952 Y1.7547
X4.7979 Y1.7529
X4.8007 Y1.7512
X4.8035 Y1.7494
X4.8063 Y1.7476
X4.8065 Y1.7475
X4.8093 Y1.7456
X4.8094
X4.8123 Y1.7437
X4.8124 Y1.7436
X4.8153 Y1.7416
X4.8156 Y1.7414
X4.8184 Y1.7395
X4.8186 Y1.7393
X4.8214 Y1.7373
X4.8217 Y1.737
X4.8245 Y1.7349
X4.8248 Y1.7347
X4.8275 Y1.7325
X4.8279 Y1.7322
X4.8305 Y1.73
X4.8309 Y1.7297
X4.8335 Y1.7274
X4.834 Y1.7269
X4.8366 Y1.7245
X4.837 Y1.7241
X4.8395 Y1.7216
X4.8399 Y1.7212
X4.8423 Y1.7186
X4.8428 Y1.718
X4.8452 Y1.7153
X4.8456 Y1.7148
X4.8479 Y1.7119
X4.8481 Y1.7116
X4.8503 Y1.7087
X4.8508 Y1.708
X4.8529 Y1.705
X4.8531 Y1.7047
X4.8552 Y1.7016
X4.8555 Y1.7012
X4.8576 Y1.698
X4.8579 Y1.6975
X4.8599 Y1.6941
X4.8601 Y1.6938
X4.862 Y1.6903
X4.8622 Y1.69
X4.8641 Y1.6864
X4.8642 Y1.6863
X4.8662 Y1.6827
X4.8664 Y1.6822
X4.8682 Y1.6785
X4.8683 Y1.6784
X4.8702 Y1.6746
X4.8703 Y1.6743
X4.8721 Y1.6705
X4.8722 Y1.6702
X4.874 Y1.6663
Y1.6662
X4.8758 Y1.6622
X4.8759 Y1.662
X4.8776 Y1.658
X4.8777 Y1.6578
X4.8794 Y1.6537
Y1.6536
X4.8811 Y1.6495
X4.8812 Y1.6494
X4.8828 Y1.6452
X4.8829 Y1.6451
X4.8846 Y1.6409
Y1.6408
X4.8862 Y1.6366
X4.8863 Y1.6365
X4.8879 Y1.6323
X4.8896 Y1.628
Y1.6278
X4.8913 Y1.6235
X4.8919 Y1.6213
X4.8923 Y1.619
X4.8943 Y1.6013
X4.8963 Y1.5837
X4.8982 Y1.5662
X4.9002 Y1.5486
X4.9021 Y1.5312
X4.9039 Y1.5139
X4.9058 Y1.4969
Y1.4968
X4.9075 Y1.4799
X4.9093 Y1.4631
X4.9109 Y1.4466
X4.9126 Y1.4304
Y1.4303
X4.9141 Y1.4144
Y1.4143
X4.9156 Y1.3987
Y1.3986
X4.9169 Y1.3834
Y1.3833
X4.9182 Y1.3684
X4.9183 Y1.3683
X4.9194 Y1.3538
Y1.3536
X4.9205 Y1.3395
X4.9215 Y1.3258
Y1.3257
X4.9224 Y1.3125
Y1.3123
X4.9231 Y1.2996
Y1.2995
X4.9237 Y1.2873
Y1.2871
X4.9242 Y1.2755
Y1.2752
X4.9245 Y1.2642
Y1.264
X4.9247 Y1.2535
Y1.2532
X4.9248 Y1.2434
Y1.243
X4.9247 Y1.2338
X4.9246 Y1.2334
X4.9244 Y1.2248
Y1.2244
X4.9239 Y1.2163
Y1.2158
X4.9233 Y1.2082
Y1.2078
X4.9226 Y1.2007
X4.9225 Y1.2
X4.9216 Y1.1934
X4.9215 Y1.1926
X4.9204 Y1.1864
X4.9202 Y1.1858
X4.919 Y1.1799
X4.9188 Y1.1791
X4.9174 Y1.1735
X4.9172 Y1.1728
X4.9156 Y1.1675
X4.9153 Y1.1665
X4.9135 Y1.1615
X4.9132 Y1.1609
X4.9113 Y1.1561
X4.9109 Y1.1551
X4.9087 Y1.1506
X4.9084 Y1.1499
X4.906 Y1.1455
X4.9056 Y1.1447
X4.9031 Y1.1404
X4.9027 Y1.1398
X4.8999 Y1.1356
X4.8995 Y1.1349
X4.8965 Y1.1307
X4.8962 Y1.1303
X4.893 Y1.1261
X4.8927 Y1.1256
X4.8893 Y1.1215
X4.889 Y1.1211
X4.8853 Y1.1169
X4.885 Y1.1165
X4.8811 Y1.1122
X4.8809 Y1.112
X4.8768 Y1.1076
X4.8766 Y1.1073
X4.8722 Y1.1028
X4.872 Y1.1026
X4.8674 Y1.0979
X4.8672 Y1.0978
X4.8623 Y1.0929
X4.8622 Y1.0927
X4.8571 Y1.0878
X4.857 Y1.0877
X4.8517 Y1.0827
X4.8515 Y1.0825
X4.8461 Y1.0774
X4.8459 Y1.0773
X4.8403 Y1.0721
X4.8401 Y1.072
X4.8343 Y1.0668
X4.8342 Y1.0667
X4.8283 Y1.0615
X4.8281 Y1.0614
X4.8221 Y1.0562
X4.8219 Y1.0561
X4.8158 Y1.051
X4.8157 Y1.0508
X4.8095 Y1.0458
X4.8092 Y1.0456
X4.8029 Y1.0406
X4.8028 Y1.0405
X4.7965 Y1.0356
X4.7963 Y1.0355
X4.7899 Y1.0307
X4.7897 Y1.0305
X4.7833 Y1.0259
X4.7831 Y1.0257
X4.7767 Y1.0213
X4.7764 Y1.0211
X4.7701 Y1.0168
X4.7697 Y1.0166
X4.7634 Y1.0125
X4.7631 Y1.0123
X4.7569 Y1.0085
X4.7564 Y1.0082
X4.7502 Y1.0046
X4.7498 Y1.0044
X4.7437 Y1.001
X4.7432 Y1.0008
X4.7373 Y0.9977
X4.7367 Y0.9974
X4.7308 Y0.9947
X4.7301 Y0.9944
X4.7244 Y0.992
X4.7236 Y0.9917
X4.718 Y0.9896
X4.7173 Y0.9893
X4.7118 Y0.9875
X4.711 Y0.9873
X4.7055 Y0.9858
X4.7047 Y0.9856
X4.6994 Y0.9843
X4.6985 Y0.9842
X4.6932 Y0.9832
X4.6924 Y0.9831
X4.6872 Y0.9823
X4.6864 Y0.9822
X4.6811 Y0.9817
X4.6803
X4.6751 Y0.9814
X4.6744 Y0.9813
X4.6691
X4.6685
X4.6631
X4.6625 Y0.9814
X4.6572 Y0.9816
X4.6567 Y0.9817
X4.6513 Y0.9821
X4.6509
X4.6454 Y0.9827
X4.645
X4.6394 Y0.9834
X4.6391
X4.6334 Y0.9842
X4.6332 Y0.9843
X4.6274 Y0.9852
X4.6272
X4.6213 Y0.9862
X4.6212
X4.615 Y0.9872
X4.6149 Y0.9873
X4.6086 Y0.9884
X4.6022 Y0.9895
X4.5956 Y0.9906
X4.5888 Y0.9918
X4.5818 Y0.9929
X4.5746 Y0.994
X4.5673 Y0.9951
X4.5597 Y0.9961
X4.5519 Y0.9971
X4.5439 Y0.998
X4.5358 Y0.9989
X4.5276 Y0.9998
X4.5193 Y1.0006
X4.5109 Y1.0014
X4.5024 Y1.0022
X4.4939 Y1.003
X4.4854 Y1.0037
X4.4769 Y1.0045
X4.4684 Y1.0052
X4.46 Y1.0059
X4.4517 Y1.0066
X4.4434 Y1.0073
X4.4353 Y1.008
X4.4352
X4.4273 Y1.0087
X4.4194 Y1.0094
X4.4193
X4.4117 Y1.0101
X4.4116
X4.4042 Y1.0108
X4.397 Y1.0115
X4.3969
X4.3899 Y1.0123
X4.3898
X4.3831 Y1.013
X4.383
X4.3766 Y1.0138
X4.3764
X4.3703 Y1.0146
X4.3701
X4.3643 Y1.0154
X4.3641 Y1.0155
X4.3585 Y1.0163
X4.3582 Y1.0164
X4.3528 Y1.0173
X4.3525
X4.3473 Y1.0182
X4.347 Y1.0183
X4.3419 Y1.0193
X4.3416 Y1.0194
X4.3367 Y1.0205
X4.3363
X4.3315 Y1.0217
X4.3311 Y1.0218
X4.3264 Y1.023
X4.326 Y1.0231
X4.3213 Y1.0245
X4.3209 Y1.0246
X4.3163 Y1.026
X4.3159 Y1.0261
X4.3113 Y1.0277
X4.3109 Y1.0278
X4.3063 Y1.0295
X4.3059 Y1.0296
X4.3012 Y1.0314
X4.3009 Y1.0315
X4.2962 Y1.0334
X4.2959 Y1.0336
X4.2911 Y1.0356
X4.2907 Y1.0358
X4.2858 Y1.0379
X4.2856 Y1.0381
X4.2806 Y1.0404
X4.2803 Y1.0405
X4.2751 Y1.0431
X4.2749 Y1.0432
X4.2696 Y1.0459
X4.2694 Y1.046
X4.2638 Y1.0488
X4.2637 Y1.0489
X4.2579 Y1.052
X4.2577
X4.2517 Y1.0553
X4.2516
X4.2453 Y1.0588
X4.2452
X4.2387 Y1.0625
X4.2386
X4.2318 Y1.0663
X4.2247 Y1.0703
X4.2246
X4.2174 Y1.0744
X4.2099 Y1.0786
X4.2022 Y1.0829
X4.1943 Y1.0873
X4.1861 Y1.0917
X4.1778 Y1.0962
X4.1693 Y1.1007
X4.1606 Y1.1052
X4.1517 Y1.1097
X4.1427 Y1.1141
X4.1335 Y1.1185
X4.1242 Y1.1229
X4.1146 Y1.1271
X4.105 Y1.1313
X4.0952 Y1.1353
X4.0853 Y1.1393
X4.0753 Y1.143
X4.0651 Y1.1466
X4.0548 Y1.15
X4.0444 Y1.1533
X4.0339 Y1.1563
X4.0233 Y1.1591
X4.0127 Y1.1617
X4.0019 Y1.1642
X3.9911 Y1.1665
X3.9802 Y1.1687
X3.9694 Y1.1707
X3.9585 Y1.1726
X3.9477 Y1.1744
X3.9369 Y1.1761
X3.9262 Y1.1777
X3.9155 Y1.1792
X3.905 Y1.1807
X3.8946 Y1.1821
X3.8843 Y1.1835
X3.8742 Y1.1849
X3.8642 Y1.1862
X3.8641
X3.8544 Y1.1876
X3.8449 Y1.1889
X3.8447
X3.8355 Y1.1903
X3.8354 Y1.1904
X3.8264 Y1.1918
X3.8262
X3.8176 Y1.1933
X3.8173
X3.809 Y1.1949
X3.8086
X3.8006 Y1.1965
X3.8003 Y1.1966
X3.7926 Y1.1983
X3.7923 Y1.1984
X3.7849 Y1.2001
X3.7845 Y1.2002
X3.7775 Y1.2021
X3.777 Y1.2022
X3.7703 Y1.2042
X3.7698 Y1.2043
X3.7634 Y1.2064
X3.7629 Y1.2066
X3.7567 Y1.2088
X3.7562 Y1.209
X3.7503 Y1.2113
X3.7497 Y1.2115
X3.744 Y1.214
X3.7434 Y1.2143
X3.738 Y1.2169
X3.7373 Y1.2172
X3.7321 Y1.2199
X3.7314 Y1.2203
X3.7264 Y1.2232
X3.7257 Y1.2236
X3.7209 Y1.2267
X3.7202 Y1.2271
X3.7156 Y1.2304
X3.7149 Y1.2308
X3.7104 Y1.2343
X3.7098 Y1.2348
X3.7054 Y1.2384
X3.7048 Y1.2389
X3.7006 Y1.2428
X3.7 Y1.2433
X3.6959 Y1.2474
X3.6954 Y1.2479
X3.6913 Y1.2522
X3.6909 Y1.2527
X3.6869 Y1.2572
X3.6865 Y1.2577
X3.6826 Y1.2625
X3.6822 Y1.2629
X3.6783 Y1.2679
X3.678 Y1.2684
X3.6742 Y1.2737
X3.6739 Y1.2741
X3.6701 Y1.2796
X3.6698 Y1.28
X3.666 Y1.2858
X3.6658 Y1.2862
X3.6619 Y1.2923
X3.6618 Y1.2926
X3.6579 Y1.299
X3.6578 Y1.2993
X3.6539 Y1.306
X3.6538 Y1.3062
X3.6499 Y1.3131
Y1.3132
X3.646 Y1.3204
X3.6459 Y1.3205
X3.642 Y1.3278
X3.6419 Y1.3279
X3.638 Y1.3353
Y1.3354
X3.634 Y1.343
X3.63 Y1.3507
X3.6259 Y1.3585
X3.6218 Y1.3664
X3.6176 Y1.3742
X3.6134 Y1.3821
X3.6092 Y1.3899
X3.6048 Y1.3977
X3.6004 Y1.4054
X3.5959 Y1.413
X3.5914 Y1.4205
X3.5867 Y1.4278
X3.582 Y1.435
X3.5772 Y1.442
X3.5723 Y1.4488
X3.5673 Y1.4553
X3.5622 Y1.4616
X3.557 Y1.4676
X3.5517 Y1.4734
X3.5462 Y1.4789
X3.5407 Y1.4842
X3.535 Y1.4893
X3.5292 Y1.4941
X3.5234 Y1.4988
X3.5174 Y1.5033
X3.5112 Y1.5076
X3.505 Y1.5118
X3.4987 Y1.5158
X3.4922 Y1.5196
X3.4857 Y1.5233
X3.479 Y1.5269
X3.4723 Y1.5303
X3.4654 Y1.5337
X3.4584 Y1.5369
X3.4514 Y1.54
X3.4443 Y1.5431
X3.437 Y1.5461
X3.4297 Y1.549
X3.4223 Y1.5518
X3.4148 Y1.5546
X3.4073 Y1.5574
X3.3997 Y1.5601
X3.392 Y1.5628
X3.3842 Y1.5654
X3.3764 Y1.568
X3.3686 Y1.5705
X3.3607 Y1.5729
X3.3527 Y1.5753
X3.3447 Y1.5776
X3.3366 Y1.5798
X3.3285 Y1.5819
X3.3204 Y1.5839
X3.3122 Y1.5858
X3.3039 Y1.5876
X3.2956 Y1.5892
X3.2873 Y1.5908
X3.2789 Y1.5922
X3.2705 Y1.5935
X3.262 Y1.5946
X3.2535 Y1.5956
X3.245 Y1.5964
X3.2364 Y1.5971
X3.2278 Y1.5976
X3.2191 Y1.5979
X3.2104 Y1.598
X3.2017
X3.1928 Y1.5978
X3.184 Y1.5975
X3.1751 Y1.5971
X3.1661 Y1.5966
X3.1572 Y1.5961
X3.1481 Y1.5955
X3.1391 Y1.5949
X3.1301 Y1.5944
X3.13
X3.121 Y1.5939
X3.1209
X3.1119 Y1.5935
X3.1117
X3.1028 Y1.5931
X3.1025
X3.0937 Y1.5929
X3.0934
X3.0846
X3.0842
X3.0755 Y1.5931
X3.075
X3.0663 Y1.5935
X3.0658
X3.0572 Y1.5941
X3.0566
X3.048 Y1.595
X3.0474 Y1.5951
X3.0389 Y1.5962
X3.0382 Y1.5963
X3.0298 Y1.5978
X3.029 Y1.5979
X3.0207 Y1.5997
X3.0199 Y1.5999
X3.0116 Y1.602
X3.0108 Y1.6023
X3.0026 Y1.6048
X3.0017 Y1.6051
X2.9936 Y1.6081
X2.9928 Y1.6084
X2.9847 Y1.6119
X2.9839 Y1.6122
X2.9759 Y1.6161
X2.9752 Y1.6164
X2.9672 Y1.6207
X2.9666 Y1.621
X2.9587 Y1.6256
X2.9582 Y1.6259
X2.9503 Y1.6309
X2.9498 Y1.6311
X2.942 Y1.6364
X2.9416 Y1.6366
X2.9338 Y1.6421
X2.9335 Y1.6423
X2.9257 Y1.648
X2.9255 Y1.6482
X2.9178 Y1.6541
X2.9175 Y1.6543
X2.9099 Y1.6603
X2.9097 Y1.6605
X2.9021 Y1.6666
X2.902 Y1.6667
X2.8945 Y1.6729
X2.8944 Y1.673
X2.8869 Y1.6792
Y1.6793
X2.8795 Y1.6855
X2.8794 Y1.6856
X2.8721 Y1.6918
X2.8649 Y1.6979
X2.8579 Y1.7039
X2.8509 Y1.7097
X2.8441 Y1.7153
X2.8374 Y1.7206
X2.8309 Y1.7256
X2.8246 Y1.7303
X2.8184 Y1.7346
X2.8123 Y1.7385
X2.8074 Y1.7415
X2.8025 Y1.7441
X2.7977 Y1.7465
X2.793 Y1.7485
X2.7884 Y1.7502
X2.7838 Y1.7517
X2.7794 Y1.7529
X2.7749 Y1.7539
X2.7706 Y1.7546
X2.7662 Y1.755
X2.7619 Y1.7552
X2.7576
X2.7532 Y1.755
X2.7489 Y1.7545
X2.7445 Y1.7538
X2.7401 Y1.7528
X2.7356 Y1.7516
X2.7311 Y1.7502
X2.7265 Y1.7485
X2.7218 Y1.7466
X2.7171 Y1.7444
X2.7122 Y1.7419
X2.7072 Y1.7392
X2.7021 Y1.7363
X2.6969 Y1.7332
X2.6916 Y1.7298
X2.6861 Y1.7261
X2.6805 Y1.7223
X2.6739 Y1.7175
X2.667 Y1.7124
X2.6601 Y1.7071
X2.6529 Y1.7014
X2.6457 Y1.6954
X2.6383 Y1.689
X2.6307 Y1.6824
X2.6231 Y1.6754
X2.6153 Y1.668
X2.6075 Y1.6604
X2.5995 Y1.6523
X2.5914 Y1.6439
X2.5833 Y1.6351
X2.575 Y1.6259
X2.5667 Y1.6164
X2.5584 Y1.6064
X2.5499 Y1.5961
X2.5414 Y1.5853
X2.5329 Y1.5742
X2.5243 Y1.5626
X2.5157 Y1.5506
X2.507 Y1.5381
X2.4984 Y1.5252
X2.4897 Y1.5119
X2.481 Y1.4981
X2.4723 Y1.4839
X2.4636 Y1.4693
X2.4549 Y1.4544
X2.4463 Y1.4392
X2.4377 Y1.4238
X2.4292 Y1.4082
X2.4207 Y1.3924
X2.4124 Y1.3766
X2.4041 Y1.3607
X2.3959 Y1.3448
X2.3879 Y1.3289
X2.38 Y1.3132
X2.3723 Y1.2976
X2.3647 Y1.2821
X2.3574 Y1.2669
X2.3501 Y1.252
X2.3431 Y1.2373
X2.3363 Y1.2231
X2.3298 Y1.2092
X2.3234 Y1.1958
X2.3173 Y1.1829
X2.3115 Y1.1705
X2.3059 Y1.1588
X2.3006 Y1.1476
X2.2956 Y1.1371
X2.2955 Y1.137
X2.2907 Y1.1272
Y1.127
X2.2861 Y1.1178
X2.286 Y1.1176
X2.2816 Y1.109
X2.2814 Y1.1087
X2.2771 Y1.1007
X2.277 Y1.1003
X2.2728 Y1.0928
X2.2725 Y1.0924
X2.2684 Y1.0854
X2.2681 Y1.0849
X2.264 Y1.0784
X2.2637 Y1.0778
X2.2596 Y1.0718
X2.2591 Y1.0712
X2.255 Y1.0655
X2.2545 Y1.0648
X2.2503 Y1.0596
X2.2497 Y1.0589
X2.2453 Y1.054
X2.2446 Y1.0533
X2.2402 Y1.0488
X2.2394 Y1.0481
X2.2348 Y1.0439
X2.2339 Y1.0432
X2.2291 Y1.0393
X2.2281 Y1.0387
X2.2231 Y1.0351
X2.2222 Y1.0345
X2.2167 Y1.0312
X2.2158 Y1.0307
X2.21 Y1.0275
X2.2092 Y1.0271
X2.203 Y1.0242
X2.2022 Y1.0238
X2.1955 Y1.021
X2.1948 Y1.0207
X2.1876 Y1.0181
X2.187 Y1.0179
X2.1793 Y1.0154
X2.1787 Y1.0152
X2.1704 Y1.0128
X2.1699 Y1.0126
X2.1611 Y1.0104
X2.1606 Y1.0102
X2.1512 Y1.0081
X2.1508 Y1.008
X2.1408 Y1.0059
X2.1405 Y1.0058
X2.13 Y1.0038
X2.1297
X2.1187 Y1.0019
X2.1184
X2.107 Y1.0001
X2.1068
X2.0949 Y0.9984
X2.0947
X2.0824 Y0.9968
X2.0822
X2.0696 Y0.9953
X2.0694
X2.0564 Y0.9939
X2.0562
X2.0429 Y0.9927
X2.0427
X2.0291 Y0.9915
X2.0289
X2.015 Y0.9904
X2.0149
X2.0007 Y0.9895
X2.0006
X1.9862 Y0.9886
X1.9861
X1.9715 Y0.9879
X1.9714
X1.9567 Y0.9872
X1.9565
X1.9417 Y0.9867
X1.9416 Y0.9866
X1.9266 Y0.9862
X1.9264
X1.9114 Y0.9858
X1.9113
X1.8961 Y0.9856
X1.896
X1.8808 Y0.9854
X1.8807
X1.8655
X1.8654
X1.8503
X1.8501
X1.835 Y0.9856
X1.8349
X1.8198 Y0.9858
X1.8197
X1.8047 Y0.9862
X1.8046
X1.7897 Y0.9867
X1.7896
X1.7748 Y0.9873
X1.7746
X1.7601 Y0.988
X1.7599
X1.7455 Y0.9889
X1.7453
X1.731 Y0.99
X1.7308
X1.7168 Y0.9911
X1.7166 Y0.9912
X1.7028 Y0.9925
X1.7026
X1.6891 Y0.994
X1.6888
X1.6756 Y0.9957
X1.6753
X1.6624 Y0.9976
X1.6621
X1.6495 Y0.9996
X1.6491 Y0.9997
X1.6369 Y1.0018
X1.6365 Y1.0019
X1.6247 Y1.0043
X1.6243 Y1.0044
X1.6128 Y1.007
X1.6123 Y1.0071
X1.6013 Y1.0098
X1.6008 Y1.01
X1.5902 Y1.013
X1.5897 Y1.0131
X1.5795 Y1.0163
X1.5789 Y1.0165
X1.5693 Y1.0199
X1.5686 Y1.0202
X1.5594 Y1.0238
X1.5587 Y1.0241
X1.5501 Y1.028
X1.5493 Y1.0284
X1.5412 Y1.0325
X1.5403 Y1.033
X1.5328 Y1.0373
X1.532 Y1.0378
X1.5249 Y1.0424
X1.5241 Y1.043
X1.5175 Y1.0478
X1.5168 Y1.0483
X1.5106 Y1.0533
X1.5099 Y1.0539
X1.5041 Y1.0591
X1.5035 Y1.0597
X1.498 Y1.0651
X1.4975 Y1.0657
X1.4923 Y1.0712
X1.4918 Y1.0717
X1.487 Y1.0774
X1.4866 Y1.0779
X1.482 Y1.0836
X1.4817 Y1.0841
X1.4773 Y1.0899
X1.477 Y1.0903
X1.4729 Y1.0962
X1.4726 Y1.0966
X1.4686 Y1.1025
X1.4685 Y1.1028
X1.4646 Y1.1088
X1.4645 Y1.109
X1.4607 Y1.115
X1.4606 Y1.1151
X1.4569 Y1.1211
X1.4532 Y1.1272
X1.4495 Y1.133
X1.4459 Y1.1388
X1.4423 Y1.1443
X1.4386 Y1.1498
X1.4348 Y1.155
X1.431 Y1.16
X1.427 Y1.1647
X1.4229 Y1.1692
X1.4186 Y1.1735
X1.4141 Y1.1776
X1.4093 Y1.1814
X1.4042 Y1.1852
X1.399 Y1.1887
X1.3936 Y1.1921
X1.388 Y1.1953
X1.3822 Y1.1983
X1.3763 Y1.2012
X1.3704 Y1.204
X1.3643 Y1.2066
X1.3582 Y1.2091
X1.3521 Y1.2115
X1.3459 Y1.2138
X1.3398 Y1.216
X1.3337 Y1.2181
X1.3277 Y1.2201
X1.3217 Y1.222
X1.3159 Y1.2239
X1.3102 Y1.2257
X1.3101
X1.3046 Y1.2275
X1.3045
X1.2992 Y1.2292
X1.299 Y1.2293
X1.294 Y1.231
X1.2937 Y1.2311
X1.289 Y1.2328
X1.2887 Y1.2329
X1.2842 Y1.2345
X1.2839 Y1.2346
X1.2796 Y1.2363
X1.2792 Y1.2365
X1.2752 Y1.2381
X1.2747 Y1.2383
X1.2709 Y1.24
X1.2703 Y1.2403
X1.2667 Y1.2421
X1.266 Y1.2424
X1.2625 Y1.2443
X1.2618 Y1.2447
X1.2584 Y1.2467
X1.2577 Y1.2472
X1.2544 Y1.2494
X1.2537 Y1.2499
X1.2505 Y1.2523
X1.2497 Y1.2529
X1.2467 Y1.2554
X1.246 Y1.2561
X1.243 Y1.2589
X1.2423 Y1.2595
X1.2393 Y1.2626
X1.2387 Y1.2632
X1.2358 Y1.2665
X1.2353 Y1.2671
X1.2323 Y1.2708
X1.2319 Y1.2714
X1.2289 Y1.2754
X1.2285 Y1.2759
X1.2254 Y1.2802
X1.2251 Y1.2807
X1.222 Y1.2855
X1.2217 Y1.2859
X1.2185 Y1.2911
X1.2183 Y1.2914
X1.2149 Y1.2971
X1.2147 Y1.2974
X1.2112 Y1.3035
X1.211 Y1.3038
X1.2074 Y1.3105
X1.2072 Y1.3107
X1.2034 Y1.3179
X1.2033 Y1.3181
X1.1993 Y1.3259
X1.1992 Y1.3261
X1.1951 Y1.3344
X1.195 Y1.3345
X1.1906 Y1.3435
Y1.3436
X1.186 Y1.353
Y1.3532
X1.1813 Y1.3631
Y1.3632
X1.1764 Y1.3737
Y1.3738
X1.1715 Y1.3846
X1.1714 Y1.3848
X1.1665 Y1.396
X1.1664 Y1.3961
X1.1614 Y1.4077
X1.1613 Y1.4078
X1.1562 Y1.4197
Y1.4198
X1.1511 Y1.432
X1.151 Y1.4321
X1.1459 Y1.4445
Y1.4446
X1.1408 Y1.4572
Y1.4573
X1.1357 Y1.47
Y1.4701
X1.1308 Y1.483
X1.1307 Y1.4831
X1.1259 Y1.496
X1.1258 Y1.4962
X1.1211 Y1.5091
X1.121 Y1.5092
X1.1164 Y1.5221
Y1.5223
X1.1119 Y1.5352
X1.1118 Y1.5353
X1.1076 Y1.5481
X1.1075 Y1.5483
X1.1035 Y1.5609
X1.1034 Y1.5612
X1.0996 Y1.5736
X1.0995 Y1.5738
X1.0959 Y1.5861
Y1.5864
X1.0926 Y1.5983
X1.0925 Y1.5987
X1.0895 Y1.6103
X1.0894 Y1.6107
X1.0867 Y1.622
X1.0866 Y1.6224
X1.0842 Y1.6334
X1.0841 Y1.6338
X1.0821 Y1.6445
X1.082 Y1.6449
X1.0802 Y1.6552
Y1.6556
X1.0787 Y1.6656
X1.0786 Y1.666
X1.0773 Y1.6757
Y1.6761
X1.0762 Y1.6855
Y1.6858
X1.0753 Y1.695
Y1.6953
X1.0746 Y1.7042
X1.0745 Y1.7044
X1.074 Y1.7131
Y1.7133
X1.0735 Y1.7217
Y1.7219
X1.0731 Y1.7301
Y1.7303
X1.0728 Y1.7383
Y1.7384
X1.0726 Y1.7462
X1.0723 Y1.7538
X1.0721 Y1.7612
X1.0718 Y1.7684
X1.0715 Y1.7754
X1.0712 Y1.7822
X1.0707 Y1.7888
X1.0701 Y1.7953
X1.0694 Y1.8015
X1.0686 Y1.8077
X1.0676 Y1.8137
X1.0664 Y1.8196
X1.0649 Y1.8254
X1.0633 Y1.8312
X1.0615 Y1.8369
X1.0595 Y1.8426
X1.0574 Y1.8483
X1.0551 Y1.8541
X1.0526 Y1.8598
X1.05 Y1.8656
X1.0473 Y1.8714
X1.0444 Y1.8772
X1.0415 Y1.8832
X1.0384 Y1.8892
X1.0353 Y1.8953
X1.0322 Y1.9015
X1.029 Y1.9078
Y1.9079
X1.0258 Y1.9143
X1.0257 Y1.9144
X1.0226 Y1.9209
X1.0225 Y1.921
X1.0194 Y1.9276
X1.0193 Y1.9278
X1.0162 Y1.9345
X1.0161 Y1.9348
X1.0131 Y1.9416
X1.013 Y1.9419
X1.01 Y1.9489
X1.0099 Y1.9492
X1.007 Y1.9564
X1.0069 Y1.9568
X1.0042 Y1.9641
X1.004 Y1.9645
X1.0014 Y1.972
X1.0013 Y1.9724
X0.9988 Y1.9802
X0.9987 Y1.9806
X0.9963 Y1.9885
X0.9962 Y1.989
X0.994 Y1.9971
X0.9938 Y1.9976
X0.9918 Y2.006
X0.9917 Y2.0064
X0.9898 Y2.015
X0.9897 Y2.0155
X0.988 Y2.0243
X0.9879 Y2.0247
X0.9864 Y2.0338
X0.9863 Y2.0343
X0.9849 Y2.0435
Y2.044
X0.9837 Y2.0535
Y2.054
X0.9828 Y2.0637
X0.9827 Y2.0642
X0.982 Y2.0741
Y2.0746
X0.9815 Y2.0848
Y2.0853
X0.9813 Y2.0957
Y2.0961
Y2.1068
Y2.1073
X0.9816 Y2.1182
Y2.1186
X0.9822 Y2.1298
Y2.1302
X0.9831 Y2.1416
Y2.142
X0.9843 Y2.1536
Y2.1541
X0.9858 Y2.1659
Y2.1663
X0.9876 Y2.1784
X0.9877 Y2.1788
X0.9897 Y2.1912
X0.9898 Y2.1916
X0.9923 Y2.2042
Y2.2046
X0.9951 Y2.2174
X0.9952 Y2.2178
X0.9983 Y2.2308
X0.9984 Y2.2312
X1.0019 Y2.2445
X1.002 Y2.2449
X1.0059 Y2.2584
X1.006 Y2.2588
X1.0102 Y2.2725
X1.0103 Y2.2728
X1.0148 Y2.2868
X1.0149 Y2.2871
X1.0197 Y2.3012
X1.0198 Y2.3014
X1.0249 Y2.3157
X1.025 Y2.3159
X1.0304 Y2.3303
X1.0305 Y2.3305
X1.0361 Y2.345
X1.0362 Y2.3452
X1.0421 Y2.3598
Y2.36
X1.0482 Y2.3746
X1.0483 Y2.3748
X1.0546 Y2.3895
X1.0547 Y2.3896
X1.0612 Y2.4043
Y2.4045
X1.0679 Y2.4192
X1.068 Y2.4193
X1.0748 Y2.434
Y2.4341
X1.0818 Y2.4487
X1.0819 Y2.4489
X1.0889 Y2.4634
X1.089 Y2.4636
X1.0961 Y2.478
X1.0962 Y2.4781
X1.1035 Y2.4925
Y2.4926
X1.1108 Y2.5068
X1.1109 Y2.5069
X1.1183 Y2.521
Y2.5211
X1.1257 Y2.535
X1.1258 Y2.5351
X1.1332 Y2.5488
X1.1333 Y2.5489
X1.1407 Y2.5624
X1.1408 Y2.5625
X1.1482 Y2.5757
Y2.5758
X1.1556 Y2.5888
X1.1557 Y2.5889
X1.163 Y2.6016
X1.1631 Y2.6017
X1.1704 Y2.6141
X1.1705 Y2.6142
X1.1778 Y2.6263
X1.1779 Y2.6265
X1.1851 Y2.6382
X1.1853 Y2.6384
X1.1925 Y2.6499
X1.1926 Y2.65
X1.1998 Y2.6612
X1.1999 Y2.6614
X1.2071 Y2.6722
X1.2073 Y2.6724
X1.2144 Y2.6828
X1.2146 Y2.683
X1.2217 Y2.6931
X1.2219 Y2.6933
X1.229 Y2.7031
X1.2292 Y2.7033
X1.2363 Y2.7126
X1.2365 Y2.7129
X1.2436 Y2.7219
X1.2438 Y2.7222
X1.2509 Y2.7307
X1.2512 Y2.731
X1.2582 Y2.7391
X1.2585 Y2.7395
X1.2655 Y2.7472
X1.2658 Y2.7476
X1.2728 Y2.7548
X1.2732 Y2.7552
X1.2802 Y2.762
X1.2806 Y2.7625
X1.2876 Y2.7688
X1.2881 Y2.7693
X1.295 Y2.7752
X1.2956 Y2.7757
X1.3025 Y2.7811
X1.3031 Y2.7816
X1.31 Y2.7865
X1.3107 Y2.787
X1.3176 Y2.7915
X1.3184 Y2.792
X1.3253 Y2.796
X1.3262 Y2.7965
X1.3331 Y2.7999
X1.334 Y2.8004
X1.3409 Y2.8034
X1.3418 Y2.8038
X1.3489 Y2.8064
X1.3497 Y2.8067
X1.3568 Y2.809
X1.3577 Y2.8092
X1.3648 Y2.8112
X1.3656 Y2.8114
X1.3729 Y2.813
X1.3736 Y2.8132
X1.381 Y2.8146
X1.3816 Y2.8147
X1.3891 Y2.8158
X1.3896 Y2.8159
X1.3973 Y2.8169
X1.3977 Y2.817
X1.4056 Y2.8178
X1.4059
X1.4139 Y2.8186
X1.4141
X1.4224 Y2.8192
X1.4225 Y2.8193
X1.4309 Y2.8199
X1.4396 Y2.8205
X1.4484 Y2.8211
X1.4573 Y2.8218
X1.4665 Y2.8226
X1.4758 Y2.8235
X1.4854 Y2.8246
X1.4952 Y2.8259
X1.5052 Y2.8274
X1.5154 Y2.8292
X1.526 Y2.8314
X1.5368 Y2.8339
X1.5479 Y2.8367
X1.5592 Y2.84
X1.5709 Y2.8436
X1.5827 Y2.8475
X1.5947 Y2.8517
X1.6068 Y2.8562
X1.619 Y2.861
X1.6312 Y2.866
X1.6434 Y2.8711
X1.6556 Y2.8765
X1.6677 Y2.882
X1.6797 Y2.8876
X1.6916 Y2.8934
X1.7033 Y2.8992
X1.7148 Y2.905
X1.726 Y2.9109
X1.7369 Y2.9167
X1.7475 Y2.9226
X1.7577 Y2.9284
X1.7675 Y2.9341
X1.7768 Y2.9397
X1.7857 Y2.9451
X1.794 Y2.9504
X1.8018 Y2.9555
X1.809 Y2.9604
X1.8157 Y2.9651
X1.8217 Y2.9695
X1.8273 Y2.9738
X1.8322 Y2.9779
X1.8367 Y2.9818
X1.8406 Y2.9855
X1.844 Y2.9891
X1.847 Y2.9924
X1.8494 Y2.9956
X1.8515 Y2.9986
X1.8532 Y3.0014
X1.8545 Y3.0041
X1.8556 Y3.0067
X1.8563 Y3.0092
X1.8569 Y3.0117
X1.8572 Y3.014
X1.8573 Y3.0164
X1.8572 Y3.0188
X1.857 Y3.0213
X1.8565 Y3.0239
X1.8559 Y3.0266
X1.8551 Y3.0294
X1.8541 Y3.0323
X1.853 Y3.0353
X1.8517 Y3.0385
X1.8504 Y3.0417
X1.8489 Y3.045
X1.8473 Y3.0483
X1.8456 Y3.0517
X1.8439 Y3.0552
X1.8421 Y3.0586
X1.8403 Y3.0621
X1.8384 Y3.0656
X1.8365 Y3.0691
X1.8345 Y3.0727
X1.8326 Y3.0762
X1.8307 Y3.0797
Y3.0798
X1.8288 Y3.0832
X1.8287 Y3.0833
X1.8269 Y3.0867
Y3.0868
X1.8251 Y3.0902
X1.825 Y3.0904
X1.8233 Y3.0937
X1.8232 Y3.0939
X1.8216 Y3.0972
X1.8215 Y3.0975
X1.82 Y3.1007
X1.8198 Y3.101
X1.8184 Y3.1041
X1.8182 Y3.1046
X1.817 Y3.1076
X1.8168 Y3.1081
X1.8156 Y3.1111
X1.8154 Y3.1117
X1.8144 Y3.1145
X1.8143 Y3.115
X1.8134 Y3.1178
X1.8132 Y3.1183
X1.8125 Y3.1209
X1.8123 Y3.1218
X1.8117 Y3.1243
X1.8115 Y3.1254
X1.8111 Y3.1279
X1.8109 Y3.1293
X1.8107 Y3.1317
X1.8106 Y3.1333
Y3.1358
X1.8107 Y3.1375
X1.8109 Y3.14
X1.8112 Y3.1417
X1.8117 Y3.1442
X1.812 Y3.1458
X1.8128 Y3.1485
X1.8132 Y3.1499
X1.8143 Y3.1527
X1.8147 Y3.1539
X1.8161 Y3.1569
X1.8165 Y3.1578
X1.8182 Y3.1611
X1.8186 Y3.1619
X1.8206 Y3.1655
X1.821 Y3.1661
X1.8234 Y3.17
X1.8238 Y3.1706
X1.8266 Y3.1748
X1.827 Y3.1754
X1.8302 Y3.1799
X1.8305 Y3.1803
X1.8343 Y3.1852
X1.8346 Y3.1855
X1.8388 Y3.1907
X1.839 Y3.191
X1.8437 Y3.1966
X1.8439 Y3.1968
X1.8491 Y3.2028
X1.8493 Y3.203
X1.8551 Y3.2093
X1.8553 Y3.2095
X1.8615 Y3.2162
X1.8617 Y3.2164
X1.8685 Y3.2235
X1.8687 Y3.2236
X1.8761 Y3.2312
X1.8762 Y3.2313
X1.8842 Y3.2394
X1.8843 Y3.2395
X1.8929 Y3.2479
X1.893 Y3.248
X1.9021 Y3.2568
Y3.2569
X1.9117 Y3.2661
X1.9118
X1.9217 Y3.2756
X1.9218 Y3.2757
X1.9321 Y3.2853
X1.9322 Y3.2854
X1.9429 Y3.2953
Y3.2954
X1.9539 Y3.3054
X1.954 Y3.3055
X1.9652 Y3.3157
X1.9767 Y3.326
Y3.3261
X1.9883 Y3.3364
X1.9884
X2.0001 Y3.3467
Y3.3468
X2.0119 Y3.3571
X2.012
X2.0238 Y3.3673
X2.0239 Y3.3674
X2.0356 Y3.3774
X2.0357 Y3.3775
X2.0474 Y3.3873
X2.0475 Y3.3874
X2.0591 Y3.397
X2.0592 Y3.3971
X2.0707 Y3.4065
X2.0708 Y3.4066
X2.0821 Y3.4156
X2.0822 Y3.4157
X2.0933 Y3.4245
X2.0934 Y3.4246
X2.1042 Y3.4329
X2.1044 Y3.433
X2.1148 Y3.441
X2.115 Y3.4411
X2.1251 Y3.4485
X2.1253 Y3.4487
X2.135 Y3.4556
X2.1352 Y3.4558
X2.1445 Y3.4622
X2.1447 Y3.4624
X2.1535 Y3.4682
X2.1539 Y3.4684
X2.1623 Y3.4738
X2.1627 Y3.474
X2.1708 Y3.4788
X2.1713 Y3.4791
X2.1792 Y3.4835
X2.1798 Y3.4838
X2.1874 Y3.4876
X2.1881 Y3.488
X2.1956 Y3.4913
X2.1964 Y3.4917
X2.2038 Y3.4946
X2.2047 Y3.4949
X2.212 Y3.4974
X2.213 Y3.4977
X2.2203 Y3.4998
X2.2213 Y3.5
X2.2288 Y3.5017
X2.2298 Y3.5019
X2.2374 Y3.5032
X2.2383 Y3.5033
X2.2461 Y3.5042
X2.247 Y3.5043
X2.2551 Y3.5049
X2.2559
X2.2643 Y3.5051
X2.265
X2.2738 Y3.505
X2.2744
X2.2836 Y3.5046
X2.2842
X2.2939 Y3.5039
X2.2943 Y3.5038
X2.3046 Y3.5029
X2.3049 Y3.5028
X2.3158 Y3.5016
X2.3161 Y3.5015
X2.3277 Y3.5
X2.3279
X2.3402 Y3.4982
X2.3403
X2.3533 Y3.4962
X2.3535
X2.3673 Y3.4939
X2.3674
X2.382 Y3.4915
X2.3821
X2.3975 Y3.4888
X2.4137 Y3.486
X2.4307 Y3.483
X2.4484 Y3.4799
X2.4667 Y3.4766
X2.4857 Y3.4733
X2.5053 Y3.4699
X2.5255 Y3.4664
X2.5462 Y3.4628
X2.5675 Y3.4593
X2.5892 Y3.4557
X2.6114 Y3.4522
X2.6341 Y3.4487
X2.6571 Y3.4452
X2.6806 Y3.4418
X2.7043 Y3.4385
X2.7284 Y3.4352
X2.7528 Y3.4321
X2.7774 Y3.4292
X2.8023 Y3.4264
X2.8273 Y3.4238
X2.8525 Y3.4214
X2.8779 Y3.4192
X2.9033 Y3.4172
X2.9289 Y3.4154
X2.9544 Y3.4139
X2.9799 Y3.4126
X3.0052 Y3.4115
X3.0305 Y3.4106
X3.0556 Y3.4099
X3.0804 Y3.4094
X3.1049 Y3.409
X3.1291 Y3.4089
X3.1529
X3.1763 Y3.4091
X3.1992 Y3.4095
X3.2215 Y3.41
X3.2433 Y3.4106
X3.2644 Y3.4114
X3.2848 Y3.4123
X3.3045 Y3.4134
X3.3234 Y3.4146
X3.3415 Y3.4159
X3.3586 Y3.4173
X3.3748 Y3.4188
X3.39 Y3.4204
X3.4042 Y3.4221
X3.4172 Y3.4239
X3.4292 Y3.4257
X3.4402 Y3.4277
X3.4503 Y3.4297
X3.4593 Y3.4318
X3.4675 Y3.4341
X3.4748 Y3.4364
X3.4813 Y3.4388
X3.487 Y3.4413
X3.4919 Y3.4438
X3.4962 Y3.4465
X3.4999 Y3.4491
X3.5032 Y3.4519
X3.506 Y3.4548
X3.5085 Y3.4578
X3.5106 Y3.4609
X3.5125 Y3.4642
X3.5143 Y3.4677
X3.5158 Y3.4715
X3.5173 Y3.4756
X3.5186 Y3.48
X3.5199 Y3.4847
X3.5212 Y3.4897
X3.5225 Y3.495
X3.5239 Y3.5005
X3.5254 Y3.5062
X3.5268 Y3.5121
X3.5269 Y3.5122
X3.5284 Y3.5182
X3.53 Y3.5244
Y3.5245
X3.5317 Y3.5307
Y3.5308
X3.5334 Y3.5371
Y3.5372
X3.5351 Y3.5436
X3.5352 Y3.5437
X3.537 Y3.5502
Y3.5503
X3.5388 Y3.5568
Y3.5569
X3.5407 Y3.5634
X3.5408 Y3.5635
X3.5427 Y3.57
Y3.5702
X3.5447 Y3.5766
Y3.5768
X3.5467 Y3.5831
X3.5468 Y3.5833
X3.5488 Y3.5896
X3.5489 Y3.5898
X3.551 Y3.596
Y3.5962
X3.5531 Y3.6023
X3.5532 Y3.6026
X3.5554 Y3.6085
Y3.6088
X3.5576 Y3.6146
X3.5577 Y3.6148
X3.5599 Y3.6205
X3.56 Y3.6207
X3.5623 Y3.6262
X3.5624 Y3.6265
X3.5647 Y3.6317
X3.5649 Y3.6321
X3.5671 Y3.637
X3.5673 Y3.6375
X3.5697 Y3.6422
X3.5699 Y3.6426
X3.5722 Y3.647
X3.5725 Y3.6475
X3.5748 Y3.6516
X3.5751 Y3.6521
X3.5774 Y3.656
X3.5777 Y3.6565
X3.5801 Y3.6601
X3.5804 Y3.6606
X3.5828 Y3.664
X3.5831 Y3.6645
X3.5855 Y3.6677
X3.5859 Y3.6683
X3.5883 Y3.6712
X3.5887 Y3.6718
X3.5911 Y3.6745
X3.5916 Y3.675
X3.594 Y3.6775
X3.5945 Y3.6781
X3.5969 Y3.6804
X3.5975 Y3.681
X3.5998 Y3.6831
X3.6005 Y3.6837
X3.6029 Y3.6856
X3.6035 Y3.6861
X3.6059 Y3.6879
X3.6066 Y3.6884
X3.6089 Y3.69
X3.6097 Y3.6905
X3.612 Y3.6919
X3.6128 Y3.6924
X3.6152 Y3.6937
X3.6159 Y3.6941
X3.6183 Y3.6952
X3.619 Y3.6956
X3.6214 Y3.6967
X3.6222 Y3.697
X3.6245 Y3.6979
X3.6252 Y3.6981
X3.6276 Y3.699
X3.6283 Y3.6992
X3.6307 Y3.6999
X3.6313 Y3.7001
X3.6337 Y3.7007
X3.6343 Y3.7009
X3.6367 Y3.7014
X3.6372 Y3.7015
X3.6396 Y3.702
X3.6402 Y3.7021
X3.6424 Y3.7024
X3.643 Y3.7025
X3.6452 Y3.7028
X3.6459 Y3.7029
X3.6481 Y3.7031
X3.6487
X3.6509 Y3.7033
X3.6515
X3.6538 Y3.7034
X3.6543
X3.6565
X3.6572
X3.6594 Y3.7033
X3.6599
X3.6621 Y3.7031
X3.6627
X3.6649 Y3.7029
X3.6654 Y3.7028
X3.6676 Y3.7025
X3.6682 Y3.7024
X3.6703 Y3.7021
X3.6708 Y3.702
X3.673 Y3.7016
X3.6735 Y3.7015
X3.6757 Y3.701
X3.6762 Y3.7009
X3.6783 Y3.7004
X3.6788 Y3.7003
X3.6809 Y3.6997
X3.6814 Y3.6995
X3.6836 Y3.6989
X3.684 Y3.6987
X3.6861 Y3.698
X3.6865 Y3.6979
X3.6887 Y3.6971
X3.6891 Y3.6969
X3.6912 Y3.6961
X3.6916 Y3.696
X3.6937 Y3.6951
X3.6941 Y3.6949
X3.6962 Y3.694
X3.6966 Y3.6938
X3.6987 Y3.6929
X3.699 Y3.6927
X3.7011 Y3.6917
X3.7014 Y3.6915
X3.7035 Y3.6904
X3.7039 Y3.6902
X3.7059 Y3.6892
X3.706 Y3.6891
X3.7079 Y3.688
X3.7083 Y3.6878
X3.7102 Y3.6868
X3.7105 Y3.6866
X3.7124 Y3.6854
X3.7128 Y3.6851
X3.7147 Y3.6839
X3.7152 Y3.6836
X3.717 Y3.6823
X3.7175 Y3.6819
X3.7194 Y3.6805
X3.7199 Y3.6801
X3.7218 Y3.6786
X3.7223 Y3.6782
X3.7243 Y3.6766
X3.7247 Y3.6761
X3.7267 Y3.6743
X3.7272 Y3.6739
X3.7292 Y3.6719
X3.7296 Y3.6715
X3.7317 Y3.6693
X3.7321 Y3.6689
X3.7342 Y3.6665
X3.7345 Y3.6661
X3.7367 Y3.6635
X3.737 Y3.6631
X3.7393 Y3.6603
X3.7395 Y3.66
X3.7419 Y3.6569
X3.7421 Y3.6565
X3.7445 Y3.6532
X3.7447 Y3.6529
X3.7472 Y3.6493
X3.7474 Y3.649
X3.75 Y3.6451
X3.7502 Y3.6448
X3.7529 Y3.6406
X3.7531 Y3.6404
X3.7559 Y3.6358
X3.756 Y3.6356
X3.7589 Y3.6307
X3.7591 Y3.6305
X3.7621 Y3.6252
X3.7622 Y3.625
X3.7654 Y3.6194
X3.7655 Y3.6191
X3.7688 Y3.6131
X3.7689 Y3.613
X3.7723 Y3.6065
X3.7724 Y3.6064
X3.7759 Y3.5995
X3.776 Y3.5994
X3.7797 Y3.5921
Y3.592
X3.7841 Y3.5832
X3.7842 Y3.583
X3.7887 Y3.5737
Y3.5736
X3.7934 Y3.5637
Y3.5636
X3.7982 Y3.5533
X3.7983 Y3.5532
X3.8031 Y3.5425
X3.8032 Y3.5424
X3.8081 Y3.5313
X3.8082 Y3.5312
X3.8132 Y3.5197
Y3.5196
X3.8183 Y3.5079
Y3.5078
X3.8234 Y3.4958
X3.8235 Y3.4956
X3.8285 Y3.4834
X3.8286 Y3.4833
X3.8336 Y3.4708
X3.8337 Y3.4707
X3.8387 Y3.4581
X3.8388 Y3.4579
X3.8437 Y3.4452
X3.8438 Y3.4451
X3.8487 Y3.4322
Y3.4321
X3.8535 Y3.4192
X3.8536 Y3.419
X3.8582 Y3.4061
X3.8583 Y3.406
X3.8628 Y3.3931
X3.8629 Y3.3929
X3.8673 Y3.3801
Y3.3799
X3.8716 Y3.3672
Y3.367
X3.8757 Y3.3544
Y3.3542
X3.8795 Y3.3417
X3.8796 Y3.3415
X3.8832 Y3.3293
X3.8833 Y3.329
X3.8866 Y3.317
X3.8867 Y3.3168
X3.8897 Y3.3051
X3.8898 Y3.3047
X3.8926 Y3.2933
X3.8927 Y3.293
X3.8952 Y3.2819
Y3.2816
X3.8975 Y3.2707
X3.8976 Y3.2704
X3.8996 Y3.2597
X3.8997 Y3.2594
X3.9015 Y3.2489
X3.9016 Y3.2486
X3.9032 Y3.2383
X3.9033 Y3.2381
X3.9047 Y3.2279
X3.9048 Y3.2277
X3.9061 Y3.2176
Y3.2174
X3.9073 Y3.2075
X3.9074 Y3.2073
X3.9085 Y3.1975
Y3.1973
X3.9095 Y3.1875
Y3.1874
X3.9104 Y3.1776
Y3.1775
X3.9113 Y3.1677
Y3.1676
X3.9121 Y3.1578
X3.913 Y3.148
X3.9138 Y3.1381
X3.9147 Y3.1281
X3.9156 Y3.1181
X3.9165 Y3.1079
X3.9175 Y3.0976
X3.9186 Y3.0871
X3.9199 Y3.0765
X3.9213 Y3.0656
X3.9228 Y3.0544
X3.9245 Y3.043
X3.9263 Y3.0314
X3.9284 Y3.0195
X3.9306 Y3.0075
X3.933 Y2.9953
X3.9356 Y2.9829
X3.9384 Y2.9705
X3.9414 Y2.9579
X3.9446 Y2.9453
X3.948 Y2.9327
X3.9516 Y2.9201
X3.9554 Y2.9075
X3.9595 Y2.8949
X3.9637 Y2.8825
X3.9681 Y2.8701
X3.9728 Y2.8579
X3.9777 Y2.8458
X3.9829 Y2.8339
X3.9882 Y2.8222
X3.9937 Y2.8108
X3.9996 Y2.7997
X4.0056 Y2.7888
X4.0119 Y2.7782
X4.0184 Y2.768
X4.0251 Y2.7582
X4.0321 Y2.7487
X4.0393 Y2.7395
X4.0466 Y2.7307
X4.0542 Y2.7223
X4.0619 Y2.7141
X4.0697 Y2.7064
X4.0777 Y2.6989
X4.0858 Y2.6917
X4.094 Y2.6849
X4.1022 Y2.6784
X4.1105 Y2.6723
X4.1189 Y2.6664
X4.1272 Y2.6608
X4.1356 Y2.6556
X4.1439 Y2.6506
X4.1522 Y2.646
X4.1604 Y2.6416
X4.1686 Y2.6375
X4.1767 Y2.6338
X4.1846 Y2.6303
X4.1925 Y2.6271
X4.2001 Y2.6242
X4.2077 Y2.6215
X4.215 Y2.6192
X4.2221 Y2.617
X4.2291 Y2.6151
X4.2359 Y2.6134
X4.2426 Y2.6119
X4.249 Y2.6106
X4.2553 Y2.6094
X4.2615 Y2.6083
X4.2675 Y2.6074
X4.2734 Y2.6066
X4.2791 Y2.6058
X4.2847 Y2.6051
X4.2901 Y2.6045
X4.2954 Y2.6039
X4.3006 Y2.6033
X4.3007
X4.3056 Y2.6027
X4.3058
X4.3105 Y2.6021
X4.3108 Y2.602
X4.3154 Y2.6014
X4.3157 Y2.6013
X4.3201 Y2.6006
X4.3206 Y2.6005
X4.3248 Y2.5997
X4.3254 Y2.5996
X4.3294 Y2.5987
X4.33 Y2.5986
X4.3339 Y2.5976
X4.3347 Y2.5974
X4.3384 Y2.5962
X4.3393 Y2.5959
X4.3428 Y2.5946
X4.3439 Y2.5942
X4.3472 Y2.5928
X4.3481 Y2.5923
X4.3514 Y2.5907
X4.3523 Y2.5902
X4.3555 Y2.5884
X4.3563 Y2.5878
X4.3594 Y2.5858
X4.36 Y2.5854
X4.3631 Y2.5832
X4.3636 Y2.5829
X4.3666 Y2.5806
X4.3672 Y2.5801
X4.3702 Y2.5777
X4.3706 Y2.5774
X4.3736 Y2.5748
X4.3739 Y2.5745
X4.3769 Y2.5718
X4.3771 Y2.5716
X4.3801 Y2.5688
X4.3803 Y2.5686
X4.3832 Y2.5657
X4.3834 Y2.5656
X4.3863 Y2.5627
X4.3865 Y2.5625
X4.3894 Y2.5596
X4.3895 Y2.5595
X4.3924 Y2.5565
X4.3954 Y2.5535
X4.3955 Y2.5534
X4.3984 Y2.5504
X4.4014 Y2.5474
X4.4043 Y2.5445
X4.4073 Y2.5417
X4.4103 Y2.5389
X4.4134 Y2.5361
X4.4164 Y2.5335
X4.4194 Y2.531
X4.4226 Y2.5286
X4.4257 Y2.5263
X4.4289 Y2.5241
X4.4322 Y2.522
X4.4355 Y2.52
X4.4389 Y2.518
X4.4424 Y2.516
X4.4459 Y2.5141
X4.4494 Y2.5122
X4.453 Y2.5103
X4.4565 Y2.5085
X4.4601 Y2.5066
X4.4603 Y2.5065
X4.4638 Y2.5046
X4.4674 Y2.5027
X4.4677 Y2.5026
X4.4711 Y2.5007
X4.4713 Y2.5006
X4.4748 Y2.4986
X4.4751 Y2.4984
X4.4785 Y2.4964
X4.4788 Y2.4962
X4.4821 Y2.4941
X4.4826 Y2.4938
X4.4858 Y2.4917
X4.4862 Y2.4914
X4.4893 Y2.4892
X4.4899 Y2.4887
X4.4929 Y2.4864
X4.4935 Y2.486
X4.4964 Y2.4835
X4.4971 Y2.483
X4.4999 Y2.4804
X4.5004 Y2.4799
X4.5014 Y2.4793
X4.5026 Y2.479
X4.5038 Y2.4793
X4.5048 Y2.48
X4.507 Y2.4822
X4.5078 Y2.4831 Z0.0327
X4.5085 Y2.4838 Z0.0334
X4.509 Y2.4843 Z0.0344
X4.5092 Y2.4845 Z0.0356
G0 Z0.2625
X4.5047 Y2.4888
G1 Z0.1019 F1.8
Z0.0194
X4.5045 Y2.4887 Z0.0182 F14.2
X4.504 Y2.4882 Z0.0172
X4.5033 Y2.4874 Z0.0165
X4.5025 Y2.4866 Z0.0163
X4.5003 Y2.4844
X4.4997 Y2.4833
X4.4994 Y2.4821
X4.4997 Y2.4809
X4.5004 Y2.4799
X4.5032 Y2.4772
X4.5039 Y2.4764
X4.5065 Y2.4735
X4.507 Y2.473
X4.5093 Y2.4702
X4.5099 Y2.4695
X4.5122 Y2.4665
X4.5126 Y2.4659
X4.5148 Y2.4628
X4.5151 Y2.4622
X4.5173 Y2.4589
X4.5177 Y2.4582
X4.5198 Y2.4547
X4.5201 Y2.4542
X4.5221 Y2.4505
X4.5225 Y2.4499
X4.5244 Y2.446
X4.5246 Y2.4455
X4.5266 Y2.4414
X4.5268 Y2.441
X4.5287 Y2.4367
X4.5289 Y2.4362
X4.5307 Y2.4317
X4.5309 Y2.4312
X4.5326 Y2.4265
X4.5327 Y2.4263
X4.5344 Y2.4215
X4.5346 Y2.4209
X4.5362 Y2.4158
X4.5363 Y2.4155
X4.5379 Y2.4103
X4.538 Y2.4099
X4.5395 Y2.4045
X4.5396 Y2.4042
X4.5411 Y2.3986
X4.5412 Y2.3982
X4.5425 Y2.3924
X4.5426 Y2.3921
X4.5439 Y2.3861
X4.544 Y2.3858
X4.5452 Y2.3797
X4.5453 Y2.3792
X4.5464 Y2.3729
X4.5465 Y2.3727
X4.5476 Y2.3661
Y2.366
X4.5487 Y2.3592
Y2.3588
X4.5497 Y2.3519
Y2.3518
X4.5506 Y2.3447
Y2.3443
X4.5514 Y2.3378
Y2.3377
X4.552 Y2.3312
X4.5521 Y2.331
X4.5527 Y2.3244
Y2.3242
X4.5533 Y2.3175
Y2.3174
X4.5538 Y2.3106
Y2.3105
X4.5543 Y2.3037
Y2.3036
X4.5547 Y2.2967
X4.5551 Y2.2898
Y2.2897
X4.5555 Y2.2828
Y2.2827
X4.5559 Y2.2758
X4.5563 Y2.2689
Y2.2687
X4.5566 Y2.2618
X4.5573 Y2.2479
X4.5577 Y2.2409
X4.558 Y2.234
X4.5584 Y2.2271
X4.5588 Y2.2203
X4.5592 Y2.2135
X4.5597 Y2.2068
X4.5602 Y2.2001
X4.5607 Y2.1935
X4.5613 Y2.187
X4.5619 Y2.1806
X4.5626 Y2.1743
X4.5634 Y2.1679
X4.5641 Y2.1618
X4.565 Y2.1557
X4.5659 Y2.1498
X4.5669 Y2.1439
X4.568 Y2.1381
X4.5691 Y2.1325
X4.5703 Y2.127
X4.5716 Y2.1216
X4.573 Y2.1162
X4.5744 Y2.111
X4.5759 Y2.106
X4.5775 Y2.1011
X4.5792 Y2.0963
X4.581 Y2.0917
X4.5828 Y2.0871
X4.5848 Y2.0827
X4.5868 Y2.0786
X4.589 Y2.0744
X4.5912 Y2.0704
X4.5935 Y2.0666
X4.5959 Y2.063
X4.5984 Y2.0595
X4.6011 Y2.056
X4.6037 Y2.0528
X4.6066 Y2.0497
X4.6095 Y2.0466
X4.6124 Y2.0438
X4.6156 Y2.0409
X4.6187 Y2.0382
X4.6219 Y2.0356
X4.6253 Y2.033
X4.6287 Y2.0306
X4.6321 Y2.0282
X4.6356 Y2.0258
X4.6392 Y2.0236
X4.6427 Y2.0214
X4.6464 Y2.0192
X4.65 Y2.0171
X4.6537 Y2.0151
X4.6574 Y2.0131
X4.6612 Y2.011
X4.6648 Y2.0091
X4.6685 Y2.0071
X4.6722 Y2.0052
X4.6723
X4.6759 Y2.0032
X4.6795 Y2.0013
X4.6796
X4.6831 Y1.9994
X4.6833 Y1.9993
X4.6867 Y1.9974
Y1.9973
X4.6901 Y1.9955
X4.6903 Y1.9954
X4.6935 Y1.9935
X4.6937 Y1.9934
X4.6969 Y1.9915
X4.6972 Y1.9913
X4.7003 Y1.9894
X4.7007 Y1.9892
X4.7037 Y1.9872
X4.7039 Y1.9871
X4.7068 Y1.9851
X4.7073 Y1.9848
X4.7101 Y1.9828
X4.7104 Y1.9826
X4.7132 Y1.9805
X4.7137 Y1.9801
X4.7164 Y1.978
X4.7168 Y1.9777
X4.7194 Y1.9755
X4.72 Y1.975
X4.7224 Y1.9727
X4.7228 Y1.9724
X4.7252 Y1.9701
X4.7258 Y1.9695
X4.7281 Y1.9671
X4.7286 Y1.9666
X4.7308 Y1.964
X4.7314 Y1.9634
X4.7335 Y1.9607
X4.734 Y1.9602
X4.736 Y1.9574
X4.7364 Y1.9569
X4.7384 Y1.954
X4.7389 Y1.9532
X4.7407 Y1.9503
X4.7411 Y1.9496
X4.7429 Y1.9465
X4.7433 Y1.9458
X4.7449 Y1.9425
X4.7452 Y1.9419
X4.7468 Y1.9385
X4.7471 Y1.9379
X4.7486 Y1.9343
X4.749 Y1.9334
X4.7503 Y1.9296
X4.7504 Y1.9292
X4.7517 Y1.9253
X4.752 Y1.9246
X4.7531 Y1.9205
X4.7533 Y1.9198
X4.7544 Y1.9156
Y1.9153
X4.7555 Y1.9109
X4.7556 Y1.9103
X4.7565 Y1.9058
Y1.9056
X4.7574 Y1.9009
X4.7575 Y1.9004
X4.7582 Y1.8957
X4.7583 Y1.8955
X4.759 Y1.8907
Y1.8904
X4.7597 Y1.8855
Y1.8852
X4.7602 Y1.8803
X4.7603 Y1.8802
X4.7608 Y1.8753
Y1.8751
X4.7613 Y1.8702
Y1.8699
X4.7617 Y1.8649
Y1.8648
X4.762 Y1.8599
X4.7624 Y1.855
Y1.8547
X4.7627 Y1.8499
Y1.8498
X4.7629 Y1.845
Y1.8449
X4.7631 Y1.8402
X4.7633 Y1.8357
X4.7635 Y1.8312
Y1.8309
X4.7637 Y1.8267
X4.7638 Y1.8226
Y1.8225
X4.7639 Y1.8185
X4.7641 Y1.8146
X4.7642 Y1.811
X4.7643 Y1.8076
X4.7645 Y1.8042
X4.7646 Y1.8011
X4.7648 Y1.7982
X4.7651 Y1.7954
X4.7653 Y1.793
X4.7656 Y1.7905
X4.766 Y1.7882
X4.7664 Y1.7863
X4.7668 Y1.7844
X4.7673 Y1.7825
X4.7679 Y1.7808
X4.7684 Y1.7794
X4.7691 Y1.7779
X4.7698 Y1.7764
X4.7705 Y1.7751
X4.7714 Y1.7738
X4.7724 Y1.7725
X4.7735 Y1.7712
X4.7747 Y1.7698
X4.7761 Y1.7685
X4.7776 Y1.7671
X4.7792 Y1.7657
X4.7812 Y1.7642
X4.7832 Y1.7627
X4.7854 Y1.7611
X4.7876 Y1.7596
X4.7901 Y1.758
X4.7926 Y1.7563
X4.7952 Y1.7547
X4.7979 Y1.7529
X4.8007 Y1.7512
X4.8035 Y1.7494
X4.8063 Y1.7476
X4.8065 Y1.7475
X4.8093 Y1.7456
X4.8094
X4.8123 Y1.7437
X4.8124 Y1.7436
X4.8153 Y1.7416
X4.8156 Y1.7414
X4.8184 Y1.7395
X4.8186 Y1.7393
X4.8214 Y1.7373
X4.8217 Y1.737
X4.8245 Y1.7349
X4.8248 Y1.7347
X4.8275 Y1.7325
X4.8279 Y1.7322
X4.8305 Y1.73
X4.8309 Y1.7297
X4.8335 Y1.7274
X4.834 Y1.7269
X4.8366 Y1.7245
X4.837 Y1.7241
X4.8395 Y1.7216
X4.8399 Y1.7212
X4.8423 Y1.7186
X4.8428 Y1.718
X4.8452 Y1.7153
X4.8456 Y1.7148
X4.8479 Y1.7119
X4.8481 Y1.7116
X4.8503 Y1.7087
X4.8508 Y1.708
X4.8529 Y1.705
X4.8531 Y1.7047
X4.8552 Y1.7016
X4.8555 Y1.7012
X4.8576 Y1.698
X4.8579 Y1.6975
X4.8599 Y1.6941
X4.8601 Y1.6938
X4.862 Y1.6903
X4.8622 Y1.69
X4.8641 Y1.6864
X4.8642 Y1.6863
X4.8662 Y1.6827
X4.8664 Y1.6822
X4.8682 Y1.6785
X4.8683 Y1.6784
X4.8702 Y1.6746
X4.8703 Y1.6743
X4.8721 Y1.6705
X4.8722 Y1.6702
X4.874 Y1.6663
Y1.6662
X4.8758 Y1.6622
X4.8759 Y1.662
X4.8776 Y1.658
X4.8777 Y1.6578
X4.8794 Y1.6537
Y1.6536
X4.8811 Y1.6495
X4.8812 Y1.6494
X4.8828 Y1.6452
X4.8829 Y1.6451
X4.8846 Y1.6409
Y1.6408
X4.8862 Y1.6366
X4.8863 Y1.6365
X4.8879 Y1.6323
X4.8896 Y1.628
Y1.6278
X4.8913 Y1.6235
X4.8919 Y1.6213
X4.8923 Y1.619
X4.8943 Y1.6013
X4.8963 Y1.5837
X4.8982 Y1.5662
X4.9002 Y1.5486
X4.9021 Y1.5312
X4.9039 Y1.5139
X4.9058 Y1.4969
Y1.4968
X4.9075 Y1.4799
X4.9093 Y1.4631
X4.9109 Y1.4466
X4.9126 Y1.4304
Y1.4303
X4.9141 Y1.4144
Y1.4143
X4.9156 Y1.3987
Y1.3986
X4.9169 Y1.3834
Y1.3833
X4.9182 Y1.3684
X4.9183 Y1.3683
X4.9194 Y1.3538
Y1.3536
X4.9205 Y1.3395
X4.9215 Y1.3258
Y1.3257
X4.9224 Y1.3125
Y1.3123
X4.9231 Y1.2996
Y1.2995
X4.9237 Y1.2873
Y1.2871
X4.9242 Y1.2755
Y1.2752
X4.9245 Y1.2642
Y1.264
X4.9247 Y1.2535
Y1.2532
X4.9248 Y1.2434
Y1.243
X4.9247 Y1.2338
X4.9246 Y1.2334
X4.9244 Y1.2248
Y1.2244
X4.9239 Y1.2163
Y1.2158
X4.9233 Y1.2082
Y1.2078
X4.9226 Y1.2007
X4.9225 Y1.2
X4.9216 Y1.1934
X4.9215 Y1.1926
X4.9204 Y1.1864
X4.9202 Y1.1858
X4.919 Y1.1799
X4.9188 Y1.1791
X4.9174 Y1.1735
X4.9172 Y1.1728
X4.9156 Y1.1675
X4.9153 Y1.1665
X4.9135 Y1.1615
X4.9132 Y1.1609
X4.9113 Y1.1561
X4.9109 Y1.1551
X4.9087 Y1.1506
X4.9084 Y1.1499
X4.906 Y1.1455
X4.9056 Y1.1447
X4.9031 Y1.1404
X4.9027 Y1.1398
X4.8999 Y1.1356
X4.8995 Y1.1349
X4.8965 Y1.1307
X4.8962 Y1.1303
X4.893 Y1.1261
X4.8927 Y1.1256
X4.8893 Y1.1215
X4.889 Y1.1211
X4.8853 Y1.1169
X4.885 Y1.1165
X4.8811 Y1.1122
X4.8809 Y1.112
X4.8768 Y1.1076
X4.8766 Y1.1073
X4.8722 Y1.1028
X4.872 Y1.1026
X4.8674 Y1.0979
X4.8672 Y1.0978
X4.8623 Y1.0929
X4.8622 Y1.0927
X4.8571 Y1.0878
X4.857 Y1.0877
X4.8517 Y1.0827
X4.8515 Y1.0825
X4.8461 Y1.0774
X4.8459 Y1.0773
X4.8403 Y1.0721
X4.8401 Y1.072
X4.8343 Y1.0668
X4.8342 Y1.0667
X4.8283 Y1.0615
X4.8281 Y1.0614
X4.8221 Y1.0562
X4.8219 Y1.0561
X4.8158 Y1.051
X4.8157 Y1.0508
X4.8095 Y1.0458
X4.8092 Y1.0456
X4.8029 Y1.0406
X4.8028 Y1.0405
X4.7965 Y1.0356
X4.7963 Y1.0355
X4.7899 Y1.0307
X4.7897 Y1.0305
X4.7833 Y1.0259
X4.7831 Y1.0257
X4.7767 Y1.0213
X4.7764 Y1.0211
X4.7701 Y1.0168
X4.7697 Y1.0166
X4.7634 Y1.0125
X4.7631 Y1.0123
X4.7569 Y1.0085
X4.7564 Y1.0082
X4.7502 Y1.0046
X4.7498 Y1.0044
X4.7437 Y1.001
X4.7432 Y1.0008
X4.7373 Y0.9977
X4.7367 Y0.9974
X4.7308 Y0.9947
X4.7301 Y0.9944
X4.7244 Y0.992
X4.7236 Y0.9917
X4.718 Y0.9896
X4.7173 Y0.9893
X4.7118 Y0.9875
X4.711 Y0.9873
X4.7055 Y0.9858
X4.7047 Y0.9856
X4.6994 Y0.9843
X4.6985 Y0.9842
X4.6932 Y0.9832
X4.6924 Y0.9831
X4.6872 Y0.9823
X4.6864 Y0.9822
X4.6811 Y0.9817
X4.6803
X4.6751 Y0.9814
X4.6744 Y0.9813
X4.6691
X4.6685
X4.6631
X4.6625 Y0.9814
X4.6572 Y0.9816
X4.6567 Y0.9817
X4.6513 Y0.9821
X4.6509
X4.6454 Y0.9827
X4.645
X4.6394 Y0.9834
X4.6391
X4.6334 Y0.9842
X4.6332 Y0.9843
X4.6274 Y0.9852
X4.6272
X4.6213 Y0.9862
X4.6212
X4.615 Y0.9872
X4.6149 Y0.9873
X4.6086 Y0.9884
X4.6022 Y0.9895
X4.5956 Y0.9906
X4.5888 Y0.9918
X4.5818 Y0.9929
X4.5746 Y0.994
X4.5673 Y0.9951
X4.5597 Y0.9961
X4.5519 Y0.9971
X4.5439 Y0.998
X4.5358 Y0.9989
X4.5276 Y0.9998
X4.5193 Y1.0006
X4.5109 Y1.0014
X4.5024 Y1.0022
X4.4939 Y1.003
X4.4854 Y1.0037
X4.4769 Y1.0045
X4.4684 Y1.0052
X4.46 Y1.0059
X4.4517 Y1.0066
X4.4434 Y1.0073
X4.4353 Y1.008
X4.4352
X4.4273 Y1.0087
X4.4194 Y1.0094
X4.4193
X4.4117 Y1.0101
X4.4116
X4.4042 Y1.0108
X4.397 Y1.0115
X4.3969
X4.3899 Y1.0123
X4.3898
X4.3831 Y1.013
X4.383
X4.3766 Y1.0138
X4.3764
X4.3703 Y1.0146
X4.3701
X4.3643 Y1.0154
X4.3641 Y1.0155
X4.3585 Y1.0163
X4.3582 Y1.0164
X4.3528 Y1.0173
X4.3525
X4.3473 Y1.0182
X4.347 Y1.0183
X4.3419 Y1.0193
X4.3416 Y1.0194
X4.3367 Y1.0205
X4.3363
X4.3315 Y1.0217
X4.3311 Y1.0218
X4.3264 Y1.023
X4.326 Y1.0231
X4.3213 Y1.0245
X4.3209 Y1.0246
X4.3163 Y1.026
X4.3159 Y1.0261
X4.3113 Y1.0277
X4.3109 Y1.0278
X4.3063 Y1.0295
X4.3059 Y1.0296
X4.3012 Y1.0314
X4.3009 Y1.0315
X4.2962 Y1.0334
X4.2959 Y1.0336
X4.2911 Y1.0356
X4.2907 Y1.0358
X4.2858 Y1.0379
X4.2856 Y1.0381
X4.2806 Y1.0404
X4.2803 Y1.0405
X4.2751 Y1.0431
X4.2749 Y1.0432
X4.2696 Y1.0459
X4.2694 Y1.046
X4.2638 Y1.0488
X4.2637 Y1.0489
X4.2579 Y1.052
X4.2577
X4.2517 Y1.0553
X4.2516
X4.2453 Y1.0588
X4.2452
X4.2387 Y1.0625
X4.2386
X4.2318 Y1.0663
X4.2247 Y1.0703
X4.2246
X4.2174 Y1.0744
X4.2099 Y1.0786
X4.2022 Y1.0829
X4.1943 Y1.0873
X4.1861 Y1.0917
X4.1778 Y1.0962
X4.1693 Y1.1007
X4.1606 Y1.1052
X4.1517 Y1.1097
X4.1427 Y1.1141
X4.1335 Y1.1185
X4.1242 Y1.1229
X4.1146 Y1.1271
X4.105 Y1.1313
X4.0952 Y1.1353
X4.0853 Y1.1393
X4.0753 Y1.143
X4.0651 Y1.1466
X4.0548 Y1.15
X4.0444 Y1.1533
X4.0339 Y1.1563
X4.0233 Y1.1591
X4.0127 Y1.1617
X4.0019 Y1.1642
X3.9911 Y1.1665
X3.9802 Y1.1687
X3.9694 Y1.1707
X3.9585 Y1.1726
X3.9477 Y1.1744
X3.9369 Y1.1761
X3.9262 Y1.1777
X3.9155 Y1.1792
X3.905 Y1.1807
X3.8946 Y1.1821
X3.8843 Y1.1835
X3.8742 Y1.1849
X3.8642 Y1.1862
X3.8641
X3.8544 Y1.1876
X3.8449 Y1.1889
X3.8447
X3.8355 Y1.1903
X3.8354 Y1.1904
X3.8264 Y1.1918
X3.8262
X3.8176 Y1.1933
X3.8173
X3.809 Y1.1949
X3.8086
X3.8006 Y1.1965
X3.8003 Y1.1966
X3.7926 Y1.1983
X3.7923 Y1.1984
X3.7849 Y1.2001
X3.7845 Y1.2002
X3.7775 Y1.2021
X3.777 Y1.2022
X3.7703 Y1.2042
X3.7698 Y1.2043
X3.7634 Y1.2064
X3.7629 Y1.2066
X3.7567 Y1.2088
X3.7562 Y1.209
X3.7503 Y1.2113
X3.7497 Y1.2115
X3.744 Y1.214
X3.7434 Y1.2143
X3.738 Y1.2169
X3.7373 Y1.2172
X3.7321 Y1.2199
X3.7314 Y1.2203
X3.7264 Y1.2232
X3.7257 Y1.2236
X3.7209 Y1.2267
X3.7202 Y1.2271
X3.7156 Y1.2304
X3.7149 Y1.2308
X3.7104 Y1.2343
X3.7098 Y1.2348
X3.7054 Y1.2384
X3.7048 Y1.2389
X3.7006 Y1.2428
X3.7 Y1.2433
X3.6959 Y1.2474
X3.6954 Y1.2479
X3.6913 Y1.2522
X3.6909 Y1.2527
X3.6869 Y1.2572
X3.6865 Y1.2577
X3.6826 Y1.2625
X3.6822 Y1.2629
X3.6783 Y1.2679
X3.678 Y1.2684
X3.6742 Y1.2737
X3.6739 Y1.2741
X3.6701 Y1.2796
X3.6698 Y1.28
X3.666 Y1.2858
X3.6658 Y1.2862
X3.6619 Y1.2923
X3.6618 Y1.2926
X3.6579 Y1.299
X3.6578 Y1.2993
X3.6539 Y1.306
X3.6538 Y1.3062
X3.6499 Y1.3131
Y1.3132
X3.646 Y1.3204
X3.6459 Y1.3205
X3.642 Y1.3278
X3.6419 Y1.3279
X3.638 Y1.3353
Y1.3354
X3.634 Y1.343
X3.63 Y1.3507
X3.6259 Y1.3585
X3.6218 Y1.3664
X3.6176 Y1.3742
X3.6134 Y1.3821
X3.6092 Y1.3899
X3.6048 Y1.3977
X3.6004 Y1.4054
X3.5959 Y1.413
X3.5914 Y1.4205
X3.5867 Y1.4278
X3.582 Y1.435
X3.5772 Y1.442
X3.5723 Y1.4488
X3.5673 Y1.4553
X3.5622 Y1.4616
X3.557 Y1.4676
X3.5517 Y1.4734
X3.5462 Y1.4789
X3.5407 Y1.4842
X3.535 Y1.4893
X3.5292 Y1.4941
X3.5234 Y1.4988
X3.5174 Y1.5033
X3.5112 Y1.5076
X3.505 Y1.5118
X3.4987 Y1.5158
X3.4922 Y1.5196
X3.4857 Y1.5233
X3.479 Y1.5269
X3.4723 Y1.5303
X3.4654 Y1.5337
X3.4584 Y1.5369
X3.4514 Y1.54
X3.4443 Y1.5431
X3.437 Y1.5461
X3.4297 Y1.549
X3.4223 Y1.5518
X3.4148 Y1.5546
X3.4073 Y1.5574
X3.3997 Y1.5601
X3.392 Y1.5628
X3.3842 Y1.5654
X3.3764 Y1.568
X3.3686 Y1.5705
X3.3607 Y1.5729
X3.3527 Y1.5753
X3.3447 Y1.5776
X3.3366 Y1.5798
X3.3285 Y1.5819
X3.3204 Y1.5839
X3.3122 Y1.5858
X3.3039 Y1.5876
X3.2956 Y1.5892
X3.2873 Y1.5908
X3.2789 Y1.5922
X3.2705 Y1.5935
X3.262 Y1.5946
X3.2535 Y1.5956
X3.245 Y1.5964
X3.2364 Y1.5971
X3.2278 Y1.5976
X3.2191 Y1.5979
X3.2104 Y1.598
X3.2017
X3.1928 Y1.5978
X3.184 Y1.5975
X3.1751 Y1.5971
X3.1661 Y1.5966
X3.1572 Y1.5961
X3.1481 Y1.5955
X3.1391 Y1.5949
X3.1301 Y1.5944
X3.13
X3.121 Y1.5939
X3.1209
X3.1119 Y1.5935
X3.1117
X3.1028 Y1.5931
X3.1025
X3.0937 Y1.5929
X3.0934
X3.0846
X3.0842
X3.0755 Y1.5931
X3.075
X3.0663 Y1.5935
X3.0658
X3.0572 Y1.5941
X3.0566
X3.048 Y1.595
X3.0474 Y1.5951
X3.0389 Y1.5962
X3.0382 Y1.5963
X3.0298 Y1.5978
X3.029 Y1.5979
X3.0207 Y1.5997
X3.0199 Y1.5999
X3.0116 Y1.602
X3.0108 Y1.6023
X3.0026 Y1.6048
X3.0017 Y1.6051
X2.9936 Y1.6081
X2.9928 Y1.6084
X2.9847 Y1.6119
X2.9839 Y1.6122
X2.9759 Y1.6161
X2.9752 Y1.6164
X2.9672 Y1.6207
X2.9666 Y1.621
X2.9587 Y1.6256
X2.9582 Y1.6259
X2.9503 Y1.6309
X2.9498 Y1.6311
X2.942 Y1.6364
X2.9416 Y1.6366
X2.9338 Y1.6421
X2.9335 Y1.6423
X2.9257 Y1.648
X2.9255 Y1.6482
X2.9178 Y1.6541
X2.9175 Y1.6543
X2.9099 Y1.6603
X2.9097 Y1.6605
X2.9021 Y1.6666
X2.902 Y1.6667
X2.8945 Y1.6729
X2.8944 Y1.673
X2.8869 Y1.6792
Y1.6793
X2.8795 Y1.6855
X2.8794 Y1.6856
X2.8721 Y1.6918
X2.8649 Y1.6979
X2.8579 Y1.7039
X2.8509 Y1.7097
X2.8441 Y1.7153
X2.8374 Y1.7206
X2.8309 Y1.7256
X2.8246 Y1.7303
X2.8184 Y1.7346
X2.8123 Y1.7385
X2.8074 Y1.7415
X2.8025 Y1.7441
X2.7977 Y1.7465
X2.793 Y1.7485
X2.7884 Y1.7502
X2.7838 Y1.7517
X2.7794 Y1.7529
X2.7749 Y1.7539
X2.7706 Y1.7546
X2.7662 Y1.755
X2.7619 Y1.7552
X2.7576
X2.7532 Y1.755
X2.7489 Y1.7545
X2.7445 Y1.7538
X2.7401 Y1.7528
X2.7356 Y1.7516
X2.7311 Y1.7502
X2.7265 Y1.7485
X2.7218 Y1.7466
X2.7171 Y1.7444
X2.7122 Y1.7419
X2.7072 Y1.7392
X2.7021 Y1.7363
X2.6969 Y1.7332
X2.6916 Y1.7298
X2.6861 Y1.7261
X2.6805 Y1.7223
X2.6739 Y1.7175
X2.667 Y1.7124
X2.6601 Y1.7071
X2.6529 Y1.7014
X2.6457 Y1.6954
X2.6383 Y1.689
X2.6307 Y1.6824
X2.6231 Y1.6754
X2.6153 Y1.668
X2.6075 Y1.6604
X2.5995 Y1.6523
X2.5914 Y1.6439
X2.5833 Y1.6351
X2.575 Y1.6259
X2.5667 Y1.6164
X2.5584 Y1.6064
X2.5499 Y1.5961
X2.5414 Y1.5853
X2.5329 Y1.5742
X2.5243 Y1.5626
X2.5157 Y1.5506
X2.507 Y1.5381
X2.4984 Y1.5252
X2.4897 Y1.5119
X2.481 Y1.4981
X2.4723 Y1.4839
X2.4636 Y1.4693
X2.4549 Y1.4544
X2.4463 Y1.4392
X2.4377 Y1.4238
X2.4292 Y1.4082
X2.4207 Y1.3924
X2.4124 Y1.3766
X2.4041 Y1.3607
X2.3959 Y1.3448
X2.3879 Y1.3289
X2.38 Y1.3132
X2.3723 Y1.2976
X2.3647 Y1.2821
X2.3574 Y1.2669
X2.3501 Y1.252
X2.3431 Y1.2373
X2.3363 Y1.2231
X2.3298 Y1.2092
X2.3234 Y1.1958
X2.3173 Y1.1829
X2.3115 Y1.1705
X2.3059 Y1.1588
X2.3006 Y1.1476
X2.2956 Y1.1371
X2.2955 Y1.137
X2.2907 Y1.1272
Y1.127
X2.2861 Y1.1178
X2.286 Y1.1176
X2.2816 Y1.109
X2.2814 Y1.1087
X2.2771 Y1.1007
X2.277 Y1.1003
X2.2728 Y1.0928
X2.2725 Y1.0924
X2.2684 Y1.0854
X2.2681 Y1.0849
X2.264 Y1.0784
X2.2637 Y1.0778
X2.2596 Y1.0718
X2.2591 Y1.0712
X2.255 Y1.0655
X2.2545 Y1.0648
X2.2503 Y1.0596
X2.2497 Y1.0589
X2.2453 Y1.054
X2.2446 Y1.0533
X2.2402 Y1.0488
X2.2394 Y1.0481
X2.2348 Y1.0439
X2.2339 Y1.0432
X2.2291 Y1.0393
X2.2281 Y1.0387
X2.2231 Y1.0351
X2.2222 Y1.0345
X2.2167 Y1.0312
X2.2158 Y1.0307
X2.21 Y1.0275
X2.2092 Y1.0271
X2.203 Y1.0242
X2.2022 Y1.0238
X2.1955 Y1.021
X2.1948 Y1.0207
X2.1876 Y1.0181
X2.187 Y1.0179
X2.1793 Y1.0154
X2.1787 Y1.0152
X2.1704 Y1.0128
X2.1699 Y1.0126
X2.1611 Y1.0104
X2.1606 Y1.0102
X2.1512 Y1.0081
X2.1508 Y1.008
X2.1408 Y1.0059
X2.1405 Y1.0058
X2.13 Y1.0038
X2.1297
X2.1187 Y1.0019
X2.1184
X2.107 Y1.0001
X2.1068
X2.0949 Y0.9984
X2.0947
X2.0824 Y0.9968
X2.0822
X2.0696 Y0.9953
X2.0694
X2.0564 Y0.9939
X2.0562
X2.0429 Y0.9927
X2.0427
X2.0291 Y0.9915
X2.0289
X2.015 Y0.9904
X2.0149
X2.0007 Y0.9895
X2.0006
X1.9862 Y0.9886
X1.9861
X1.9715 Y0.9879
X1.9714
X1.9567 Y0.9872
X1.9565
X1.9417 Y0.9867
X1.9416 Y0.9866
X1.9266 Y0.9862
X1.9264
X1.9114 Y0.9858
X1.9113
X1.8961 Y0.9856
X1.896
X1.8808 Y0.9854
X1.8807
X1.8655
X1.8654
X1.8503
X1.8501
X1.835 Y0.9856
X1.8349
X1.8198 Y0.9858
X1.8197
X1.8047 Y0.9862
X1.8046
X1.7897 Y0.9867
X1.7896
X1.7748 Y0.9873
X1.7746
X1.7601 Y0.988
X1.7599
X1.7455 Y0.9889
X1.7453
X1.731 Y0.99
X1.7308
X1.7168 Y0.9911
X1.7166 Y0.9912
X1.7028 Y0.9925
X1.7026
X1.6891 Y0.994
X1.6888
X1.6756 Y0.9957
X1.6753
X1.6624 Y0.9976
X1.6621
X1.6495 Y0.9996
X1.6491 Y0.9997
X1.6369 Y1.0018
X1.6365 Y1.0019
X1.6247 Y1.0043
X1.6243 Y1.0044
X1.6128 Y1.007
X1.6123 Y1.0071
X1.6013 Y1.0098
X1.6008 Y1.01
X1.5902 Y1.013
X1.5897 Y1.0131
X1.5795 Y1.0163
X1.5789 Y1.0165
X1.5693 Y1.0199
X1.5686 Y1.0202
X1.5594 Y1.0238
X1.5587 Y1.0241
X1.5501 Y1.028
X1.5493 Y1.0284
X1.5412 Y1.0325
X1.5403 Y1.033
X1.5328 Y1.0373
X1.532 Y1.0378
X1.5249 Y1.0424
X1.5241 Y1.043
X1.5175 Y1.0478
X1.5168 Y1.0483
X1.5106 Y1.0533
X1.5099 Y1.0539
X1.5041 Y1.0591
X1.5035 Y1.0597
X1.498 Y1.0651
X1.4975 Y1.0657
X1.4923 Y1.0712
X1.4918 Y1.0717
X1.487 Y1.0774
X1.4866 Y1.0779
X1.482 Y1.0836
X1.4817 Y1.0841
X1.4773 Y1.0899
X1.477 Y1.0903
X1.4729 Y1.0962
X1.4726 Y1.0966
X1.4686 Y1.1025
X1.4685 Y1.1028
X1.4646 Y1.1088
X1.4645 Y1.109
X1.4607 Y1.115
X1.4606 Y1.1151
X1.4569 Y1.1211
X1.4532 Y1.1272
X1.4495 Y1.133
X1.4459 Y1.1388
X1.4423 Y1.1443
X1.4386 Y1.1498
X1.4348 Y1.155
X1.431 Y1.16
X1.427 Y1.1647
X1.4229 Y1.1692
X1.4186 Y1.1735
X1.4141 Y1.1776
X1.4093 Y1.1814
X1.4042 Y1.1852
X1.399 Y1.1887
X1.3936 Y1.1921
X1.388 Y1.1953
X1.3822 Y1.1983
X1.3763 Y1.2012
X1.3704 Y1.204
X1.3643 Y1.2066
X1.3582 Y1.2091
X1.3521 Y1.2115
X1.3459 Y1.2138
X1.3398 Y1.216
X1.3337 Y1.2181
X1.3277 Y1.2201
X1.3217 Y1.222
X1.3159 Y1.2239
X1.3102 Y1.2257
X1.3101
X1.3046 Y1.2275
X1.3045
X1.2992 Y1.2292
X1.299 Y1.2293
X1.294 Y1.231
X1.2937 Y1.2311
X1.289 Y1.2328
X1.2887 Y1.2329
X1.2842 Y1.2345
X1.2839 Y1.2346
X1.2796 Y1.2363
X1.2792 Y1.2365
X1.2752 Y1.2381
X1.2747 Y1.2383
X1.2709 Y1.24
X1.2703 Y1.2403
X1.2667 Y1.2421
X1.266 Y1.2424
X1.2625 Y1.2443
X1.2618 Y1.2447
X1.2584 Y1.2467
X1.2577 Y1.2472
X1.2544 Y1.2494
X1.2537 Y1.2499
X1.2505 Y1.2523
X1.2497 Y1.2529
X1.2467 Y1.2554
X1.246 Y1.2561
X1.243 Y1.2589
X1.2423 Y1.2595
X1.2393 Y1.2626
X1.2387 Y1.2632
X1.2358 Y1.2665
X1.2353 Y1.2671
X1.2323 Y1.2708
X1.2319 Y1.2714
X1.2289 Y1.2754
X1.2285 Y1.2759
X1.2254 Y1.2802
X1.2251 Y1.2807
X1.222 Y1.2855
X1.2217 Y1.2859
X1.2185 Y1.2911
X1.2183 Y1.2914
X1.2149 Y1.2971
X1.2147 Y1.2974
X1.2112 Y1.3035
X1.211 Y1.3038
X1.2074 Y1.3105
X1.2072 Y1.3107
X1.2034 Y1.3179
X1.2033 Y1.3181
X1.1993 Y1.3259
X1.1992 Y1.3261
X1.1951 Y1.3344
X1.195 Y1.3345
X1.1906 Y1.3435
Y1.3436
X1.186 Y1.353
Y1.3532
X1.1813 Y1.3631
Y1.3632
X1.1764 Y1.3737
Y1.3738
X1.1715 Y1.3846
X1.1714 Y1.3848
X1.1665 Y1.396
X1.1664 Y1.3961
X1.1614 Y1.4077
X1.1613 Y1.4078
X1.1562 Y1.4197
Y1.4198
X1.1511 Y1.432
X1.151 Y1.4321
X1.1459 Y1.4445
Y1.4446
X1.1408 Y1.4572
Y1.4573
X1.1357 Y1.47
Y1.4701
X1.1308 Y1.483
X1.1307 Y1.4831
X1.1259 Y1.496
X1.1258 Y1.4962
X1.1211 Y1.5091
X1.121 Y1.5092
X1.1164 Y1.5221
Y1.5223
X1.1119 Y1.5352
X1.1118 Y1.5353
X1.1076 Y1.5481
X1.1075 Y1.5483
X1.1035 Y1.5609
X1.1034 Y1.5612
X1.0996 Y1.5736
X1.0995 Y1.5738
X1.0959 Y1.5861
Y1.5864
X1.0926 Y1.5983
X1.0925 Y1.5987
X1.0895 Y1.6103
X1.0894 Y1.6107
X1.0867 Y1.622
X1.0866 Y1.6224
X1.0842 Y1.6334
X1.0841 Y1.6338
X1.0821 Y1.6445
X1.082 Y1.6449
X1.0802 Y1.6552
Y1.6556
X1.0787 Y1.6656
X1.0786 Y1.666
X1.0773 Y1.6757
Y1.6761
X1.0762 Y1.6855
Y1.6858
X1.0753 Y1.695
Y1.6953
X1.0746 Y1.7042
X1.0745 Y1.7044
X1.074 Y1.7131
Y1.7133
X1.0735 Y1.7217
Y1.7219
X1.0731 Y1.7301
Y1.7303
X1.0728 Y1.7383
Y1.7384
X1.0726 Y1.7462
X1.0723 Y1.7538
X1.0721 Y1.7612
X1.0718 Y1.7684
X1.0715 Y1.7754
X1.0712 Y1.7822
X1.0707 Y1.7888
X1.0701 Y1.7953
X1.0694 Y1.8015
X1.0686 Y1.8077
X1.0676 Y1.8137
X1.0664 Y1.8196
X1.0649 Y1.8254
X1.0633 Y1.8312
X1.0615 Y1.8369
X1.0595 Y1.8426
X1.0574 Y1.8483
X1.0551 Y1.8541
X1.0526 Y1.8598
X1.05 Y1.8656
X1.0473 Y1.8714
X1.0444 Y1.8772
X1.0415 Y1.8832
X1.0384 Y1.8892
X1.0353 Y1.8953
X1.0322 Y1.9015
X1.029 Y1.9078
Y1.9079
X1.0258 Y1.9143
X1.0257 Y1.9144
X1.0226 Y1.9209
X1.0225 Y1.921
X1.0194 Y1.9276
X1.0193 Y1.9278
X1.0162 Y1.9345
X1.0161 Y1.9348
X1.0131 Y1.9416
X1.013 Y1.9419
X1.01 Y1.9489
X1.0099 Y1.9492
X1.007 Y1.9564
X1.0069 Y1.9568
X1.0042 Y1.9641
X1.004 Y1.9645
X1.0014 Y1.972
X1.0013 Y1.9724
X0.9988 Y1.9802
X0.9987 Y1.9806
X0.9963 Y1.9885
X0.9962 Y1.989
X0.994 Y1.9971
X0.9938 Y1.9976
X0.9918 Y2.006
X0.9917 Y2.0064
X0.9898 Y2.015
X0.9897 Y2.0155
X0.988 Y2.0243
X0.9879 Y2.0247
X0.9864 Y2.0338
X0.9863 Y2.0343
X0.9849 Y2.0435
Y2.044
X0.9837 Y2.0535
Y2.054
X0.9828 Y2.0637
X0.9827 Y2.0642
X0.982 Y2.0741
Y2.0746
X0.9815 Y2.0848
Y2.0853
X0.9813 Y2.0957
Y2.0961
Y2.1068
Y2.1073
X0.9816 Y2.1182
Y2.1186
X0.9822 Y2.1298
Y2.1302
X0.9831 Y2.1416
Y2.142
X0.9843 Y2.1536
Y2.1541
X0.9858 Y2.1659
Y2.1663
X0.9876 Y2.1784
X0.9877 Y2.1788
X0.9897 Y2.1912
X0.9898 Y2.1916
X0.9923 Y2.2042
Y2.2046
X0.9951 Y2.2174
X0.9952 Y2.2178
X0.9983 Y2.2308
X0.9984 Y2.2312
X1.0019 Y2.2445
X1.002 Y2.2449
X1.0059 Y2.2584
X1.006 Y2.2588
X1.0102 Y2.2725
X1.0103 Y2.2728
X1.0148 Y2.2868
X1.0149 Y2.2871
X1.0197 Y2.3012
X1.0198 Y2.3014
X1.0249 Y2.3157
X1.025 Y2.3159
X1.0304 Y2.3303
X1.0305 Y2.3305
X1.0361 Y2.345
X1.0362 Y2.3452
X1.0421 Y2.3598
Y2.36
X1.0482 Y2.3746
X1.0483 Y2.3748
X1.0546 Y2.3895
X1.0547 Y2.3896
X1.0612 Y2.4043
Y2.4045
X1.0679 Y2.4192
X1.068 Y2.4193
X1.0748 Y2.434
Y2.4341
X1.0818 Y2.4487
X1.0819 Y2.4489
X1.0889 Y2.4634
X1.089 Y2.4636
X1.0961 Y2.478
X1.0962 Y2.4781
X1.1035 Y2.4925
Y2.4926
X1.1108 Y2.5068
X1.1109 Y2.5069
X1.1183 Y2.521
Y2.5211
X1.1257 Y2.535
X1.1258 Y2.5351
X1.1332 Y2.5488
X1.1333 Y2.5489
X1.1407 Y2.5624
X1.1408 Y2.5625
X1.1482 Y2.5757
Y2.5758
X1.1556 Y2.5888
X1.1557 Y2.5889
X1.163 Y2.6016
X1.1631 Y2.6017
X1.1704 Y2.6141
X1.1705 Y2.6142
X1.1778 Y2.6263
X1.1779 Y2.6265
X1.1851 Y2.6382
X1.1853 Y2.6384
X1.1925 Y2.6499
X1.1926 Y2.65
X1.1998 Y2.6612
X1.1999 Y2.6614
X1.2071 Y2.6722
X1.2073 Y2.6724
X1.2144 Y2.6828
X1.2146 Y2.683
X1.2217 Y2.6931
X1.2219 Y2.6933
X1.229 Y2.7031
X1.2292 Y2.7033
X1.2363 Y2.7126
X1.2365 Y2.7129
X1.2436 Y2.7219
X1.2438 Y2.7222
X1.2509 Y2.7307
X1.2512 Y2.731
X1.2582 Y2.7391
X1.2585 Y2.7395
X1.2655 Y2.7472
X1.2658 Y2.7476
X1.2728 Y2.7548
X1.2732 Y2.7552
X1.2802 Y2.762
X1.2806 Y2.7625
X1.2876 Y2.7688
X1.2881 Y2.7693
X1.295 Y2.7752
X1.2956 Y2.7757
X1.3025 Y2.7811
X1.3031 Y2.7816
X1.31 Y2.7865
X1.3107 Y2.787
X1.3176 Y2.7915
X1.3184 Y2.792
X1.3253 Y2.796
X1.3262 Y2.7965
X1.3331 Y2.7999
X1.334 Y2.8004
X1.3409 Y2.8034
X1.3418 Y2.8038
X1.3489 Y2.8064
X1.3497 Y2.8067
X1.3568 Y2.809
X1.3577 Y2.8092
X1.3648 Y2.8112
X1.3656 Y2.8114
X1.3729 Y2.813
X1.3736 Y2.8132
X1.381 Y2.8146
X1.3816 Y2.8147
X1.3891 Y2.8158
X1.3896 Y2.8159
X1.3973 Y2.8169
X1.3977 Y2.817
X1.4056 Y2.8178
X1.4059
X1.4139 Y2.8186
X1.4141
X1.4224 Y2.8192
X1.4225 Y2.8193
X1.4309 Y2.8199
X1.4396 Y2.8205
X1.4484 Y2.8211
X1.4573 Y2.8218
X1.4665 Y2.8226
X1.4758 Y2.8235
X1.4854 Y2.8246
X1.4952 Y2.8259
X1.5052 Y2.8274
X1.5154 Y2.8292
X1.526 Y2.8314
X1.5368 Y2.8339
X1.5479 Y2.8367
X1.5592 Y2.84
X1.5709 Y2.8436
X1.5827 Y2.8475
X1.5947 Y2.8517
X1.6068 Y2.8562
X1.619 Y2.861
X1.6312 Y2.866
X1.6434 Y2.8711
X1.6556 Y2.8765
X1.6677 Y2.882
X1.6797 Y2.8876
X1.6916 Y2.8934
X1.7033 Y2.8992
X1.7148 Y2.905
X1.726 Y2.9109
X1.7369 Y2.9167
X1.7475 Y2.9226
X1.7577 Y2.9284
X1.7675 Y2.9341
X1.7768 Y2.9397
X1.7857 Y2.9451
X1.794 Y2.9504
X1.8018 Y2.9555
X1.809 Y2.9604
X1.8157 Y2.9651
X1.8217 Y2.9695
X1.8273 Y2.9738
X1.8322 Y2.9779
X1.8367 Y2.9818
X1.8406 Y2.9855
X1.844 Y2.9891
X1.847 Y2.9924
X1.8494 Y2.9956
X1.8515 Y2.9986
X1.8532 Y3.0014
X1.8545 Y3.0041
X1.8556 Y3.0067
X1.8563 Y3.0092
X1.8569 Y3.0117
X1.8572 Y3.014
X1.8573 Y3.0164
X1.8572 Y3.0188
X1.857 Y3.0213
X1.8565 Y3.0239
X1.8559 Y3.0266
X1.8551 Y3.0294
X1.8541 Y3.0323
X1.853 Y3.0353
X1.8517 Y3.0385
X1.8504 Y3.0417
X1.8489 Y3.045
X1.8473 Y3.0483
X1.8456 Y3.0517
X1.8439 Y3.0552
X1.8421 Y3.0586
X1.8403 Y3.0621
X1.8384 Y3.0656
X1.8365 Y3.0691
X1.8345 Y3.0727
X1.8326 Y3.0762
X1.8307 Y3.0797
Y3.0798
X1.8288 Y3.0832
X1.8287 Y3.0833
X1.8269 Y3.0867
Y3.0868
X1.8251 Y3.0902
X1.825 Y3.0904
X1.8233 Y3.0937
X1.8232 Y3.0939
X1.8216 Y3.0972
X1.8215 Y3.0975
X1.82 Y3.1007
X1.8198 Y3.101
X1.8184 Y3.1041
X1.8182 Y3.1046
X1.817 Y3.1076
X1.8168 Y3.1081
X1.8156 Y3.1111
X1.8154 Y3.1117
X1.8144 Y3.1145
X1.8143 Y3.115
X1.8134 Y3.1178
X1.8132 Y3.1183
X1.8125 Y3.1209
X1.8123 Y3.1218
X1.8117 Y3.1243
X1.8115 Y3.1254
X1.8111 Y3.1279
X1.8109 Y3.1293
X1.8107 Y3.1317
X1.8106 Y3.1333
Y3.1358
X1.8107 Y3.1375
X1.8109 Y3.14
X1.8112 Y3.1417
X1.8117 Y3.1442
X1.812 Y3.1458
X1.8128 Y3.1485
X1.8132 Y3.1499
X1.8143 Y3.1527
X1.8147 Y3.1539
X1.8161 Y3.1569
X1.8165 Y3.1578
X1.8182 Y3.1611
X1.8186 Y3.1619
X1.8206 Y3.1655
X1.821 Y3.1661
X1.8234 Y3.17
X1.8238 Y3.1706
X1.8266 Y3.1748
X1.827 Y3.1754
X1.8302 Y3.1799
X1.8305 Y3.1803
X1.8343 Y3.1852
X1.8346 Y3.1855
X1.8388 Y3.1907
X1.839 Y3.191
X1.8437 Y3.1966
X1.8439 Y3.1968
X1.8491 Y3.2028
X1.8493 Y3.203
X1.8551 Y3.2093
X1.8553 Y3.2095
X1.8615 Y3.2162
X1.8617 Y3.2164
X1.8685 Y3.2235
X1.8687 Y3.2236
X1.8761 Y3.2312
X1.8762 Y3.2313
X1.8842 Y3.2394
X1.8843 Y3.2395
X1.8929 Y3.2479
X1.893 Y3.248
X1.9021 Y3.2568
Y3.2569
X1.9117 Y3.2661
X1.9118
X1.9217 Y3.2756
X1.9218 Y3.2757
X1.9321 Y3.2853
X1.9322 Y3.2854
X1.9429 Y3.2953
Y3.2954
X1.9539 Y3.3054
X1.954 Y3.3055
X1.9652 Y3.3157
X1.9767 Y3.326
Y3.3261
X1.9883 Y3.3364
X1.9884
X2.0001 Y3.3467
Y3.3468
X2.0119 Y3.3571
X2.012
X2.0238 Y3.3673
X2.0239 Y3.3674
X2.0356 Y3.3774
X2.0357 Y3.3775
X2.0474 Y3.3873
X2.0475 Y3.3874
X2.0591 Y3.397
X2.0592 Y3.3971
X2.0707 Y3.4065
X2.0708 Y3.4066
X2.0821 Y3.4156
X2.0822 Y3.4157
X2.0933 Y3.4245
X2.0934 Y3.4246
X2.1042 Y3.4329
X2.1044 Y3.433
X2.1148 Y3.441
X2.115 Y3.4411
X2.1251 Y3.4485
X2.1253 Y3.4487
X2.135 Y3.4556
X2.1352 Y3.4558
X2.1445 Y3.4622
X2.1447 Y3.4624
X2.1535 Y3.4682
X2.1539 Y3.4684
X2.1623 Y3.4738
X2.1627 Y3.474
X2.1708 Y3.4788
X2.1713 Y3.4791
X2.1792 Y3.4835
X2.1798 Y3.4838
X2.1874 Y3.4876
X2.1881 Y3.488
X2.1956 Y3.4913
X2.1964 Y3.4917
X2.2038 Y3.4946
X2.2047 Y3.4949
X2.212 Y3.4974
X2.213 Y3.4977
X2.2203 Y3.4998
X2.2213 Y3.5
X2.2288 Y3.5017
X2.2298 Y3.5019
X2.2374 Y3.5032
X2.2383 Y3.5033
X2.2461 Y3.5042
X2.247 Y3.5043
X2.2551 Y3.5049
X2.2559
X2.2643 Y3.5051
X2.265
X2.2738 Y3.505
X2.2744
X2.2836 Y3.5046
X2.2842
X2.2939 Y3.5039
X2.2943 Y3.5038
X2.3046 Y3.5029
X2.3049 Y3.5028
X2.3158 Y3.5016
X2.3161 Y3.5015
X2.3277 Y3.5
X2.3279
X2.3402 Y3.4982
X2.3403
X2.3533 Y3.4962
X2.3535
X2.3673 Y3.4939
X2.3674
X2.382 Y3.4915
X2.3821
X2.3975 Y3.4888
X2.4137 Y3.486
X2.4307 Y3.483
X2.4484 Y3.4799
X2.4667 Y3.4766
X2.4857 Y3.4733
X2.5053 Y3.4699
X2.5255 Y3.4664
X2.5462 Y3.4628
X2.5675 Y3.4593
X2.5892 Y3.4557
X2.6114 Y3.4522
X2.6341 Y3.4487
X2.6571 Y3.4452
X2.6806 Y3.4418
X2.7043 Y3.4385
X2.7284 Y3.4352
X2.7528 Y3.4321
X2.7774 Y3.4292
X2.8023 Y3.4264
X2.8273 Y3.4238
X2.8525 Y3.4214
X2.8779 Y3.4192
X2.9033 Y3.4172
X2.9289 Y3.4154
X2.9544 Y3.4139
X2.9799 Y3.4126
X3.0052 Y3.4115
X3.0305 Y3.4106
X3.0556 Y3.4099
X3.0804 Y3.4094
X3.1049 Y3.409
X3.1291 Y3.4089
X3.1529
X3.1763 Y3.4091
X3.1992 Y3.4095
X3.2215 Y3.41
X3.2433 Y3.4106
X3.2644 Y3.4114
X3.2848 Y3.4123
X3.3045 Y3.4134
X3.3234 Y3.4146
X3.3415 Y3.4159
X3.3586 Y3.4173
X3.3748 Y3.4188
X3.39 Y3.4204
X3.4042 Y3.4221
X3.4172 Y3.4239
X3.4292 Y3.4257
X3.4402 Y3.4277
X3.4503 Y3.4297
X3.4593 Y3.4318
X3.4675 Y3.4341
X3.4748 Y3.4364
X3.4813 Y3.4388
X3.487 Y3.4413
X3.4919 Y3.4438
X3.4962 Y3.4465
X3.4999 Y3.4491
X3.5032 Y3.4519
X3.506 Y3.4548
X3.5085 Y3.4578
X3.5106 Y3.4609
X3.5125 Y3.4642
X3.5143 Y3.4677
X3.5158 Y3.4715
X3.5173 Y3.4756
X3.5186 Y3.48
X3.5199 Y3.4847
X3.5212 Y3.4897
X3.5225 Y3.495
X3.5239 Y3.5005
X3.5254 Y3.5062
X3.5268 Y3.5121
X3.5269 Y3.5122
X3.5284 Y3.5182
X3.53 Y3.5244
Y3.5245
X3.5317 Y3.5307
Y3.5308
X3.5334 Y3.5371
Y3.5372
X3.5351 Y3.5436
X3.5352 Y3.5437
X3.537 Y3.5502
Y3.5503
X3.5388 Y3.5568
Y3.5569
X3.5407 Y3.5634
X3.5408 Y3.5635
X3.5427 Y3.57
Y3.5702
X3.5447 Y3.5766
Y3.5768
X3.5467 Y3.5831
X3.5468 Y3.5833
X3.5488 Y3.5896
X3.5489 Y3.5898
X3.551 Y3.596
Y3.5962
X3.5531 Y3.6023
X3.5532 Y3.6026
X3.5554 Y3.6085
Y3.6088
X3.5576 Y3.6146
X3.5577 Y3.6148
X3.5599 Y3.6205
X3.56 Y3.6207
X3.5623 Y3.6262
X3.5624 Y3.6265
X3.5647 Y3.6317
X3.5649 Y3.6321
X3.5671 Y3.637
X3.5673 Y3.6375
X3.5697 Y3.6422
X3.5699 Y3.6426
X3.5722 Y3.647
X3.5725 Y3.6475
X3.5748 Y3.6516
X3.5751 Y3.6521
X3.5774 Y3.656
X3.5777 Y3.6565
X3.5801 Y3.6601
X3.5804 Y3.6606
X3.5828 Y3.664
X3.5831 Y3.6645
X3.5855 Y3.6677
X3.5859 Y3.6683
X3.5883 Y3.6712
X3.5887 Y3.6718
X3.5911 Y3.6745
X3.5916 Y3.675
X3.594 Y3.6775
X3.5945 Y3.6781
X3.5969 Y3.6804
X3.5975 Y3.681
X3.5998 Y3.6831
X3.6005 Y3.6837
X3.6029 Y3.6856
X3.6035 Y3.6861
X3.6059 Y3.6879
X3.6066 Y3.6884
X3.6089 Y3.69
X3.6097 Y3.6905
X3.612 Y3.6919
X3.6128 Y3.6924
X3.6152 Y3.6937
X3.6159 Y3.6941
X3.6183 Y3.6952
X3.619 Y3.6956
X3.6214 Y3.6967
X3.6222 Y3.697
X3.6245 Y3.6979
X3.6252 Y3.6981
X3.6276 Y3.699
X3.6283 Y3.6992
X3.6307 Y3.6999
X3.6313 Y3.7001
X3.6337 Y3.7007
X3.6343 Y3.7009
X3.6367 Y3.7014
X3.6372 Y3.7015
X3.6396 Y3.702
X3.6402 Y3.7021
X3.6424 Y3.7024
X3.643 Y3.7025
X3.6452 Y3.7028
X3.6459 Y3.7029
X3.6481 Y3.7031
X3.6487
X3.6509 Y3.7033
X3.6515
X3.6538 Y3.7034
X3.6543
X3.6565
X3.6572
X3.6594 Y3.7033
X3.6599
X3.6621 Y3.7031
X3.6627
X3.6649 Y3.7029
X3.6654 Y3.7028
X3.6676 Y3.7025
X3.6682 Y3.7024
X3.6703 Y3.7021
X3.6708 Y3.702
X3.673 Y3.7016
X3.6735 Y3.7015
X3.6757 Y3.701
X3.6762 Y3.7009
X3.6783 Y3.7004
X3.6788 Y3.7003
X3.6809 Y3.6997
X3.6814 Y3.6995
X3.6836 Y3.6989
X3.684 Y3.6987
X3.6861 Y3.698
X3.6865 Y3.6979
X3.6887 Y3.6971
X3.6891 Y3.6969
X3.6912 Y3.6961
X3.6916 Y3.696
X3.6937 Y3.6951
X3.6941 Y3.6949
X3.6962 Y3.694
X3.6966 Y3.6938
X3.6987 Y3.6929
X3.699 Y3.6927
X3.7011 Y3.6917
X3.7014 Y3.6915
X3.7035 Y3.6904
X3.7039 Y3.6902
X3.7059 Y3.6892
X3.706 Y3.6891
X3.7079 Y3.688
X3.7083 Y3.6878
X3.7102 Y3.6868
X3.7105 Y3.6866
X3.7124 Y3.6854
X3.7128 Y3.6851
X3.7147 Y3.6839
X3.7152 Y3.6836
X3.717 Y3.6823
X3.7175 Y3.6819
X3.7194 Y3.6805
X3.7199 Y3.6801
X3.7218 Y3.6786
X3.7223 Y3.6782
X3.7243 Y3.6766
X3.7247 Y3.6761
X3.7267 Y3.6743
X3.7272 Y3.6739
X3.7292 Y3.6719
X3.7296 Y3.6715
X3.7317 Y3.6693
X3.7321 Y3.6689
X3.7342 Y3.6665
X3.7345 Y3.6661
X3.7367 Y3.6635
X3.737 Y3.6631
X3.7393 Y3.6603
X3.7395 Y3.66
X3.7419 Y3.6569
X3.7421 Y3.6565
X3.7445 Y3.6532
X3.7447 Y3.6529
X3.7472 Y3.6493
X3.7474 Y3.649
X3.75 Y3.6451
X3.7502 Y3.6448
X3.7529 Y3.6406
X3.7531 Y3.6404
X3.7559 Y3.6358
X3.756 Y3.6356
X3.7589 Y3.6307
X3.7591 Y3.6305
X3.7621 Y3.6252
X3.7622 Y3.625
X3.7654 Y3.6194
X3.7655 Y3.6191
X3.7688 Y3.6131
X3.7689 Y3.613
X3.7723 Y3.6065
X3.7724 Y3.6064
X3.7759 Y3.5995
X3.776 Y3.5994
X3.7797 Y3.5921
Y3.592
X3.7841 Y3.5832
X3.7842 Y3.583
X3.7887 Y3.5737
Y3.5736
X3.7934 Y3.5637
Y3.5636
X3.7982 Y3.5533
X3.7983 Y3.5532
X3.8031 Y3.5425
X3.8032 Y3.5424
X3.8081 Y3.5313
X3.8082 Y3.5312
X3.8132 Y3.5197
Y3.5196
X3.8183 Y3.5079
Y3.5078
X3.8234 Y3.4958
X3.8235 Y3.4956
X3.8285 Y3.4834
X3.8286 Y3.4833
X3.8336 Y3.4708
X3.8337 Y3.4707
X3.8387 Y3.4581
X3.8388 Y3.4579
X3.8437 Y3.4452
X3.8438 Y3.4451
X3.8487 Y3.4322
Y3.4321
X3.8535 Y3.4192
X3.8536 Y3.419
X3.8582 Y3.4061
X3.8583 Y3.406
X3.8628 Y3.3931
X3.8629 Y3.3929
X3.8673 Y3.3801
Y3.3799
X3.8716 Y3.3672
Y3.367
X3.8757 Y3.3544
Y3.3542
X3.8795 Y3.3417
X3.8796 Y3.3415
X3.8832 Y3.3293
X3.8833 Y3.329
X3.8866 Y3.317
X3.8867 Y3.3168
X3.8897 Y3.3051
X3.8898 Y3.3047
X3.8926 Y3.2933
X3.8927 Y3.293
X3.8952 Y3.2819
Y3.2816
X3.8975 Y3.2707
X3.8976 Y3.2704
X3.8996 Y3.2597
X3.8997 Y3.2594
X3.9015 Y3.2489
X3.9016 Y3.2486
X3.9032 Y3.2383
X3.9033 Y3.2381
X3.9047 Y3.2279
X3.9048 Y3.2277
X3.9061 Y3.2176
Y3.2174
X3.9073 Y3.2075
X3.9074 Y3.2073
X3.9085 Y3.1975
Y3.1973
X3.9095 Y3.1875
Y3.1874
X3.9104 Y3.1776
Y3.1775
X3.9113 Y3.1677
Y3.1676
X3.9121 Y3.1578
X3.913 Y3.148
X3.9138 Y3.1381
X3.9147 Y3.1281
X3.9156 Y3.1181
X3.9165 Y3.1079
X3.9175 Y3.0976
X3.9186 Y3.0871
X3.9199 Y3.0765
X3.9213 Y3.0656
X3.9228 Y3.0544
X3.9245 Y3.043
X3.9263 Y3.0314
X3.9284 Y3.0195
X3.9306 Y3.0075
X3.933 Y2.9953
X3.9356 Y2.9829
X3.9384 Y2.9705
X3.9414 Y2.9579
X3.9446 Y2.9453
X3.948 Y2.9327
X3.9516 Y2.9201
X3.9554 Y2.9075
X3.9595 Y2.8949
X3.9637 Y2.8825
X3.9681 Y2.8701
X3.9728 Y2.8579
X3.9777 Y2.8458
X3.9829 Y2.8339
X3.9882 Y2.8222
X3.9937 Y2.8108
X3.9996 Y2.7997
X4.0056 Y2.7888
X4.0119 Y2.7782
X4.0184 Y2.768
X4.0251 Y2.7582
X4.0321 Y2.7487
X4.0393 Y2.7395
X4.0466 Y2.7307
X4.0542 Y2.7223
X4.0619 Y2.7141
X4.0697 Y2.7064
X4.0777 Y2.6989
X4.0858 Y2.6917
X4.094 Y2.6849
X4.1022 Y2.6784
X4.1105 Y2.6723
X4.1189 Y2.6664
X4.1272 Y2.6608
X4.1356 Y2.6556
X4.1439 Y2.6506
X4.1522 Y2.646
X4.1604 Y2.6416
X4.1686 Y2.6375
X4.1767 Y2.6338
X4.1846 Y2.6303
X4.1925 Y2.6271
X4.2001 Y2.6242
X4.2077 Y2.6215
X4.215 Y2.6192
X4.2221 Y2.617
X4.2291 Y2.6151
X4.2359 Y2.6134
X4.2426 Y2.6119
X4.249 Y2.6106
X4.2553 Y2.6094
X4.2615 Y2.6083
X4.2675 Y2.6074
X4.2734 Y2.6066
X4.2791 Y2.6058
X4.2847 Y2.6051
X4.2901 Y2.6045
X4.2954 Y2.6039
X4.3006 Y2.6033
X4.3007
X4.3056 Y2.6027
X4.3058
X4.3105 Y2.6021
X4.3108 Y2.602
X4.3154 Y2.6014
X4.3157 Y2.6013
X4.3201 Y2.6006
X4.3206 Y2.6005
X4.3248 Y2.5997
X4.3254 Y2.5996
X4.3294 Y2.5987
X4.33 Y2.5986
X4.3339 Y2.5976
X4.3347 Y2.5974
X4.3384 Y2.5962
X4.3393 Y2.5959
X4.3428 Y2.5946
X4.3439 Y2.5942
X4.3472 Y2.5928
X4.3481 Y2.5923
X4.3514 Y2.5907
X4.3523 Y2.5902
X4.3555 Y2.5884
X4.3563 Y2.5878
X4.3594 Y2.5858
X4.36 Y2.5854
X4.3631 Y2.5832
X4.3636 Y2.5829
X4.3666 Y2.5806
X4.3672 Y2.5801
X4.3702 Y2.5777
X4.3706 Y2.5774
X4.3736 Y2.5748
X4.3739 Y2.5745
X4.3769 Y2.5718
X4.3771 Y2.5716
X4.3801 Y2.5688
X4.3803 Y2.5686
X4.3832 Y2.5657
X4.3834 Y2.5656
X4.3863 Y2.5627
X4.3865 Y2.5625
X4.3894 Y2.5596
X4.3895 Y2.5595
X4.3924 Y2.5565
X4.3954 Y2.5535
X4.3955 Y2.5534
X4.3984 Y2.5504
X4.4014 Y2.5474
X4.4043 Y2.5445
X4.4073 Y2.5417
X4.4103 Y2.5389
X4.4134 Y2.5361
X4.4164 Y2.5335
X4.4194 Y2.531
X4.4226 Y2.5286
X4.4257 Y2.5263
X4.4289 Y2.5241
X4.4322 Y2.522
X4.4355 Y2.52
X4.4389 Y2.518
X4.4424 Y2.516
X4.4459 Y2.5141
X4.4494 Y2.5122
X4.453 Y2.5103
X4.4565 Y2.5085
X4.4601 Y2.5066
X4.4603 Y2.5065
X4.4638 Y2.5046
X4.4674 Y2.5027
X4.4677 Y2.5026
X4.4711 Y2.5007
X4.4713 Y2.5006
X4.4748 Y2.4986
X4.4751 Y2.4984
X4.4785 Y2.4964
X4.4788 Y2.4962
X4.4821 Y2.4941
X4.4826 Y2.4938
X4.4858 Y2.4917
X4.4862 Y2.4914
X4.4893 Y2.4892
X4.4899 Y2.4887
X4.4929 Y2.4864
X4.4935 Y2.486
X4.4964 Y2.4835
X4.4971 Y2.483
X4.4999 Y2.4804
X4.5004 Y2.4799
X4.5014 Y2.4793
X4.5026 Y2.479
X4.5038 Y2.4793
X4.5048 Y2.48
X4.507 Y2.4822
X4.5078 Y2.4831 Z0.0165
X4.5085 Y2.4838 Z0.0172
X4.509 Y2.4843 Z0.0182
X4.5092 Y2.4845 Z0.0194
G0 Z0.2625
X4.5047 Y2.4888
G1 Z0.0856 F1.8
Z0.0031
X4.5045 Y2.4887 Z0.0019 F14.2
X4.504 Y2.4882 Z0.0009
X4.5033 Y2.4874 Z0.0002
X4.5025 Y2.4866 Z0.
X4.5003 Y2.4844
X4.4997 Y2.4833
X4.4994 Y2.4821
X4.4997 Y2.4809
X4.5004 Y2.4799
X4.5032 Y2.4772
X4.5039 Y2.4764
X4.5065 Y2.4735
X4.507 Y2.473
X4.5093 Y2.4702
X4.5099 Y2.4695
X4.5122 Y2.4665
X4.5126 Y2.4659
X4.5148 Y2.4628
X4.5151 Y2.4622
X4.5173 Y2.4589
X4.5177 Y2.4582
X4.5198 Y2.4547
X4.5201 Y2.4542
X4.5221 Y2.4505
X4.5225 Y2.4499
X4.5244 Y2.446
X4.5246 Y2.4455
X4.5266 Y2.4414
X4.5268 Y2.441
X4.5287 Y2.4367
X4.5289 Y2.4362
X4.5307 Y2.4317
X4.5309 Y2.4312
X4.5326 Y2.4265
X4.5327 Y2.4263
X4.5344 Y2.4215
X4.5346 Y2.4209
X4.5362 Y2.4158
X4.5363 Y2.4155
X4.5379 Y2.4103
X4.538 Y2.4099
X4.5395 Y2.4045
X4.5396 Y2.4042
X4.5411 Y2.3986
X4.5412 Y2.3982
X4.5425 Y2.3924
X4.5426 Y2.3921
X4.5439 Y2.3861
X4.544 Y2.3858
X4.5452 Y2.3797
X4.5453 Y2.3792
X4.5464 Y2.3729
X4.5465 Y2.3727
X4.5476 Y2.3661
Y2.366
X4.5487 Y2.3592
Y2.3588
X4.5497 Y2.3519
Y2.3518
X4.5506 Y2.3447
Y2.3443
X4.5514 Y2.3378
Y2.3377
X4.552 Y2.3312
X4.5521 Y2.331
X4.5527 Y2.3244
Y2.3242
X4.5533 Y2.3175
Y2.3174
X4.5538 Y2.3106
Y2.3105
X4.5543 Y2.3037
Y2.3036
X4.5547 Y2.2967
X4.5551 Y2.2898
Y2.2897
X4.5555 Y2.2828
Y2.2827
X4.5559 Y2.2758
X4.5563 Y2.2689
Y2.2687
X4.5566 Y2.2618
X4.5573 Y2.2479
X4.5577 Y2.2409
X4.558 Y2.234
X4.5584 Y2.2271
X4.5588 Y2.2203
X4.5592 Y2.2135
X4.5597 Y2.2068
X4.5602 Y2.2001
X4.5607 Y2.1935
X4.5613 Y2.187
X4.5619 Y2.1806
X4.5626 Y2.1743
X4.5634 Y2.1679
X4.5641 Y2.1618
X4.565 Y2.1557
X4.5659 Y2.1498
X4.5669 Y2.1439
X4.568 Y2.1381
X4.5691 Y2.1325
X4.5703 Y2.127
X4.5716 Y2.1216
X4.573 Y2.1162
X4.5744 Y2.111
X4.5759 Y2.106
X4.5775 Y2.1011
X4.5792 Y2.0963
X4.581 Y2.0917
X4.5828 Y2.0871
X4.5848 Y2.0827
X4.5868 Y2.0786
X4.589 Y2.0744
X4.5912 Y2.0704
X4.5935 Y2.0666
X4.5959 Y2.063
X4.5984 Y2.0595
X4.6011 Y2.056
X4.6037 Y2.0528
X4.6066 Y2.0497
X4.6095 Y2.0466
X4.6124 Y2.0438
X4.6156 Y2.0409
X4.6187 Y2.0382
X4.6219 Y2.0356
X4.6253 Y2.033
X4.6287 Y2.0306
X4.6321 Y2.0282
X4.6356 Y2.0258
X4.6392 Y2.0236
X4.6427 Y2.0214
X4.6464 Y2.0192
X4.65 Y2.0171
X4.6537 Y2.0151
X4.6574 Y2.0131
X4.6612 Y2.011
X4.6648 Y2.0091
X4.6685 Y2.0071
X4.6722 Y2.0052
X4.6723
X4.6759 Y2.0032
X4.6795 Y2.0013
X4.6796
X4.6831 Y1.9994
X4.6833 Y1.9993
X4.6867 Y1.9974
Y1.9973
X4.6901 Y1.9955
X4.6903 Y1.9954
X4.6935 Y1.9935
X4.6937 Y1.9934
X4.6969 Y1.9915
X4.6972 Y1.9913
X4.7003 Y1.9894
X4.7007 Y1.9892
X4.7037 Y1.9872
X4.7039 Y1.9871
X4.7068 Y1.9851
X4.7073 Y1.9848
X4.7101 Y1.9828
X4.7104 Y1.9826
X4.7132 Y1.9805
X4.7137 Y1.9801
X4.7164 Y1.978
X4.7168 Y1.9777
X4.7194 Y1.9755
X4.72 Y1.975
X4.7224 Y1.9727
X4.7228 Y1.9724
X4.7252 Y1.9701
X4.7258 Y1.9695
X4.7281 Y1.9671
X4.7286 Y1.9666
X4.7308 Y1.964
X4.7314 Y1.9634
X4.7335 Y1.9607
X4.734 Y1.9602
X4.736 Y1.9574
X4.7364 Y1.9569
X4.7384 Y1.954
X4.7389 Y1.9532
X4.7407 Y1.9503
X4.7411 Y1.9496
X4.7429 Y1.9465
X4.7433 Y1.9458
X4.7449 Y1.9425
X4.7452 Y1.9419
X4.7468 Y1.9385
X4.7471 Y1.9379
X4.7486 Y1.9343
X4.749 Y1.9334
X4.7503 Y1.9296
X4.7504 Y1.9292
X4.7517 Y1.9253
X4.752 Y1.9246
X4.7531 Y1.9205
X4.7533 Y1.9198
X4.7544 Y1.9156
Y1.9153
X4.7555 Y1.9109
X4.7556 Y1.9103
X4.7565 Y1.9058
Y1.9056
X4.7574 Y1.9009
X4.7575 Y1.9004
X4.7582 Y1.8957
X4.7583 Y1.8955
X4.759 Y1.8907
Y1.8904
X4.7597 Y1.8855
Y1.8852
X4.7602 Y1.8803
X4.7603 Y1.8802
X4.7608 Y1.8753
Y1.8751
X4.7613 Y1.8702
Y1.8699
X4.7617 Y1.8649
Y1.8648
X4.762 Y1.8599
X4.7624 Y1.855
Y1.8547
X4.7627 Y1.8499
Y1.8498
X4.7629 Y1.845
Y1.8449
X4.7631 Y1.8402
X4.7633 Y1.8357
X4.7635 Y1.8312
Y1.8309
X4.7637 Y1.8267
X4.7638 Y1.8226
Y1.8225
X4.7639 Y1.8185
X4.7641 Y1.8146
X4.7642 Y1.811
X4.7643 Y1.8076
X4.7645 Y1.8042
X4.7646 Y1.8011
X4.7648 Y1.7982
X4.7651 Y1.7954
X4.7653 Y1.793
X4.7656 Y1.7905
X4.766 Y1.7882
X4.7664 Y1.7863
X4.7668 Y1.7844
X4.7673 Y1.7825
X4.7679 Y1.7808
X4.7684 Y1.7794
X4.7691 Y1.7779
X4.7698 Y1.7764
X4.7705 Y1.7751
X4.7714 Y1.7738
X4.7724 Y1.7725
X4.7735 Y1.7712
X4.7747 Y1.7698
X4.7761 Y1.7685
X4.7776 Y1.7671
X4.7792 Y1.7657
X4.7812 Y1.7642
X4.7832 Y1.7627
X4.7854 Y1.7611
X4.7876 Y1.7596
X4.7901 Y1.758
X4.7926 Y1.7563
X4.7952 Y1.7547
X4.7979 Y1.7529
X4.8007 Y1.7512
X4.8035 Y1.7494
X4.8063 Y1.7476
X4.8065 Y1.7475
X4.8093 Y1.7456
X4.8094
X4.8123 Y1.7437
X4.8124 Y1.7436
X4.8153 Y1.7416
X4.8156 Y1.7414
X4.8184 Y1.7395
X4.8186 Y1.7393
X4.8214 Y1.7373
X4.8217 Y1.737
X4.8245 Y1.7349
X4.8248 Y1.7347
X4.8275 Y1.7325
X4.8279 Y1.7322
X4.8305 Y1.73
X4.8309 Y1.7297
X4.8335 Y1.7274
X4.834 Y1.7269
X4.8366 Y1.7245
X4.837 Y1.7241
X4.8395 Y1.7216
X4.8399 Y1.7212
X4.8423 Y1.7186
X4.8428 Y1.718
X4.8452 Y1.7153
X4.8456 Y1.7148
X4.8479 Y1.7119
X4.8481 Y1.7116
X4.8503 Y1.7087
X4.8508 Y1.708
X4.8529 Y1.705
X4.8531 Y1.7047
X4.8552 Y1.7016
X4.8555 Y1.7012
X4.8576 Y1.698
X4.8579 Y1.6975
X4.8599 Y1.6941
X4.8601 Y1.6938
X4.862 Y1.6903
X4.8622 Y1.69
X4.8641 Y1.6864
X4.8642 Y1.6863
X4.8662 Y1.6827
X4.8664 Y1.6822
X4.8682 Y1.6785
X4.8683 Y1.6784
X4.8702 Y1.6746
X4.8703 Y1.6743
X4.8721 Y1.6705
X4.8722 Y1.6702
X4.874 Y1.6663
Y1.6662
X4.8758 Y1.6622
X4.8759 Y1.662
X4.8776 Y1.658
X4.8777 Y1.6578
X4.8794 Y1.6537
Y1.6536
X4.8811 Y1.6495
X4.8812 Y1.6494
X4.8828 Y1.6452
X4.8829 Y1.6451
X4.8846 Y1.6409
Y1.6408
X4.8862 Y1.6366
X4.8863 Y1.6365
X4.8879 Y1.6323
X4.8896 Y1.628
Y1.6278
X4.8913 Y1.6235
X4.8919 Y1.6213
X4.8923 Y1.619
X4.8943 Y1.6013
X4.8963 Y1.5837
X4.8982 Y1.5662
X4.9002 Y1.5486
X4.9021 Y1.5312
X4.9039 Y1.5139
X4.9058 Y1.4969
Y1.4968
X4.9075 Y1.4799
X4.9093 Y1.4631
X4.9109 Y1.4466
X4.9126 Y1.4304
Y1.4303
X4.9141 Y1.4144
Y1.4143
X4.9156 Y1.3987
Y1.3986
X4.9169 Y1.3834
Y1.3833
X4.9182 Y1.3684
X4.9183 Y1.3683
X4.9194 Y1.3538
Y1.3536
X4.9205 Y1.3395
X4.9215 Y1.3258
Y1.3257
X4.9224 Y1.3125
Y1.3123
X4.9231 Y1.2996
Y1.2995
X4.9237 Y1.2873
Y1.2871
X4.9242 Y1.2755
Y1.2752
X4.9245 Y1.2642
Y1.264
X4.9247 Y1.2535
Y1.2532
X4.9248 Y1.2434
Y1.243
X4.9247 Y1.2338
X4.9246 Y1.2334
X4.9244 Y1.2248
Y1.2244
X4.9239 Y1.2163
Y1.2158
X4.9233 Y1.2082
Y1.2078
X4.9226 Y1.2007
X4.9225 Y1.2
X4.9216 Y1.1934
X4.9215 Y1.1926
X4.9204 Y1.1864
X4.9202 Y1.1858
X4.919 Y1.1799
X4.9188 Y1.1791
X4.9174 Y1.1735
X4.9172 Y1.1728
X4.9156 Y1.1675
X4.9153 Y1.1665
X4.9135 Y1.1615
X4.9132 Y1.1609
X4.9113 Y1.1561
X4.9109 Y1.1551
X4.9087 Y1.1506
X4.9084 Y1.1499
X4.906 Y1.1455
X4.9056 Y1.1447
X4.9031 Y1.1404
X4.9027 Y1.1398
X4.8999 Y1.1356
X4.8995 Y1.1349
X4.8965 Y1.1307
X4.8962 Y1.1303
X4.893 Y1.1261
X4.8927 Y1.1256
X4.8893 Y1.1215
X4.889 Y1.1211
X4.8853 Y1.1169
X4.885 Y1.1165
X4.8811 Y1.1122
X4.8809 Y1.112
X4.8768 Y1.1076
X4.8766 Y1.1073
X4.8722 Y1.1028
X4.872 Y1.1026
X4.8674 Y1.0979
X4.8672 Y1.0978
X4.8623 Y1.0929
X4.8622 Y1.0927
X4.8571 Y1.0878
X4.857 Y1.0877
X4.8517 Y1.0827
X4.8515 Y1.0825
X4.8461 Y1.0774
X4.8459 Y1.0773
X4.8403 Y1.0721
X4.8401 Y1.072
X4.8343 Y1.0668
X4.8342 Y1.0667
X4.8283 Y1.0615
X4.8281 Y1.0614
X4.8221 Y1.0562
X4.8219 Y1.0561
X4.8158 Y1.051
X4.8157 Y1.0508
X4.8095 Y1.0458
X4.8092 Y1.0456
X4.8029 Y1.0406
X4.8028 Y1.0405
X4.7965 Y1.0356
X4.7963 Y1.0355
X4.7899 Y1.0307
X4.7897 Y1.0305
X4.7833 Y1.0259
X4.7831 Y1.0257
X4.7767 Y1.0213
X4.7764 Y1.0211
X4.7701 Y1.0168
X4.7697 Y1.0166
X4.7634 Y1.0125
X4.7631 Y1.0123
X4.7569 Y1.0085
X4.7564 Y1.0082
X4.7502 Y1.0046
X4.7498 Y1.0044
X4.7437 Y1.001
X4.7432 Y1.0008
X4.7373 Y0.9977
X4.7367 Y0.9974
X4.7308 Y0.9947
X4.7301 Y0.9944
X4.7244 Y0.992
X4.7236 Y0.9917
X4.718 Y0.9896
X4.7173 Y0.9893
X4.7118 Y0.9875
X4.711 Y0.9873
X4.7055 Y0.9858
X4.7047 Y0.9856
X4.6994 Y0.9843
X4.6985 Y0.9842
X4.6932 Y0.9832
X4.6924 Y0.9831
X4.6872 Y0.9823
X4.6864 Y0.9822
X4.6811 Y0.9817
X4.6803
X4.6751 Y0.9814
X4.6744 Y0.9813
X4.6691
X4.6685
X4.6631
X4.6625 Y0.9814
X4.6572 Y0.9816
X4.6567 Y0.9817
X4.6513 Y0.9821
X4.6509
X4.6454 Y0.9827
X4.645
X4.6394 Y0.9834
X4.6391
X4.6334 Y0.9842
X4.6332 Y0.9843
X4.6274 Y0.9852
X4.6272
X4.6213 Y0.9862
X4.6212
X4.615 Y0.9872
X4.6149 Y0.9873
X4.6086 Y0.9884
X4.6022 Y0.9895
X4.5956 Y0.9906
X4.5888 Y0.9918
X4.5818 Y0.9929
X4.5746 Y0.994
X4.5673 Y0.9951
X4.5597 Y0.9961
X4.5519 Y0.9971
X4.5439 Y0.998
X4.5358 Y0.9989
X4.5276 Y0.9998
X4.5193 Y1.0006
X4.5109 Y1.0014
X4.5024 Y1.0022
X4.4939 Y1.003
X4.4854 Y1.0037
X4.4769 Y1.0045
X4.4684 Y1.0052
X4.46 Y1.0059
X4.4517 Y1.0066
X4.4434 Y1.0073
X4.4353 Y1.008
X4.4352
X4.4273 Y1.0087
X4.4194 Y1.0094
X4.4193
X4.4117 Y1.0101
X4.4116
X4.4042 Y1.0108
X4.397 Y1.0115
X4.3969
X4.3899 Y1.0123
X4.3898
X4.3831 Y1.013
X4.383
X4.3766 Y1.0138
X4.3764
X4.3703 Y1.0146
X4.3701
X4.3643 Y1.0154
X4.3641 Y1.0155
X4.3585 Y1.0163
X4.3582 Y1.0164
X4.3528 Y1.0173
X4.3525
X4.3473 Y1.0182
X4.347 Y1.0183
X4.3419 Y1.0193
X4.3416 Y1.0194
X4.3367 Y1.0205
X4.3363
X4.3315 Y1.0217
X4.3311 Y1.0218
X4.3264 Y1.023
X4.326 Y1.0231
X4.3213 Y1.0245
X4.3209 Y1.0246
X4.3163 Y1.026
X4.3159 Y1.0261
X4.3113 Y1.0277
X4.3109 Y1.0278
X4.3063 Y1.0295
X4.3059 Y1.0296
X4.3012 Y1.0314
X4.3009 Y1.0315
X4.2962 Y1.0334
X4.2959 Y1.0336
X4.2911 Y1.0356
X4.2907 Y1.0358
X4.2858 Y1.0379
X4.2856 Y1.0381
X4.2806 Y1.0404
X4.2803 Y1.0405
X4.2751 Y1.0431
X4.2749 Y1.0432
X4.2696 Y1.0459
X4.2694 Y1.046
X4.2638 Y1.0488
X4.2637 Y1.0489
X4.2579 Y1.052
X4.2577
X4.2517 Y1.0553
X4.2516
X4.2453 Y1.0588
X4.2452
X4.2387 Y1.0625
X4.2386
X4.2318 Y1.0663
X4.2247 Y1.0703
X4.2246
X4.2174 Y1.0744
X4.2099 Y1.0786
X4.2022 Y1.0829
X4.1943 Y1.0873
X4.1861 Y1.0917
X4.1778 Y1.0962
X4.1693 Y1.1007
X4.1606 Y1.1052
X4.1517 Y1.1097
X4.1427 Y1.1141
X4.1335 Y1.1185
X4.1242 Y1.1229
X4.1146 Y1.1271
X4.105 Y1.1313
X4.0952 Y1.1353
X4.0853 Y1.1393
X4.0753 Y1.143
X4.0651 Y1.1466
X4.0548 Y1.15
X4.0444 Y1.1533
X4.0339 Y1.1563
X4.0233 Y1.1591
X4.0127 Y1.1617
X4.0019 Y1.1642
X3.9911 Y1.1665
X3.9802 Y1.1687
X3.9694 Y1.1707
X3.9585 Y1.1726
X3.9477 Y1.1744
X3.9369 Y1.1761
X3.9262 Y1.1777
X3.9155 Y1.1792
X3.905 Y1.1807
X3.8946 Y1.1821
X3.8843 Y1.1835
X3.8742 Y1.1849
X3.8642 Y1.1862
X3.8641
X3.8544 Y1.1876
X3.8449 Y1.1889
X3.8447
X3.8355 Y1.1903
X3.8354 Y1.1904
X3.8264 Y1.1918
X3.8262
X3.8176 Y1.1933
X3.8173
X3.809 Y1.1949
X3.8086
X3.8006 Y1.1965
X3.8003 Y1.1966
X3.7926 Y1.1983
X3.7923 Y1.1984
X3.7849 Y1.2001
X3.7845 Y1.2002
X3.7775 Y1.2021
X3.777 Y1.2022
X3.7703 Y1.2042
X3.7698 Y1.2043
X3.7634 Y1.2064
X3.7629 Y1.2066
X3.7567 Y1.2088
X3.7562 Y1.209
X3.7503 Y1.2113
X3.7497 Y1.2115
X3.744 Y1.214
X3.7434 Y1.2143
X3.738 Y1.2169
X3.7373 Y1.2172
X3.7321 Y1.2199
X3.7314 Y1.2203
X3.7264 Y1.2232
X3.7257 Y1.2236
X3.7209 Y1.2267
X3.7202 Y1.2271
X3.7156 Y1.2304
X3.7149 Y1.2308
X3.7104 Y1.2343
X3.7098 Y1.2348
X3.7054 Y1.2384
X3.7048 Y1.2389
X3.7006 Y1.2428
X3.7 Y1.2433
X3.6959 Y1.2474
X3.6954 Y1.2479
X3.6913 Y1.2522
X3.6909 Y1.2527
X3.6869 Y1.2572
X3.6865 Y1.2577
X3.6826 Y1.2625
X3.6822 Y1.2629
X3.6783 Y1.2679
X3.678 Y1.2684
X3.6742 Y1.2737
X3.6739 Y1.2741
X3.6701 Y1.2796
X3.6698 Y1.28
X3.666 Y1.2858
X3.6658 Y1.2862
X3.6619 Y1.2923
X3.6618 Y1.2926
X3.6579 Y1.299
X3.6578 Y1.2993
X3.6539 Y1.306
X3.6538 Y1.3062
X3.6499 Y1.3131
Y1.3132
X3.646 Y1.3204
X3.6459 Y1.3205
X3.642 Y1.3278
X3.6419 Y1.3279
X3.638 Y1.3353
Y1.3354
X3.634 Y1.343
X3.63 Y1.3507
X3.6259 Y1.3585
X3.6218 Y1.3664
X3.6176 Y1.3742
X3.6134 Y1.3821
X3.6092 Y1.3899
X3.6048 Y1.3977
X3.6004 Y1.4054
X3.5959 Y1.413
X3.5914 Y1.4205
X3.5867 Y1.4278
X3.582 Y1.435
X3.5772 Y1.442
X3.5723 Y1.4488
X3.5673 Y1.4553
X3.5622 Y1.4616
X3.557 Y1.4676
X3.5517 Y1.4734
X3.5462 Y1.4789
X3.5407 Y1.4842
X3.535 Y1.4893
X3.5292 Y1.4941
X3.5234 Y1.4988
X3.5174 Y1.5033
X3.5112 Y1.5076
X3.505 Y1.5118
X3.4987 Y1.5158
X3.4922 Y1.5196
X3.4857 Y1.5233
X3.479 Y1.5269
X3.4723 Y1.5303
X3.4654 Y1.5337
X3.4584 Y1.5369
X3.4514 Y1.54
X3.4443 Y1.5431
X3.437 Y1.5461
X3.4297 Y1.549
X3.4223 Y1.5518
X3.4148 Y1.5546
X3.4073 Y1.5574
X3.3997 Y1.5601
X3.392 Y1.5628
X3.3842 Y1.5654
X3.3764 Y1.568
X3.3686 Y1.5705
X3.3607 Y1.5729
X3.3527 Y1.5753
X3.3447 Y1.5776
X3.3366 Y1.5798
X3.3285 Y1.5819
X3.3204 Y1.5839
X3.3122 Y1.5858
X3.3039 Y1.5876
X3.2956 Y1.5892
X3.2873 Y1.5908
X3.2789 Y1.5922
X3.2705 Y1.5935
X3.262 Y1.5946
X3.2535 Y1.5956
X3.245 Y1.5964
X3.2364 Y1.5971
X3.2278 Y1.5976
X3.2191 Y1.5979
X3.2104 Y1.598
X3.2017
X3.1928 Y1.5978
X3.184 Y1.5975
X3.1751 Y1.5971
X3.1661 Y1.5966
X3.1572 Y1.5961
X3.1481 Y1.5955
X3.1391 Y1.5949
X3.1301 Y1.5944
X3.13
X3.121 Y1.5939
X3.1209
X3.1119 Y1.5935
X3.1117
X3.1028 Y1.5931
X3.1025
X3.0937 Y1.5929
X3.0934
X3.0846
X3.0842
X3.0755 Y1.5931
X3.075
X3.0663 Y1.5935
X3.0658
X3.0572 Y1.5941
X3.0566
X3.048 Y1.595
X3.0474 Y1.5951
X3.0389 Y1.5962
X3.0382 Y1.5963
X3.0298 Y1.5978
X3.029 Y1.5979
X3.0207 Y1.5997
X3.0199 Y1.5999
X3.0116 Y1.602
X3.0108 Y1.6023
X3.0026 Y1.6048
X3.0017 Y1.6051
X2.9936 Y1.6081
X2.9928 Y1.6084
X2.9847 Y1.6119
X2.9839 Y1.6122
X2.9759 Y1.6161
X2.9752 Y1.6164
X2.9672 Y1.6207
X2.9666 Y1.621
X2.9587 Y1.6256
X2.9582 Y1.6259
X2.9503 Y1.6309
X2.9498 Y1.6311
X2.942 Y1.6364
X2.9416 Y1.6366
X2.9338 Y1.6421
X2.9335 Y1.6423
X2.9257 Y1.648
X2.9255 Y1.6482
X2.9178 Y1.6541
X2.9175 Y1.6543
X2.9099 Y1.6603
X2.9097 Y1.6605
X2.9021 Y1.6666
X2.902 Y1.6667
X2.8945 Y1.6729
X2.8944 Y1.673
X2.8869 Y1.6792
Y1.6793
X2.8795 Y1.6855
X2.8794 Y1.6856
X2.8721 Y1.6918
X2.8649 Y1.6979
X2.8579 Y1.7039
X2.8509 Y1.7097
X2.8441 Y1.7153
X2.8374 Y1.7206
X2.8309 Y1.7256
X2.8246 Y1.7303
X2.8184 Y1.7346
X2.8123 Y1.7385
X2.8074 Y1.7415
X2.8025 Y1.7441
X2.7977 Y1.7465
X2.793 Y1.7485
X2.7884 Y1.7502
X2.7838 Y1.7517
X2.7794 Y1.7529
X2.7749 Y1.7539
X2.7706 Y1.7546
X2.7662 Y1.755
X2.7619 Y1.7552
X2.7576
X2.7532 Y1.755
X2.7489 Y1.7545
X2.7445 Y1.7538
X2.7401 Y1.7528
X2.7356 Y1.7516
X2.7311 Y1.7502
X2.7265 Y1.7485
X2.7218 Y1.7466
X2.7171 Y1.7444
X2.7122 Y1.7419
X2.7072 Y1.7392
X2.7021 Y1.7363
X2.6969 Y1.7332
X2.6916 Y1.7298
X2.6861 Y1.7261
X2.6805 Y1.7223
X2.6739 Y1.7175
X2.667 Y1.7124
X2.6601 Y1.7071
X2.6529 Y1.7014
X2.6457 Y1.6954
X2.6383 Y1.689
X2.6307 Y1.6824
X2.6231 Y1.6754
X2.6153 Y1.668
X2.6075 Y1.6604
X2.5995 Y1.6523
X2.5914 Y1.6439
X2.5833 Y1.6351
X2.575 Y1.6259
X2.5667 Y1.6164
X2.5584 Y1.6064
X2.5499 Y1.5961
X2.5414 Y1.5853
X2.5329 Y1.5742
X2.5243 Y1.5626
X2.5157 Y1.5506
X2.507 Y1.5381
X2.4984 Y1.5252
X2.4897 Y1.5119
X2.481 Y1.4981
X2.4723 Y1.4839
X2.4636 Y1.4693
X2.4549 Y1.4544
X2.4463 Y1.4392
X2.4377 Y1.4238
X2.4292 Y1.4082
X2.4207 Y1.3924
X2.4124 Y1.3766
X2.4041 Y1.3607
X2.3959 Y1.3448
X2.3879 Y1.3289
X2.38 Y1.3132
X2.3723 Y1.2976
X2.3647 Y1.2821
X2.3574 Y1.2669
X2.3501 Y1.252
X2.3431 Y1.2373
X2.3363 Y1.2231
X2.3298 Y1.2092
X2.3234 Y1.1958
X2.3173 Y1.1829
X2.3115 Y1.1705
X2.3059 Y1.1588
X2.3006 Y1.1476
X2.2956 Y1.1371
X2.2955 Y1.137
X2.2907 Y1.1272
Y1.127
X2.2861 Y1.1178
X2.286 Y1.1176
X2.2816 Y1.109
X2.2814 Y1.1087
X2.2771 Y1.1007
X2.277 Y1.1003
X2.2728 Y1.0928
X2.2725 Y1.0924
X2.2684 Y1.0854
X2.2681 Y1.0849
X2.264 Y1.0784
X2.2637 Y1.0778
X2.2596 Y1.0718
X2.2591 Y1.0712
X2.255 Y1.0655
X2.2545 Y1.0648
X2.2503 Y1.0596
X2.2497 Y1.0589
X2.2453 Y1.054
X2.2446 Y1.0533
X2.2402 Y1.0488
X2.2394 Y1.0481
X2.2348 Y1.0439
X2.2339 Y1.0432
X2.2291 Y1.0393
X2.2281 Y1.0387
X2.2231 Y1.0351
X2.2222 Y1.0345
X2.2167 Y1.0312
X2.2158 Y1.0307
X2.21 Y1.0275
X2.2092 Y1.0271
X2.203 Y1.0242
X2.2022 Y1.0238
X2.1955 Y1.021
X2.1948 Y1.0207
X2.1876 Y1.0181
X2.187 Y1.0179
X2.1793 Y1.0154
X2.1787 Y1.0152
X2.1704 Y1.0128
X2.1699 Y1.0126
X2.1611 Y1.0104
X2.1606 Y1.0102
X2.1512 Y1.0081
X2.1508 Y1.008
X2.1408 Y1.0059
X2.1405 Y1.0058
X2.13 Y1.0038
X2.1297
X2.1187 Y1.0019
X2.1184
X2.107 Y1.0001
X2.1068
X2.0949 Y0.9984
X2.0947
X2.0824 Y0.9968
X2.0822
X2.0696 Y0.9953
X2.0694
X2.0564 Y0.9939
X2.0562
X2.0429 Y0.9927
X2.0427
X2.0291 Y0.9915
X2.0289
X2.015 Y0.9904
X2.0149
X2.0007 Y0.9895
X2.0006
X1.9862 Y0.9886
X1.9861
X1.9715 Y0.9879
X1.9714
X1.9567 Y0.9872
X1.9565
X1.9417 Y0.9867
X1.9416 Y0.9866
X1.9266 Y0.9862
X1.9264
X1.9114 Y0.9858
X1.9113
X1.8961 Y0.9856
X1.896
X1.8808 Y0.9854
X1.8807
X1.8655
X1.8654
X1.8503
X1.8501
X1.835 Y0.9856
X1.8349
X1.8198 Y0.9858
X1.8197
X1.8047 Y0.9862
X1.8046
X1.7897 Y0.9867
X1.7896
X1.7748 Y0.9873
X1.7746
X1.7601 Y0.988
X1.7599
X1.7455 Y0.9889
X1.7453
X1.731 Y0.99
X1.7308
X1.7168 Y0.9911
X1.7166 Y0.9912
X1.7028 Y0.9925
X1.7026
X1.6891 Y0.994
X1.6888
X1.6756 Y0.9957
X1.6753
X1.6624 Y0.9976
X1.6621
X1.6495 Y0.9996
X1.6491 Y0.9997
X1.6369 Y1.0018
X1.6365 Y1.0019
X1.6247 Y1.0043
X1.6243 Y1.0044
X1.6128 Y1.007
X1.6123 Y1.0071
X1.6013 Y1.0098
X1.6008 Y1.01
X1.5902 Y1.013
X1.5897 Y1.0131
X1.5795 Y1.0163
X1.5789 Y1.0165
X1.5693 Y1.0199
X1.5686 Y1.0202
X1.5594 Y1.0238
X1.5587 Y1.0241
X1.5501 Y1.028
X1.5493 Y1.0284
X1.5412 Y1.0325
X1.5403 Y1.033
X1.5328 Y1.0373
X1.532 Y1.0378
X1.5249 Y1.0424
X1.5241 Y1.043
X1.5175 Y1.0478
X1.5168 Y1.0483
X1.5106 Y1.0533
X1.5099 Y1.0539
X1.5041 Y1.0591
X1.5035 Y1.0597
X1.498 Y1.0651
X1.4975 Y1.0657
X1.4923 Y1.0712
X1.4918 Y1.0717
X1.487 Y1.0774
X1.4866 Y1.0779
X1.482 Y1.0836
X1.4817 Y1.0841
X1.4773 Y1.0899
X1.477 Y1.0903
X1.4729 Y1.0962
X1.4726 Y1.0966
X1.4686 Y1.1025
X1.4685 Y1.1028
X1.4646 Y1.1088
X1.4645 Y1.109
X1.4607 Y1.115
X1.4606 Y1.1151
X1.4569 Y1.1211
X1.4532 Y1.1272
X1.4495 Y1.133
X1.4459 Y1.1388
X1.4423 Y1.1443
X1.4386 Y1.1498
X1.4348 Y1.155
X1.431 Y1.16
X1.427 Y1.1647
X1.4229 Y1.1692
X1.4186 Y1.1735
X1.4141 Y1.1776
X1.4093 Y1.1814
X1.4042 Y1.1852
X1.399 Y1.1887
X1.3936 Y1.1921
X1.388 Y1.1953
X1.3822 Y1.1983
X1.3763 Y1.2012
X1.3704 Y1.204
X1.3643 Y1.2066
X1.3582 Y1.2091
X1.3521 Y1.2115
X1.3459 Y1.2138
X1.3398 Y1.216
X1.3337 Y1.2181
X1.3277 Y1.2201
X1.3217 Y1.222
X1.3159 Y1.2239
X1.3102 Y1.2257
X1.3101
X1.3046 Y1.2275
X1.3045
X1.2992 Y1.2292
X1.299 Y1.2293
X1.294 Y1.231
X1.2937 Y1.2311
X1.289 Y1.2328
X1.2887 Y1.2329
X1.2842 Y1.2345
X1.2839 Y1.2346
X1.2796 Y1.2363
X1.2792 Y1.2365
X1.2752 Y1.2381
X1.2747 Y1.2383
X1.2709 Y1.24
X1.2703 Y1.2403
X1.2667 Y1.2421
X1.266 Y1.2424
X1.2625 Y1.2443
X1.2618 Y1.2447
X1.2584 Y1.2467
X1.2577 Y1.2472
X1.2544 Y1.2494
X1.2537 Y1.2499
X1.2505 Y1.2523
X1.2497 Y1.2529
X1.2467 Y1.2554
X1.246 Y1.2561
X1.243 Y1.2589
X1.2423 Y1.2595
X1.2393 Y1.2626
X1.2387 Y1.2632
X1.2358 Y1.2665
X1.2353 Y1.2671
X1.2323 Y1.2708
X1.2319 Y1.2714
X1.2289 Y1.2754
X1.2285 Y1.2759
X1.2254 Y1.2802
X1.2251 Y1.2807
X1.222 Y1.2855
X1.2217 Y1.2859
X1.2185 Y1.2911
X1.2183 Y1.2914
X1.2149 Y1.2971
X1.2147 Y1.2974
X1.2112 Y1.3035
X1.211 Y1.3038
X1.2074 Y1.3105
X1.2072 Y1.3107
X1.2034 Y1.3179
X1.2033 Y1.3181
X1.1993 Y1.3259
X1.1992 Y1.3261
X1.1951 Y1.3344
X1.195 Y1.3345
X1.1906 Y1.3435
Y1.3436
X1.186 Y1.353
Y1.3532
X1.1813 Y1.3631
Y1.3632
X1.1764 Y1.3737
Y1.3738
X1.1715 Y1.3846
X1.1714 Y1.3848
X1.1665 Y1.396
X1.1664 Y1.3961
X1.1614 Y1.4077
X1.1613 Y1.4078
X1.1562 Y1.4197
Y1.4198
X1.1511 Y1.432
X1.151 Y1.4321
X1.1459 Y1.4445
Y1.4446
X1.1408 Y1.4572
Y1.4573
X1.1357 Y1.47
Y1.4701
X1.1308 Y1.483
X1.1307 Y1.4831
X1.1259 Y1.496
X1.1258 Y1.4962
X1.1211 Y1.5091
X1.121 Y1.5092
X1.1164 Y1.5221
Y1.5223
X1.1119 Y1.5352
X1.1118 Y1.5353
X1.1076 Y1.5481
X1.1075 Y1.5483
X1.1035 Y1.5609
X1.1034 Y1.5612
X1.0996 Y1.5736
X1.0995 Y1.5738
X1.0959 Y1.5861
Y1.5864
X1.0926 Y1.5983
X1.0925 Y1.5987
X1.0895 Y1.6103
X1.0894 Y1.6107
X1.0867 Y1.622
X1.0866 Y1.6224
X1.0842 Y1.6334
X1.0841 Y1.6338
X1.0821 Y1.6445
X1.082 Y1.6449
X1.0802 Y1.6552
Y1.6556
X1.0787 Y1.6656
X1.0786 Y1.666
X1.0773 Y1.6757
Y1.6761
X1.0762 Y1.6855
Y1.6858
X1.0753 Y1.695
Y1.6953
X1.0746 Y1.7042
X1.0745 Y1.7044
X1.074 Y1.7131
Y1.7133
X1.0735 Y1.7217
Y1.7219
X1.0731 Y1.7301
Y1.7303
X1.0728 Y1.7383
Y1.7384
X1.0726 Y1.7462
X1.0723 Y1.7538
X1.0721 Y1.7612
X1.0718 Y1.7684
X1.0715 Y1.7754
X1.0712 Y1.7822
X1.0707 Y1.7888
X1.0701 Y1.7953
X1.0694 Y1.8015
X1.0686 Y1.8077
X1.0676 Y1.8137
X1.0664 Y1.8196
X1.0649 Y1.8254
X1.0633 Y1.8312
X1.0615 Y1.8369
X1.0595 Y1.8426
X1.0574 Y1.8483
X1.0551 Y1.8541
X1.0526 Y1.8598
X1.05 Y1.8656
X1.0473 Y1.8714
X1.0444 Y1.8772
X1.0415 Y1.8832
X1.0384 Y1.8892
X1.0353 Y1.8953
X1.0322 Y1.9015
X1.029 Y1.9078
Y1.9079
X1.0258 Y1.9143
X1.0257 Y1.9144
X1.0226 Y1.9209
X1.0225 Y1.921
X1.0194 Y1.9276
X1.0193 Y1.9278
X1.0162 Y1.9345
X1.0161 Y1.9348
X1.0131 Y1.9416
X1.013 Y1.9419
X1.01 Y1.9489
X1.0099 Y1.9492
X1.007 Y1.9564
X1.0069 Y1.9568
X1.0042 Y1.9641
X1.004 Y1.9645
X1.0014 Y1.972
X1.0013 Y1.9724
X0.9988 Y1.9802
X0.9987 Y1.9806
X0.9963 Y1.9885
X0.9962 Y1.989
X0.994 Y1.9971
X0.9938 Y1.9976
X0.9918 Y2.006
X0.9917 Y2.0064
X0.9898 Y2.015
X0.9897 Y2.0155
X0.988 Y2.0243
X0.9879 Y2.0247
X0.9864 Y2.0338
X0.9863 Y2.0343
X0.9849 Y2.0435
Y2.044
X0.9837 Y2.0535
Y2.054
X0.9828 Y2.0637
X0.9827 Y2.0642
X0.982 Y2.0741
Y2.0746
X0.9815 Y2.0848
Y2.0853
X0.9813 Y2.0957
Y2.0961
Y2.1068
Y2.1073
X0.9816 Y2.1182
Y2.1186
X0.9822 Y2.1298
Y2.1302
X0.9831 Y2.1416
Y2.142
X0.9843 Y2.1536
Y2.1541
X0.9858 Y2.1659
Y2.1663
X0.9876 Y2.1784
X0.9877 Y2.1788
X0.9897 Y2.1912
X0.9898 Y2.1916
X0.9923 Y2.2042
Y2.2046
X0.9951 Y2.2174
X0.9952 Y2.2178
X0.9983 Y2.2308
X0.9984 Y2.2312
X1.0019 Y2.2445
X1.002 Y2.2449
X1.0059 Y2.2584
X1.006 Y2.2588
X1.0102 Y2.2725
X1.0103 Y2.2728
X1.0148 Y2.2868
X1.0149 Y2.2871
X1.0197 Y2.3012
X1.0198 Y2.3014
X1.0249 Y2.3157
X1.025 Y2.3159
X1.0304 Y2.3303
X1.0305 Y2.3305
X1.0361 Y2.345
X1.0362 Y2.3452
X1.0421 Y2.3598
Y2.36
X1.0482 Y2.3746
X1.0483 Y2.3748
X1.0546 Y2.3895
X1.0547 Y2.3896
X1.0612 Y2.4043
Y2.4045
X1.0679 Y2.4192
X1.068 Y2.4193
X1.0748 Y2.434
Y2.4341
X1.0818 Y2.4487
X1.0819 Y2.4489
X1.0889 Y2.4634
X1.089 Y2.4636
X1.0961 Y2.478
X1.0962 Y2.4781
X1.1035 Y2.4925
Y2.4926
X1.1108 Y2.5068
X1.1109 Y2.5069
X1.1183 Y2.521
Y2.5211
X1.1257 Y2.535
X1.1258 Y2.5351
X1.1332 Y2.5488
X1.1333 Y2.5489
X1.1407 Y2.5624
X1.1408 Y2.5625
X1.1482 Y2.5757
Y2.5758
X1.1556 Y2.5888
X1.1557 Y2.5889
X1.163 Y2.6016
X1.1631 Y2.6017
X1.1704 Y2.6141
X1.1705 Y2.6142
X1.1778 Y2.6263
X1.1779 Y2.6265
X1.1851 Y2.6382
X1.1853 Y2.6384
X1.1925 Y2.6499
X1.1926 Y2.65
X1.1998 Y2.6612
X1.1999 Y2.6614
X1.2071 Y2.6722
X1.2073 Y2.6724
X1.2144 Y2.6828
X1.2146 Y2.683
X1.2217 Y2.6931
X1.2219 Y2.6933
X1.229 Y2.7031
X1.2292 Y2.7033
X1.2363 Y2.7126
X1.2365 Y2.7129
X1.2436 Y2.7219
X1.2438 Y2.7222
X1.2509 Y2.7307
X1.2512 Y2.731
X1.2582 Y2.7391
X1.2585 Y2.7395
X1.2655 Y2.7472
X1.2658 Y2.7476
X1.2728 Y2.7548
X1.2732 Y2.7552
X1.2802 Y2.762
X1.2806 Y2.7625
X1.2876 Y2.7688
X1.2881 Y2.7693
X1.295 Y2.7752
X1.2956 Y2.7757
X1.3025 Y2.7811
X1.3031 Y2.7816
X1.31 Y2.7865
X1.3107 Y2.787
X1.3176 Y2.7915
X1.3184 Y2.792
X1.3253 Y2.796
X1.3262 Y2.7965
X1.3331 Y2.7999
X1.334 Y2.8004
X1.3409 Y2.8034
X1.3418 Y2.8038
X1.3489 Y2.8064
X1.3497 Y2.8067
X1.3568 Y2.809
X1.3577 Y2.8092
X1.3648 Y2.8112
X1.3656 Y2.8114
X1.3729 Y2.813
X1.3736 Y2.8132
X1.381 Y2.8146
X1.3816 Y2.8147
X1.3891 Y2.8158
X1.3896 Y2.8159
X1.3973 Y2.8169
X1.3977 Y2.817
X1.4056 Y2.8178
X1.4059
X1.4139 Y2.8186
X1.4141
X1.4224 Y2.8192
X1.4225 Y2.8193
X1.4309 Y2.8199
X1.4396 Y2.8205
X1.4484 Y2.8211
X1.4573 Y2.8218
X1.4665 Y2.8226
X1.4758 Y2.8235
X1.4854 Y2.8246
X1.4952 Y2.8259
X1.5052 Y2.8274
X1.5154 Y2.8292
X1.526 Y2.8314
X1.5368 Y2.8339
X1.5479 Y2.8367
X1.5592 Y2.84
X1.5709 Y2.8436
X1.5827 Y2.8475
X1.5947 Y2.8517
X1.6068 Y2.8562
X1.619 Y2.861
X1.6312 Y2.866
X1.6434 Y2.8711
X1.6556 Y2.8765
X1.6677 Y2.882
X1.6797 Y2.8876
X1.6916 Y2.8934
X1.7033 Y2.8992
X1.7148 Y2.905
X1.726 Y2.9109
X1.7369 Y2.9167
X1.7475 Y2.9226
X1.7577 Y2.9284
X1.7675 Y2.9341
X1.7768 Y2.9397
X1.7857 Y2.9451
X1.794 Y2.9504
X1.8018 Y2.9555
X1.809 Y2.9604
X1.8157 Y2.9651
X1.8217 Y2.9695
X1.8273 Y2.9738
X1.8322 Y2.9779
X1.8367 Y2.9818
X1.8406 Y2.9855
X1.844 Y2.9891
X1.847 Y2.9924
X1.8494 Y2.9956
X1.8515 Y2.9986
X1.8532 Y3.0014
X1.8545 Y3.0041
X1.8556 Y3.0067
X1.8563 Y3.0092
X1.8569 Y3.0117
X1.8572 Y3.014
X1.8573 Y3.0164
X1.8572 Y3.0188
X1.857 Y3.0213
X1.8565 Y3.0239
X1.8559 Y3.0266
X1.8551 Y3.0294
X1.8541 Y3.0323
X1.853 Y3.0353
X1.8517 Y3.0385
X1.8504 Y3.0417
X1.8489 Y3.045
X1.8473 Y3.0483
X1.8456 Y3.0517
X1.8439 Y3.0552
X1.8421 Y3.0586
X1.8403 Y3.0621
X1.8384 Y3.0656
X1.8365 Y3.0691
X1.8345 Y3.0727
X1.8326 Y3.0762
X1.8307 Y3.0797
Y3.0798
X1.8288 Y3.0832
X1.8287 Y3.0833
X1.8269 Y3.0867
Y3.0868
X1.8251 Y3.0902
X1.825 Y3.0904
X1.8233 Y3.0937
X1.8232 Y3.0939
X1.8216 Y3.0972
X1.8215 Y3.0975
X1.82 Y3.1007
X1.8198 Y3.101
X1.8184 Y3.1041
X1.8182 Y3.1046
X1.817 Y3.1076
X1.8168 Y3.1081
X1.8156 Y3.1111
X1.8154 Y3.1117
X1.8144 Y3.1145
X1.8143 Y3.115
X1.8134 Y3.1178
X1.8132 Y3.1183
X1.8125 Y3.1209
X1.8123 Y3.1218
X1.8117 Y3.1243
X1.8115 Y3.1254
X1.8111 Y3.1279
X1.8109 Y3.1293
X1.8107 Y3.1317
X1.8106 Y3.1333
Y3.1358
X1.8107 Y3.1375
X1.8109 Y3.14
X1.8112 Y3.1417
X1.8117 Y3.1442
X1.812 Y3.1458
X1.8128 Y3.1485
X1.8132 Y3.1499
X1.8143 Y3.1527
X1.8147 Y3.1539
X1.8161 Y3.1569
X1.8165 Y3.1578
X1.8182 Y3.1611
X1.8186 Y3.1619
X1.8206 Y3.1655
X1.821 Y3.1661
X1.8234 Y3.17
X1.8238 Y3.1706
X1.8266 Y3.1748
X1.827 Y3.1754
X1.8302 Y3.1799
X1.8305 Y3.1803
X1.8343 Y3.1852
X1.8346 Y3.1855
X1.8388 Y3.1907
X1.839 Y3.191
X1.8437 Y3.1966
X1.8439 Y3.1968
X1.8491 Y3.2028
X1.8493 Y3.203
X1.8551 Y3.2093
X1.8553 Y3.2095
X1.8615 Y3.2162
X1.8617 Y3.2164
X1.8685 Y3.2235
X1.8687 Y3.2236
X1.8761 Y3.2312
X1.8762 Y3.2313
X1.8842 Y3.2394
X1.8843 Y3.2395
X1.8929 Y3.2479
X1.893 Y3.248
X1.9021 Y3.2568
Y3.2569
X1.9117 Y3.2661
X1.9118
X1.9217 Y3.2756
X1.9218 Y3.2757
X1.9321 Y3.2853
X1.9322 Y3.2854
X1.9429 Y3.2953
Y3.2954
X1.9539 Y3.3054
X1.954 Y3.3055
X1.9652 Y3.3157
X1.9767 Y3.326
Y3.3261
X1.9883 Y3.3364
X1.9884
X2.0001 Y3.3467
Y3.3468
X2.0119 Y3.3571
X2.012
X2.0238 Y3.3673
X2.0239 Y3.3674
X2.0356 Y3.3774
X2.0357 Y3.3775
X2.0474 Y3.3873
X2.0475 Y3.3874
X2.0591 Y3.397
X2.0592 Y3.3971
X2.0707 Y3.4065
X2.0708 Y3.4066
X2.0821 Y3.4156
X2.0822 Y3.4157
X2.0933 Y3.4245
X2.0934 Y3.4246
X2.1042 Y3.4329
X2.1044 Y3.433
X2.1148 Y3.441
X2.115 Y3.4411
X2.1251 Y3.4485
X2.1253 Y3.4487
X2.135 Y3.4556
X2.1352 Y3.4558
X2.1445 Y3.4622
X2.1447 Y3.4624
X2.1535 Y3.4682
X2.1539 Y3.4684
X2.1623 Y3.4738
X2.1627 Y3.474
X2.1708 Y3.4788
X2.1713 Y3.4791
X2.1792 Y3.4835
X2.1798 Y3.4838
X2.1874 Y3.4876
X2.1881 Y3.488
X2.1956 Y3.4913
X2.1964 Y3.4917
X2.2038 Y3.4946
X2.2047 Y3.4949
X2.212 Y3.4974
X2.213 Y3.4977
X2.2203 Y3.4998
X2.2213 Y3.5
X2.2288 Y3.5017
X2.2298 Y3.5019
X2.2374 Y3.5032
X2.2383 Y3.5033
X2.2461 Y3.5042
X2.247 Y3.5043
X2.2551 Y3.5049
X2.2559
X2.2643 Y3.5051
X2.265
X2.2738 Y3.505
X2.2744
X2.2836 Y3.5046
X2.2842
X2.2939 Y3.5039
X2.2943 Y3.5038
X2.3046 Y3.5029
X2.3049 Y3.5028
X2.3158 Y3.5016
X2.3161 Y3.5015
X2.3277 Y3.5
X2.3279
X2.3402 Y3.4982
X2.3403
X2.3533 Y3.4962
X2.3535
X2.3673 Y3.4939
X2.3674
X2.382 Y3.4915
X2.3821
X2.3975 Y3.4888
X2.4137 Y3.486
X2.4307 Y3.483
X2.4484 Y3.4799
X2.4667 Y3.4766
X2.4857 Y3.4733
X2.5053 Y3.4699
X2.5255 Y3.4664
X2.5462 Y3.4628
X2.5675 Y3.4593
X2.5892 Y3.4557
X2.6114 Y3.4522
X2.6341 Y3.4487
X2.6571 Y3.4452
X2.6806 Y3.4418
X2.7043 Y3.4385
X2.7284 Y3.4352
X2.7528 Y3.4321
X2.7774 Y3.4292
X2.8023 Y3.4264
X2.8273 Y3.4238
X2.8525 Y3.4214
X2.8779 Y3.4192
X2.9033 Y3.4172
X2.9289 Y3.4154
X2.9544 Y3.4139
X2.9799 Y3.4126
X3.0052 Y3.4115
X3.0305 Y3.4106
X3.0556 Y3.4099
X3.0804 Y3.4094
X3.1049 Y3.409
X3.1291 Y3.4089
X3.1529
X3.1763 Y3.4091
X3.1992 Y3.4095
X3.2215 Y3.41
X3.2433 Y3.4106
X3.2644 Y3.4114
X3.2848 Y3.4123
X3.3045 Y3.4134
X3.3234 Y3.4146
X3.3415 Y3.4159
X3.3586 Y3.4173
X3.3748 Y3.4188
X3.39 Y3.4204
X3.4042 Y3.4221
X3.4172 Y3.4239
X3.4292 Y3.4257
X3.4402 Y3.4277
X3.4503 Y3.4297
X3.4593 Y3.4318
X3.4675 Y3.4341
X3.4748 Y3.4364
X3.4813 Y3.4388
X3.487 Y3.4413
X3.4919 Y3.4438
X3.4962 Y3.4465
X3.4999 Y3.4491
X3.5032 Y3.4519
X3.506 Y3.4548
X3.5085 Y3.4578
X3.5106 Y3.4609
X3.5125 Y3.4642
X3.5143 Y3.4677
X3.5158 Y3.4715
X3.5173 Y3.4756
X3.5186 Y3.48
X3.5199 Y3.4847
X3.5212 Y3.4897
X3.5225 Y3.495
X3.5239 Y3.5005
X3.5254 Y3.5062
X3.5268 Y3.5121
X3.5269 Y3.5122
X3.5284 Y3.5182
X3.53 Y3.5244
Y3.5245
X3.5317 Y3.5307
Y3.5308
X3.5334 Y3.5371
Y3.5372
X3.5351 Y3.5436
X3.5352 Y3.5437
X3.537 Y3.5502
Y3.5503
X3.5388 Y3.5568
Y3.5569
X3.5407 Y3.5634
X3.5408 Y3.5635
X3.5427 Y3.57
Y3.5702
X3.5447 Y3.5766
Y3.5768
X3.5467 Y3.5831
X3.5468 Y3.5833
X3.5488 Y3.5896
X3.5489 Y3.5898
X3.551 Y3.596
Y3.5962
X3.5531 Y3.6023
X3.5532 Y3.6026
X3.5554 Y3.6085
Y3.6088
X3.5576 Y3.6146
X3.5577 Y3.6148
X3.5599 Y3.6205
X3.56 Y3.6207
X3.5623 Y3.6262
X3.5624 Y3.6265
X3.5647 Y3.6317
X3.5649 Y3.6321
X3.5671 Y3.637
X3.5673 Y3.6375
X3.5697 Y3.6422
X3.5699 Y3.6426
X3.5722 Y3.647
X3.5725 Y3.6475
X3.5748 Y3.6516
X3.5751 Y3.6521
X3.5774 Y3.656
X3.5777 Y3.6565
X3.5801 Y3.6601
X3.5804 Y3.6606
X3.5828 Y3.664
X3.5831 Y3.6645
X3.5855 Y3.6677
X3.5859 Y3.6683
X3.5883 Y3.6712
X3.5887 Y3.6718
X3.5911 Y3.6745
X3.5916 Y3.675
X3.594 Y3.6775
X3.5945 Y3.6781
X3.5969 Y3.6804
X3.5975 Y3.681
X3.5998 Y3.6831
X3.6005 Y3.6837
X3.6029 Y3.6856
X3.6035 Y3.6861
X3.6059 Y3.6879
X3.6066 Y3.6884
X3.6089 Y3.69
X3.6097 Y3.6905
X3.612 Y3.6919
X3.6128 Y3.6924
X3.6152 Y3.6937
X3.6159 Y3.6941
X3.6183 Y3.6952
X3.619 Y3.6956
X3.6214 Y3.6967
X3.6222 Y3.697
X3.6245 Y3.6979
X3.6252 Y3.6981
X3.6276 Y3.699
X3.6283 Y3.6992
X3.6307 Y3.6999
X3.6313 Y3.7001
X3.6337 Y3.7007
X3.6343 Y3.7009
X3.6367 Y3.7014
X3.6372 Y3.7015
X3.6396 Y3.702
X3.6402 Y3.7021
X3.6424 Y3.7024
X3.643 Y3.7025
X3.6452 Y3.7028
X3.6459 Y3.7029
X3.6481 Y3.7031
X3.6487
X3.6509 Y3.7033
X3.6515
X3.6538 Y3.7034
X3.6543
X3.6565
X3.6572
X3.6594 Y3.7033
X3.6599
X3.6621 Y3.7031
X3.6627
X3.6649 Y3.7029
X3.6654 Y3.7028
X3.6676 Y3.7025
X3.6682 Y3.7024
X3.6703 Y3.7021
X3.6708 Y3.702
X3.673 Y3.7016
X3.6735 Y3.7015
X3.6757 Y3.701
X3.6762 Y3.7009
X3.6783 Y3.7004
X3.6788 Y3.7003
X3.6809 Y3.6997
X3.6814 Y3.6995
X3.6836 Y3.6989
X3.684 Y3.6987
X3.6861 Y3.698
X3.6865 Y3.6979
X3.6887 Y3.6971
X3.6891 Y3.6969
X3.6912 Y3.6961
X3.6916 Y3.696
X3.6937 Y3.6951
X3.6941 Y3.6949
X3.6962 Y3.694
X3.6966 Y3.6938
X3.6987 Y3.6929
X3.699 Y3.6927
X3.7011 Y3.6917
X3.7014 Y3.6915
X3.7035 Y3.6904
X3.7039 Y3.6902
X3.7059 Y3.6892
X3.706 Y3.6891
X3.7079 Y3.688
X3.7083 Y3.6878
X3.7102 Y3.6868
X3.7105 Y3.6866
X3.7124 Y3.6854
X3.7128 Y3.6851
X3.7147 Y3.6839
X3.7152 Y3.6836
X3.717 Y3.6823
X3.7175 Y3.6819
X3.7194 Y3.6805
X3.7199 Y3.6801
X3.7218 Y3.6786
X3.7223 Y3.6782
X3.7243 Y3.6766
X3.7247 Y3.6761
X3.7267 Y3.6743
X3.7272 Y3.6739
X3.7292 Y3.6719
X3.7296 Y3.6715
X3.7317 Y3.6693
X3.7321 Y3.6689
X3.7342 Y3.6665
X3.7345 Y3.6661
X3.7367 Y3.6635
X3.737 Y3.6631
X3.7393 Y3.6603
X3.7395 Y3.66
X3.7419 Y3.6569
X3.7421 Y3.6565
X3.7445 Y3.6532
X3.7447 Y3.6529
X3.7472 Y3.6493
X3.7474 Y3.649
X3.75 Y3.6451
X3.7502 Y3.6448
X3.7529 Y3.6406
X3.7531 Y3.6404
X3.7559 Y3.6358
X3.756 Y3.6356
X3.7589 Y3.6307
X3.7591 Y3.6305
X3.7621 Y3.6252
X3.7622 Y3.625
X3.7654 Y3.6194
X3.7655 Y3.6191
X3.7688 Y3.6131
X3.7689 Y3.613
X3.7723 Y3.6065
X3.7724 Y3.6064
X3.7759 Y3.5995
X3.776 Y3.5994
X3.7797 Y3.5921
Y3.592
X3.7841 Y3.5832
X3.7842 Y3.583
X3.7887 Y3.5737
Y3.5736
X3.7934 Y3.5637
Y3.5636
X3.7982 Y3.5533
X3.7983 Y3.5532
X3.8031 Y3.5425
X3.8032 Y3.5424
X3.8081 Y3.5313
X3.8082 Y3.5312
X3.8132 Y3.5197
Y3.5196
X3.8183 Y3.5079
Y3.5078
X3.8234 Y3.4958
X3.8235 Y3.4956
X3.8285 Y3.4834
X3.8286 Y3.4833
X3.8336 Y3.4708
X3.8337 Y3.4707
X3.8387 Y3.4581
X3.8388 Y3.4579
X3.8437 Y3.4452
X3.8438 Y3.4451
X3.8487 Y3.4322
Y3.4321
X3.8535 Y3.4192
X3.8536 Y3.419
X3.8582 Y3.4061
X3.8583 Y3.406
X3.8628 Y3.3931
X3.8629 Y3.3929
X3.8673 Y3.3801
Y3.3799
X3.8716 Y3.3672
Y3.367
X3.8757 Y3.3544
Y3.3542
X3.8795 Y3.3417
X3.8796 Y3.3415
X3.8832 Y3.3293
X3.8833 Y3.329
X3.8866 Y3.317
X3.8867 Y3.3168
X3.8897 Y3.3051
X3.8898 Y3.3047
X3.8926 Y3.2933
X3.8927 Y3.293
X3.8952 Y3.2819
Y3.2816
X3.8975 Y3.2707
X3.8976 Y3.2704
X3.8996 Y3.2597
X3.8997 Y3.2594
X3.9015 Y3.2489
X3.9016 Y3.2486
X3.9032 Y3.2383
X3.9033 Y3.2381
X3.9047 Y3.2279
X3.9048 Y3.2277
X3.9061 Y3.2176
Y3.2174
X3.9073 Y3.2075
X3.9074 Y3.2073
X3.9085 Y3.1975
Y3.1973
X3.9095 Y3.1875
Y3.1874
X3.9104 Y3.1776
Y3.1775
X3.9113 Y3.1677
Y3.1676
X3.9121 Y3.1578
X3.913 Y3.148
X3.9138 Y3.1381
X3.9147 Y3.1281
X3.9156 Y3.1181
X3.9165 Y3.1079
X3.9175 Y3.0976
X3.9186 Y3.0871
X3.9199 Y3.0765
X3.9213 Y3.0656
X3.9228 Y3.0544
X3.9245 Y3.043
X3.9263 Y3.0314
X3.9284 Y3.0195
X3.9306 Y3.0075
X3.933 Y2.9953
X3.9356 Y2.9829
X3.9384 Y2.9705
X3.9414 Y2.9579
X3.9446 Y2.9453
X3.948 Y2.9327
X3.9516 Y2.9201
X3.9554 Y2.9075
X3.9595 Y2.8949
X3.9637 Y2.8825
X3.9681 Y2.8701
X3.9728 Y2.8579
X3.9777 Y2.8458
X3.9829 Y2.8339
X3.9882 Y2.8222
X3.9937 Y2.8108
X3.9996 Y2.7997
X4.0056 Y2.7888
X4.0119 Y2.7782
X4.0184 Y2.768
X4.0251 Y2.7582
X4.0321 Y2.7487
X4.0393 Y2.7395
X4.0466 Y2.7307
X4.0542 Y2.7223
X4.0619 Y2.7141
X4.0697 Y2.7064
X4.0777 Y2.6989
X4.0858 Y2.6917
X4.094 Y2.6849
X4.1022 Y2.6784
X4.1105 Y2.6723
X4.1189 Y2.6664
X4.1272 Y2.6608
X4.1356 Y2.6556
X4.1439 Y2.6506
X4.1522 Y2.646
X4.1604 Y2.6416
X4.1686 Y2.6375
X4.1767 Y2.6338
X4.1846 Y2.6303
X4.1925 Y2.6271
X4.2001 Y2.6242
X4.2077 Y2.6215
X4.215 Y2.6192
X4.2221 Y2.617
X4.2291 Y2.6151
X4.2359 Y2.6134
X4.2426 Y2.6119
X4.249 Y2.6106
X4.2553 Y2.6094
X4.2615 Y2.6083
X4.2675 Y2.6074
X4.2734 Y2.6066
X4.2791 Y2.6058
X4.2847 Y2.6051
X4.2901 Y2.6045
X4.2954 Y2.6039
X4.3006 Y2.6033
X4.3007
X4.3056 Y2.6027
X4.3058
X4.3105 Y2.6021
X4.3108 Y2.602
X4.3154 Y2.6014
X4.3157 Y2.6013
X4.3201 Y2.6006
X4.3206 Y2.6005
X4.3248 Y2.5997
X4.3254 Y2.5996
X4.3294 Y2.5987
X4.33 Y2.5986
X4.3339 Y2.5976
X4.3347 Y2.5974
X4.3384 Y2.5962
X4.3393 Y2.5959
X4.3428 Y2.5946
X4.3439 Y2.5942
X4.3472 Y2.5928
X4.3481 Y2.5923
X4.3514 Y2.5907
X4.3523 Y2.5902
X4.3555 Y2.5884
X4.3563 Y2.5878
X4.3594 Y2.5858
X4.36 Y2.5854
X4.3631 Y2.5832
X4.3636 Y2.5829
X4.3666 Y2.5806
X4.3672 Y2.5801
X4.3702 Y2.5777
