(1001)
(T1  D=0.0312 CR=0. - ZMIN=0. - FLAT END MILL)
G0 G90 G94 G17
G20
G53 G0 Z0.

(2D CONTOUR5)
M5
T1
S12000 M3
G4 P4.
G55
M8
G0 X2.9305 Y2.549
Z0.6625
Z0.2625
G1 Z0.1319 F1.8
Z0.0356
X2.9306 Y2.5488 Z0.0344 F14.2
Y2.5481 Z0.0334
Y2.5471 Z0.0327
Y2.5459 Z0.0325
Y2.5428
X2.9309 Y2.5416
X2.9316 Y2.5406
X2.9326 Y2.5399
X2.9338 Y2.5397
X2.9396
X2.9454 Y2.5399
X2.9507 Y2.5402
X2.9557 Y2.5406
X2.9604 Y2.541
X2.9648 Y2.5416
X2.9691 Y2.5423
X2.9733 Y2.5432
X2.9776 Y2.5441
X2.982 Y2.5452
X2.9865 Y2.5464
X2.9912 Y2.5477
X2.9962 Y2.5492
X3.0015 Y2.5507
X3.007 Y2.5523
X3.0071
X3.0129 Y2.554
X3.013
X3.0191 Y2.5557
X3.0193 Y2.5558
X3.0258 Y2.5575
X3.026
X3.0329 Y2.5592
X3.0331 Y2.5593
X3.0404 Y2.561
X3.0407 Y2.5611
X3.0485 Y2.5628
X3.0488
X3.0571 Y2.5645
X3.0574 Y2.5646
X3.0663 Y2.5662
X3.0666
X3.0761 Y2.5678
X3.0764 Y2.5679
X3.0866 Y2.5694
X3.0869
X3.0978 Y2.5709
X3.0981
X3.1097 Y2.5723
X3.11
X3.1224 Y2.5735
X3.1226 Y2.5736
X3.1358 Y2.5747
X3.1361
X3.1502 Y2.5757
X3.1504
X3.1654 Y2.5766
X3.1657
X3.1816 Y2.5773
X3.1819
X3.1988 Y2.5779
X3.199
X3.217 Y2.5783
X3.2172
X3.2361 Y2.5785
X3.2362
X3.256 Y2.5786
X3.2561
X3.2766
X3.2767
X3.2979 Y2.5785
X3.3198 Y2.5784
X3.3422 Y2.5783
X3.365 Y2.5782
X3.3882 Y2.5781
X3.4116
X3.4353 Y2.5782
X3.459 Y2.5785
X3.4827 Y2.5789
X3.5063 Y2.5796
X3.5298 Y2.5804
X3.5531 Y2.5815
X3.576 Y2.5829
X3.5985 Y2.5845
X3.6205 Y2.5865
X3.6419 Y2.5889
X3.6626 Y2.5917
X3.6826 Y2.5948
X3.7017 Y2.5984
X3.7199 Y2.6024
X3.737 Y2.607
X3.7532 Y2.612
X3.7686 Y2.6174
X3.7832 Y2.6233
X3.797 Y2.6296
X3.8103 Y2.6363
X3.8229 Y2.6434
X3.8351 Y2.6508
X3.8468 Y2.6586
X3.8582 Y2.6668
X3.8693 Y2.6753
X3.8802 Y2.6841
X3.891 Y2.6932
X3.9016 Y2.7026
X3.9123 Y2.7122
X3.9229 Y2.7221
X3.9337 Y2.7323
X3.9446 Y2.7426
Y2.7427
X3.9557 Y2.7532
X3.9558
X3.9671 Y2.7638
X3.9672 Y2.7639
X3.9788 Y2.7746
X3.979 Y2.7748
X3.991 Y2.7856
X3.9912 Y2.7858
X4.0037 Y2.7966
X4.0039 Y2.7968
X4.0168 Y2.8077
X4.0171 Y2.808
X4.0307 Y2.8189
X4.0309 Y2.8191
X4.045 Y2.8301
X4.0452 Y2.8303
X4.0598 Y2.8413
X4.06 Y2.8414
X4.075 Y2.8524
X4.0753 Y2.8525
X4.0907 Y2.8634
X4.0909 Y2.8635
X4.1065 Y2.8743
X4.1068 Y2.8744
X4.1227 Y2.885
X4.1229 Y2.8851
X4.139 Y2.8955
X4.1392 Y2.8957
X4.1555 Y2.9059
X4.1557 Y2.906
X4.172 Y2.916
X4.1722 Y2.9161
X4.1886 Y2.9257
X4.1888 Y2.9259
X4.205 Y2.9352
X4.2053 Y2.9354
X4.2214 Y2.9444
X4.2216 Y2.9445
X4.2376 Y2.9531
X4.2379 Y2.9532
X4.2537 Y2.9615
X4.2539 Y2.9616
X4.2694 Y2.9693
X4.2697 Y2.9695
X4.2848 Y2.9768
X4.2851 Y2.9769
X4.2999 Y2.9837
X4.3002 Y2.9838
X4.3144 Y2.99
X4.3148 Y2.9902
X4.3285 Y2.9958
X4.329 Y2.996
X4.3421 Y3.001
X4.3426 Y3.0011
X4.355 Y3.0055
X4.3556 Y3.0057
X4.3674 Y3.0093
X4.3681 Y3.0096
X4.379 Y3.0125
X4.3798 Y3.0127
X4.3899 Y3.0149
X4.3908 Y3.0151
X4.3999 Y3.0166
X4.401 Y3.0168
X4.4093 Y3.0177
X4.4106 Y3.0178
X4.4181 Y3.018
X4.4195
X4.4263 Y3.0178
X4.4279 Y3.0177
X4.4339 Y3.0169
X4.4356 Y3.0166
X4.441 Y3.0154
X4.443 Y3.0149
X4.4477 Y3.0133
X4.4497 Y3.0125
X4.4538 Y3.0105
X4.4558 Y3.0095
X4.4594 Y3.0072
X4.4613 Y3.0059
X4.4644 Y3.0033
X4.466 Y3.0018
X4.4688 Y2.999
X4.4703 Y2.9973
X4.4727 Y2.9941
X4.4738 Y2.9924
X4.4759 Y2.9889
X4.4768 Y2.9873
X4.4786 Y2.9835
X4.4792 Y2.982
X4.4807 Y2.978
X4.4811 Y2.9768
X4.4823 Y2.9725
X4.4827 Y2.9711
X4.4837 Y2.9667
X4.4838 Y2.9658
X4.4846 Y2.9611
X4.4847 Y2.96
X4.4852 Y2.9552
Y2.9546
X4.4856 Y2.9497
Y2.9488
X4.4857 Y2.9438
Y2.9432
X4.4856 Y2.9381
Y2.9374
X4.4853 Y2.9323
Y2.9319
X4.4849 Y2.9268
X4.4848 Y2.9262
X4.4843 Y2.9212
X4.4842 Y2.9209
X4.4836 Y2.9159
X4.4835 Y2.9153
X4.4827 Y2.9103
Y2.9102
X4.4819 Y2.9053
X4.4818 Y2.9048
X4.4809 Y2.8999
X4.4808 Y2.8998
X4.4798 Y2.8949
Y2.8946
X4.4787 Y2.8897
Y2.8896
X4.4776 Y2.8847
X4.4775 Y2.8846
X4.4764 Y2.8797
X4.4753 Y2.8748
X4.4752 Y2.8747
X4.4741 Y2.8699
X4.4729 Y2.8651
X4.4718 Y2.8602
X4.4707 Y2.8554
X4.4697 Y2.8506
X4.4687 Y2.8458
X4.4678 Y2.8411
X4.4669 Y2.8362
X4.4661 Y2.8314
X4.4655 Y2.8266
X4.465 Y2.8217
X4.4645 Y2.8168
X4.4642 Y2.8118
X4.464 Y2.8068
X4.4639 Y2.8017
X4.464 Y2.7965
X4.4642 Y2.7913
X4.4645 Y2.786
X4.4649 Y2.7806
X4.4655 Y2.7752
X4.4661 Y2.7697
X4.4668 Y2.764
X4.4677 Y2.7584
X4.4686 Y2.7527
X4.4696 Y2.7468
X4.4707 Y2.7409
X4.4718 Y2.735
X4.473 Y2.729
X4.4743 Y2.7229
X4.4757 Y2.7167
X4.477 Y2.7105
X4.4784 Y2.7042
X4.4799 Y2.6978
X4.4813 Y2.6914
X4.4828 Y2.6849
X4.4843 Y2.6783
X4.4859 Y2.6717
X4.4871 Y2.6664
X4.4884 Y2.6612
X4.4897 Y2.6559
X4.4912 Y2.6507
X4.4928 Y2.6455
X4.4946 Y2.6403
X4.4966 Y2.6351
X4.4989 Y2.6299
X4.5015 Y2.6248
X4.5044 Y2.6195
X4.5077 Y2.6144
X4.5114 Y2.6091
X4.5156 Y2.6038
X4.5203 Y2.5986
X4.5256 Y2.5932
X4.5315 Y2.5879
X4.5381 Y2.5825
X4.5454 Y2.5771
X4.5535 Y2.5717
X4.5624 Y2.5662
X4.5723 Y2.5607
X4.583 Y2.5553
X4.5946 Y2.5498
X4.6075 Y2.5442
G2 X4.6188 Y2.527 I-0.0075 J-0.0172
G1 Y2.
G2 X4.6 Y1.9812 I-0.0188 J0.
G1 X4.5594
X4.5191
X4.4791
X4.4394
X4.4
X4.3609
X4.3222 Y1.9811
X4.2837
X4.2457
X4.2079
X4.1705
X4.1335
X4.0968
X4.0605
X4.0245
X3.9889
X3.9537 Y1.981
X3.9189
X3.8845
X3.8505
X3.8169
X3.7837
X3.7509
X3.7185
X3.5278
X3.3528 Y1.9811
X3.1927 Y1.9812
X3.0469 Y1.9813
X2.9147 Y1.9814
X2.7955 Y1.9815
X2.6885 Y1.9817
X2.593 Y1.9819
X2.5085 Y1.9821
X2.4342 Y1.9823
X2.3693 Y1.9825
X2.3134 Y1.9827
X2.2655 Y1.983
X2.2252 Y1.9832
X2.1916 Y1.9834
X2.1642 Y1.9837
X2.1422 Y1.9839
X2.1249 Y1.9841
X2.1118 Y1.9844
X2.1117
X2.102 Y1.9846
X2.1019
X2.0949 Y1.9848
X2.0947
X2.0897 Y1.985
X2.0895
X2.0859 Y1.9851
X2.0858
X2.0828 Y1.9853
X2.0799 Y1.9854
X2.0769 Y1.9855
X2.074 Y1.9856
X2.071 Y1.9857
X2.068 Y1.9858
X2.065 Y1.9859
X2.0619 Y1.986
X2.0588
X2.0557 Y1.9861
X2.0525 Y1.9862
X2.0494 Y1.9863
X2.0462
X2.0461
X2.0429 Y1.9864
X2.0428
X2.0396 Y1.9865
X2.0363 Y1.9867
X2.0362
X2.033 Y1.9868
X2.0329
X2.0296 Y1.987
X2.0295
X2.0262 Y1.9872
X2.0261
X2.0228 Y1.9874
X2.0226
X2.0193 Y1.9876
X2.0191
X2.0158 Y1.9879
X2.0156
X2.0122 Y1.9882
X2.012
X2.0086 Y1.9886
X2.0084
X2.005 Y1.989
X2.0048
X2.0013 Y1.9894
X2.0011
X1.9976 Y1.9899
X1.9974
X1.9939 Y1.9905
X1.9936
X1.9901 Y1.9911
X1.9899
X1.9864 Y1.9918
X1.9861
X1.9827 Y1.9925
X1.9824
X1.979 Y1.9933
X1.9786
X1.9753 Y1.9941
X1.9749 Y1.9942
X1.9716 Y1.9951
X1.9713
X1.968 Y1.996
X1.9676 Y1.9961
X1.9644 Y1.9971
X1.964 Y1.9972
X1.9608 Y1.9982
X1.9604 Y1.9983
X1.9573 Y1.9994
X1.9569 Y1.9996
X1.9539 Y2.0007
X1.9534 Y2.0009
X1.9505 Y2.002
X1.95 Y2.0022
X1.9471 Y2.0035
X1.9466 Y2.0037
X1.9439 Y2.005
X1.9433 Y2.0053
X1.9407 Y2.0066
X1.9401 Y2.007
X1.9376 Y2.0084
X1.9369 Y2.0088
X1.9345 Y2.0103
X1.9338 Y2.0107
X1.9316 Y2.0123
X1.9308 Y2.0128
X1.9287 Y2.0144
X1.9279 Y2.0151
X1.926 Y2.0167
X1.9251 Y2.0175
X1.9234 Y2.0192
X1.9225 Y2.0201
X1.9209 Y2.0219
X1.9202 Y2.0228
X1.9186 Y2.0247
X1.918 Y2.0256
X1.9166 Y2.0276
X1.916 Y2.0285
X1.9147 Y2.0305
X1.9142 Y2.0315
X1.913 Y2.0336
X1.9125 Y2.0345
X1.9115 Y2.0367
X1.9111 Y2.0376
X1.9102 Y2.0399
X1.9098 Y2.0408
X1.909 Y2.0431
X1.9087 Y2.044
X1.908 Y2.0464
X1.9078 Y2.0472
X1.9072 Y2.0496
X1.907 Y2.0505
X1.9065 Y2.0529
X1.9063 Y2.0538
X1.906 Y2.0563
X1.9059 Y2.0571
X1.9056 Y2.0596
X1.9055 Y2.0604
X1.9054 Y2.0629
X1.9053 Y2.0637
Y2.0662
Y2.0671
X1.9054 Y2.0696
Y2.0704
X1.9056 Y2.0729
X1.9057 Y2.0737
X1.9059 Y2.0762
X1.9061 Y2.077
X1.9064 Y2.0795
X1.9066 Y2.0802
X1.9071 Y2.0827
X1.9073 Y2.0836
X1.9079 Y2.086
X1.9081 Y2.0868
X1.9088 Y2.0892
X1.909 Y2.0899
X1.9098 Y2.0923
X1.9102 Y2.0932
X1.9111 Y2.0954
X1.9114 Y2.0962
X1.9124 Y2.0985
X1.9128 Y2.0993
X1.9139 Y2.1015
X1.9143 Y2.1022
X1.9156 Y2.1044
X1.916 Y2.1051
X1.9173 Y2.1072
X1.9178 Y2.1079
X1.9192 Y2.1099
X1.9197 Y2.1106
X1.9212 Y2.1126
X1.9217 Y2.1132
X1.9233 Y2.1152
X1.9238 Y2.1158
X1.9255 Y2.1177
X1.926 Y2.1182
X1.9279 Y2.1201
X1.9284 Y2.1206
X1.9303 Y2.1225
X1.9308 Y2.1229
X1.9328 Y2.1247
X1.9333 Y2.1252
X1.9354 Y2.1269
X1.9359 Y2.1273
X1.9381 Y2.129
X1.9386 Y2.1294
X1.9409 Y2.131
X1.9414 Y2.1314
X1.9438 Y2.133
X1.9443 Y2.1333
X1.9468 Y2.1349
X1.9472 Y2.1352
X1.9498 Y2.1367
X1.9503 Y2.1369
X1.9529 Y2.1384
X1.9534 Y2.1387
X1.9561 Y2.1401
X1.9566 Y2.1403
X1.9594 Y2.1417
X1.9598 Y2.1419
X1.9628 Y2.1432
X1.9632 Y2.1434
X1.9662 Y2.1447
X1.9666 Y2.1448
X1.9697 Y2.1461
X1.9701 Y2.1462
X1.9732 Y2.1474
X1.9736 Y2.1476
X1.9769 Y2.1487
X1.9772 Y2.1488
X1.9805 Y2.1499
X1.9809 Y2.15
X1.9842 Y2.1511
X1.9845 Y2.1512
X1.988 Y2.1522
X1.9883 Y2.1523
X1.9918 Y2.1532
X1.992 Y2.1533
X1.9955 Y2.1542
X1.9957
X1.9993 Y2.1551
X1.9995 Y2.1552
X2.003 Y2.156
X2.0032
X2.0068 Y2.1568
X2.0069 Y2.1569
X2.0104 Y2.1576
X2.0106 Y2.1577
X2.0141 Y2.1584
X2.0143
X2.0177 Y2.1591
X2.0179
X2.0213 Y2.1597
X2.0214
X2.0248 Y2.1603
X2.0249 Y2.1604
X2.0282 Y2.1609
X2.0283
X2.0315 Y2.1615
X2.0316
X2.0348 Y2.162
X2.0349
X2.0379 Y2.1625
X2.038
X2.0409 Y2.1629
X2.041
X2.0438 Y2.1633
X2.0465 Y2.1637
X2.0466
X2.0491 Y2.1641
X2.0515 Y2.1644
X2.0537 Y2.1647
X2.0558 Y2.1649
X2.0577 Y2.1652
X2.0595 Y2.1654
X2.0611 Y2.1657
X2.0627 Y2.1659
X2.0642 Y2.1661
X2.0656 Y2.1663
X2.067 Y2.1664
X2.0671 Y2.1665
X2.0685 Y2.1666
X2.07 Y2.1668
X2.0715 Y2.167
X2.0731 Y2.1673
X2.0748 Y2.1675
X2.0766 Y2.1677
X2.0785 Y2.168
X2.0807 Y2.1683
X2.083 Y2.1686
X2.0856 Y2.169
X2.0883 Y2.1693
X2.0913 Y2.1698
X2.0947 Y2.1702
X2.0982 Y2.1707
X2.1022 Y2.1713
X2.1065 Y2.1718
X2.1088 Y2.1722
X2.1113 Y2.1725
X2.1138 Y2.1729
X2.1164 Y2.1732
X2.1191 Y2.1736
X2.1219 Y2.174
X2.1246 Y2.1744
X2.1274 Y2.1748
X2.1303 Y2.1752
X2.1331 Y2.1756
X2.136 Y2.1761
X2.1388 Y2.1765
X2.1417 Y2.177
X2.1446 Y2.1774
X2.1474 Y2.1779
X2.1502 Y2.1784
X2.153 Y2.1789
X2.1557 Y2.1794
X2.1583 Y2.1799
X2.1609 Y2.1804
X2.1628 Y2.1808
X2.1604 Y2.1812
X2.1528 Y2.1822
X2.1444 Y2.1832
X2.1353 Y2.1842
X2.1256 Y2.1852
X2.1153 Y2.1863
X2.1046 Y2.1873
X2.0934 Y2.1883
X2.082 Y2.1894
X2.0703 Y2.1904
X2.0585 Y2.1915
X2.0467 Y2.1926
X2.0349 Y2.1937
X2.0232 Y2.1948
X2.0118 Y2.1959
X2.0117
X2.0006 Y2.197
X2.0005 Y2.1971
X1.9899 Y2.1982
X1.9897
X1.9796 Y2.1994
X1.9794
X1.9698 Y2.2006
X1.9696
X1.9607 Y2.2018
X1.9604 Y2.2019
X1.9522 Y2.2031
X1.9518 Y2.2032
X1.9445 Y2.2044
X1.9441 Y2.2045
X1.9376 Y2.2057
X1.9371 Y2.2058
X1.9316 Y2.207
X1.931 Y2.2072
X1.9262 Y2.2084
X1.9254 Y2.2086
X1.9213 Y2.2098
X1.9204 Y2.2101
X1.9169 Y2.2113
X1.9159 Y2.2117
X1.9128 Y2.213
X1.9117 Y2.2135
X1.909 Y2.2148
X1.9079 Y2.2154
X1.9055 Y2.2168
X1.9045 Y2.2174
X1.9024 Y2.2188
X1.9016 Y2.2194
X1.8995 Y2.2209
X1.899 Y2.2214
X1.897 Y2.223
X1.8968 Y2.2232
X1.8947 Y2.2249
X1.8927 Y2.2266
X1.8906 Y2.2283
X1.8883 Y2.23
X1.8858 Y2.2318
X1.8829 Y2.2336
X1.8796 Y2.2356
X1.8758 Y2.2376
X1.8714 Y2.2397
X1.8663 Y2.242
X1.8604 Y2.2443
X1.8537 Y2.2467
X1.8461 Y2.2492
X1.8375 Y2.2518
X1.828 Y2.2545
X1.8177 Y2.2572
X1.8067 Y2.2601
X1.795 Y2.263
X1.7828 Y2.2661
X1.7701 Y2.2692
X1.757 Y2.2724
X1.7437 Y2.2757
X1.7436
X1.7301 Y2.2791
X1.73
X1.7163 Y2.2826
X1.7162
X1.7025 Y2.2862
X1.7024 Y2.2863
X1.6887 Y2.29
X1.6885
X1.675 Y2.2938
X1.6748 Y2.2939
X1.6614 Y2.2978
X1.6611
X1.648 Y2.3019
X1.6477 Y2.302
X1.6349 Y2.3061
X1.6346 Y2.3062
X1.6222 Y2.3105
X1.6218 Y2.3107
X1.61 Y2.3151
X1.6095 Y2.3152
X1.5983 Y2.3198
X1.5977 Y2.32
X1.5872 Y2.3246
X1.5866 Y2.3249
X1.5768 Y2.3296
X1.5761 Y2.33
X1.5672 Y2.3347
X1.5663 Y2.3353
X1.5583 Y2.3401
X1.5573 Y2.3408
X1.5504 Y2.3456
X1.5493 Y2.3465
X1.5434 Y2.3513
X1.5422 Y2.3524
X1.5372 Y2.3572
X1.536 Y2.3585
X1.5318 Y2.3634
X1.5306 Y2.365
X1.5273 Y2.3699
X1.5262 Y2.3718
X1.5236 Y2.3766
X1.5227 Y2.3788
X1.5209 Y2.3837
X1.5202 Y2.386
X1.5191 Y2.3909
X1.5187 Y2.3932
X1.5182 Y2.3981
X1.5181 Y2.4003
X1.5182 Y2.4053
X1.5183 Y2.4073
X1.519 Y2.4123
X1.5193 Y2.4144
X1.5206 Y2.4195
X1.5211 Y2.4213
X1.5229 Y2.4265
X1.5236 Y2.428
X1.526 Y2.4333
X1.5267 Y2.4346
X1.5296 Y2.44
X1.5303 Y2.4411
X1.5338 Y2.4465
X1.5345 Y2.4474
X1.5385 Y2.4528
X1.5392 Y2.4537
X1.5437 Y2.459
X1.5444 Y2.4597
X1.5494 Y2.4651
X1.55 Y2.4657
X1.5555 Y2.471
X1.5561 Y2.4716
X1.562 Y2.4768
X1.5626 Y2.4773
X1.5689 Y2.4824
X1.5695 Y2.4828
X1.5762 Y2.4878
X1.5768 Y2.4882
X1.5839 Y2.4931
X1.5845 Y2.4935
X1.5919 Y2.4981
X1.5925 Y2.4985
X1.6003 Y2.503
X1.6009 Y2.5033
X1.6091 Y2.5077
X1.6097 Y2.508
X1.6184 Y2.5121
X1.619 Y2.5124
X1.6281 Y2.5164
X1.6287 Y2.5167
X1.6384 Y2.5206
X1.639 Y2.5208
X1.6493 Y2.5245
X1.6498 Y2.5247
X1.6607 Y2.5282
X1.6613 Y2.5283
X1.6728 Y2.5317
X1.6733 Y2.5318
X1.6856 Y2.535
X1.6861 Y2.5351
X1.6991 Y2.5382
X1.6996 Y2.5383
X1.7134 Y2.5411
X1.7138 Y2.5412
X1.7285 Y2.5439
X1.7289
X1.7445 Y2.5464
X1.7448 Y2.5465
X1.7613 Y2.5488
X1.7616 Y2.5489
X1.7791 Y2.551
X1.7794 Y2.5511
X1.7979 Y2.5531
X1.7982
X1.8178 Y2.5549
X1.818
X1.8387 Y2.5566
X1.8389
X1.8608 Y2.5581
X1.861
X1.884 Y2.5594
X1.8842
X1.9085 Y2.5605
X1.9086
X1.9342 Y2.5615
X1.9344
X1.9612 Y2.5622
X1.9614
X1.9896 Y2.5628
X1.9897
X2.0192 Y2.5633
X2.0193
X2.0499 Y2.5635
X2.05
X2.0816 Y2.5636
X2.1141
X2.1473 Y2.5635
X2.1811 Y2.5632
X2.2154 Y2.5628
X2.25 Y2.5623
X2.2848 Y2.5617
X2.2849
X2.3198 Y2.561
X2.3547 Y2.5602
X2.3894 Y2.5594
X2.4239 Y2.5585
X2.4579 Y2.5576
X2.4914 Y2.5566
X2.5242 Y2.5555
X2.5562 Y2.5545
X2.5873 Y2.5534
X2.6174 Y2.5524
X2.6463 Y2.5513
X2.6739 Y2.5502
X2.7001 Y2.5492
X2.7247 Y2.5482
X2.7476 Y2.5472
X2.769 Y2.5462
X2.7888 Y2.5453
X2.8072 Y2.5445
X2.8241 Y2.5437
X2.8398 Y2.543
X2.8542 Y2.5423
X2.8675 Y2.5417
X2.8796 Y2.5411
X2.8907 Y2.5407
X2.9009 Y2.5403
X2.9101 Y2.54
X2.9185 Y2.5398
X2.9262 Y2.5397
X2.9332
X2.9338
X2.9348 Y2.5395
X2.9356 Y2.5389
X2.9362 Y2.5381
X2.9367 Y2.5373
X2.9375 Y2.5368
X2.9385 Y2.5366
X2.9396
X2.9455 Y2.5368
X2.9509 Y2.5371
X2.956 Y2.5375
X2.9607 Y2.5379
X2.9653 Y2.5385
X2.9696 Y2.5393
X2.974 Y2.5401
X2.9783 Y2.5411
X2.9827 Y2.5422
X2.9873 Y2.5434
X2.9921 Y2.5447
X2.9971 Y2.5462
X3.0023 Y2.5477
X3.0079 Y2.5493
X3.0137 Y2.551
X3.0138
X3.0199 Y2.5527
X3.0201
X3.0266 Y2.5544
X3.0268 Y2.5545
X3.0336 Y2.5562
X3.0338 Y2.5563
X3.0411 Y2.558
X3.0414
X3.0492 Y2.5597
X3.0494 Y2.5598
X3.0577 Y2.5614
X3.058 Y2.5615
X3.0669 Y2.5631
X3.0671 Y2.5632
X3.0766 Y2.5647
X3.0769 Y2.5648
X3.0871 Y2.5663
X3.0873
X3.0982 Y2.5678
X3.0984
X3.11 Y2.5691
X3.1103 Y2.5692
X3.1227 Y2.5704
X3.1229
X3.1361 Y2.5716
X3.1363
X3.1504 Y2.5726
X3.1506
X3.1656 Y2.5735
X3.1658
X3.1818 Y2.5742
X3.182
X3.1989 Y2.5748
X3.1991
X3.217 Y2.5751
X3.2172
X3.2361 Y2.5754
X3.2362
X3.256
X3.2561
X3.2766
X3.2767
X3.2979
X3.3198 Y2.5753
X3.3422 Y2.5751
X3.365 Y2.575
X3.3882
X3.4117
X3.4353 Y2.5751
X3.459 Y2.5754
X3.4827 Y2.5758
X3.5064 Y2.5764
X3.5299 Y2.5773
X3.5532 Y2.5784
X3.5762 Y2.5797
X3.5988 Y2.5814
X3.6208 Y2.5834
X3.6423 Y2.5858
X3.6631 Y2.5886
X3.6831 Y2.5917
X3.7023 Y2.5953
X3.7206 Y2.5994
X3.7379 Y2.604
X3.7542 Y2.609
X3.7697 Y2.6145
X3.7844 Y2.6204
X3.7984 Y2.6268
X3.8117 Y2.6335
X3.8245 Y2.6407
X3.8368 Y2.6482
X3.8486 Y2.6561
X3.8601 Y2.6643
X3.8713 Y2.6728
X3.8822 Y2.6816
X3.893 Y2.6908
X3.9037 Y2.7002
X3.9144 Y2.7099
X3.9251 Y2.7199
X3.9358 Y2.73
X3.9467 Y2.7404
X3.9578 Y2.7509
X3.9579
X3.9692 Y2.7616
X3.9693
X3.9809 Y2.7723
X3.9811 Y2.7725
X3.9931 Y2.7833
X3.9933 Y2.7834
X4.0057 Y2.7943
X4.0059 Y2.7944
X4.0188 Y2.8053
X4.0191 Y2.8055
X4.0326 Y2.8165
X4.0328 Y2.8166
X4.0469 Y2.8276
X4.0471 Y2.8278
X4.0617 Y2.8388
X4.0619 Y2.8389
X4.0769 Y2.8498
X4.0771 Y2.85
X4.0925 Y2.8608
X4.0926 Y2.8609
X4.1083 Y2.8717
X4.1085 Y2.8718
X4.1244 Y2.8824
X4.1246 Y2.8825
X4.1407 Y2.8929
X4.1409 Y2.893
X4.1571 Y2.9032
X4.1573 Y2.9033
X4.1736 Y2.9133
X4.1738 Y2.9134
X4.1901 Y2.9231
X4.1903 Y2.9232
X4.2066 Y2.9325
X4.2068 Y2.9326
X4.223 Y2.9416
X4.2231 Y2.9417
X4.2391 Y2.9504
X4.2393 Y2.9505
X4.2551 Y2.9587
X4.2553 Y2.9588
X4.2708 Y2.9665
X4.271 Y2.9667
X4.2862 Y2.9739
X4.2864 Y2.9741
X4.3012 Y2.9808
X4.3014 Y2.9809
X4.3157 Y2.9871
X4.316 Y2.9873
X4.3297 Y2.9929
X4.3301 Y2.993
X4.3432 Y2.998
X4.3436 Y2.9982
X4.3561 Y3.0025
X4.3566 Y3.0027
X4.3683 Y3.0064
X4.3689 Y3.0065
X4.3798 Y3.0095
X4.3805 Y3.0097
X4.3905 Y3.0119
X4.3913 Y3.012
X4.4005 Y3.0135
X4.4014 Y3.0137
X4.4096 Y3.0146
X4.4107
X4.4182 Y3.0149
X4.4194
X4.4261 Y3.0147
X4.4275 Y3.0146
X4.4335 Y3.0138
X4.435 Y3.0136
X4.4404 Y3.0124
X4.442 Y3.0119
X4.4467 Y3.0103
X4.4483 Y3.0097
X4.4525 Y3.0077
X4.4541 Y3.0068
X4.4578 Y3.0045
X4.4593 Y3.0034
X4.4624 Y3.0009
X4.4638 Y2.9997
X4.4665 Y2.9968
X4.4678 Y2.9954
X4.4702 Y2.9922
X4.4712 Y2.9908
X4.4733 Y2.9873
X4.474 Y2.9859
X4.4758 Y2.9822
X4.4763 Y2.9809
X4.4778 Y2.9769
X4.4781 Y2.9759
X4.4794 Y2.9717
X4.4797 Y2.9705
X4.4806 Y2.966
X4.4807 Y2.9653
X4.4815 Y2.9606
X4.4816 Y2.9597
X4.4821 Y2.9549
Y2.9544
X4.4824 Y2.9495
X4.4825 Y2.9487
X4.4826 Y2.9437
Y2.9432
X4.4825 Y2.9382
Y2.9376
X4.4822 Y2.9325
Y2.9321
X4.4818 Y2.927
X4.4817 Y2.9265
X4.4812 Y2.9215
X4.4811 Y2.9213
X4.4805 Y2.9163
X4.4804 Y2.9158
X4.4796 Y2.9108
Y2.9107
X4.4788 Y2.9058
X4.4787 Y2.9054
X4.4778 Y2.9005
Y2.9004
X4.4768 Y2.8955
X4.4767 Y2.8953
X4.4757 Y2.8904
X4.4756 Y2.8903
X4.4745 Y2.8854
Y2.8853
X4.4734 Y2.8804
X4.4722 Y2.8755
Y2.8754
X4.471 Y2.8706
X4.4699 Y2.8658
X4.4688 Y2.8609
X4.4677 Y2.8561
X4.4666 Y2.8512
X4.4656 Y2.8464
X4.4647 Y2.8416
X4.4638 Y2.8367
X4.4631 Y2.8318
X4.4624 Y2.827
X4.4618 Y2.822
X4.4614 Y2.817
X4.4611 Y2.812
X4.4609 Y2.8068
X4.4608 Y2.8017
X4.4609 Y2.7965
X4.4611 Y2.7912
X4.4614 Y2.7858
X4.4618 Y2.7803
X4.4623 Y2.7749
X4.463 Y2.7693
X4.4637 Y2.7636
X4.4646 Y2.758
X4.4655 Y2.7522
X4.4665 Y2.7463
X4.4676 Y2.7404
X4.4688 Y2.7344
X4.47 Y2.7284
X4.4713 Y2.7222
X4.4726 Y2.716
X4.474 Y2.7098
X4.4754 Y2.7035
X4.4768 Y2.6972
X4.4783 Y2.6907
X4.4798 Y2.6842
X4.4813 Y2.6776
X4.4828 Y2.671
X4.484 Y2.6657
X4.4853 Y2.6604
X4.4867 Y2.6551
X4.4882 Y2.6498
X4.4898 Y2.6445
X4.4917 Y2.6392
X4.4937 Y2.6339
X4.4961 Y2.6286
X4.4987 Y2.6233
X4.5017 Y2.6179
X4.5051 Y2.6126
X4.5089 Y2.6072
X4.5132 Y2.6018
X4.518 Y2.5964
X4.5234 Y2.591
X4.5295 Y2.5855
X4.5362 Y2.58
X4.5436 Y2.5745
X4.5518 Y2.569
X4.5609 Y2.5635
X4.5708 Y2.558
X4.5816 Y2.5525
X4.5933 Y2.5469
X4.6062 Y2.5413
G2 X4.6156 Y2.527 I-0.0062 J-0.0143
G1 Y2.
G2 X4.6 Y1.9844 I-0.0156 J0.
G1 X4.5594
X4.5191 Y1.9843
X4.4791
X4.4394
X4.4
X4.3609
X4.3222
X4.2837
X4.2457 Y1.9842
X4.2079
X4.1705
X4.1335
X4.0968
X4.0605
X4.0245
X3.9889
X3.9537
X3.9189
X3.8845
X3.8505
X3.8169
X3.7837
X3.7509
X3.7185
X3.5278
X3.3528
X3.1927 Y1.9843
X3.0469 Y1.9844
X2.9147 Y1.9845
X2.7955 Y1.9847
X2.6885 Y1.9848
X2.593 Y1.985
X2.5085 Y1.9852
X2.4342 Y1.9854
X2.3693 Y1.9856
X2.3134 Y1.9858
X2.2655 Y1.9861
X2.2252 Y1.9863
X2.1917 Y1.9866
X2.1642 Y1.9868
X2.1422 Y1.987
X2.125 Y1.9873
X2.1249
X2.1118 Y1.9875
X2.1117
X2.102 Y1.9877
X2.1019
X2.095 Y1.9879
X2.0948
X2.0899 Y1.9881
X2.0897
X2.086 Y1.9883
X2.0829 Y1.9884
X2.08 Y1.9886
X2.077 Y1.9887
X2.0741 Y1.9888
X2.0711 Y1.9889
X2.0681
X2.065 Y1.989
X2.062 Y1.9891
X2.0589 Y1.9892
X2.0558
X2.0526 Y1.9893
X2.0494 Y1.9894
X2.0462 Y1.9895
X2.043 Y1.9896
X2.0429
X2.0397 Y1.9897
X2.0365 Y1.9898
X2.0364
X2.0331 Y1.9899
X2.033
X2.0298 Y1.9901
X2.0297
X2.0264 Y1.9903
X2.0263
X2.023 Y1.9905
X2.0228
X2.0195 Y1.9907
X2.0194 Y1.9908
X2.016 Y1.991
X2.0159
X2.0125 Y1.9913
X2.0123
X2.0089 Y1.9917
X2.0088
X2.0054 Y1.9921
X2.0052
X2.0017 Y1.9925
X2.0015
X1.998 Y1.993
X1.9978
X1.9943 Y1.9936
X1.9941
X1.9906 Y1.9942
X1.9904
X1.987 Y1.9948
X1.9867 Y1.9949
X1.9833 Y1.9956
X1.983
X1.9796 Y1.9963
X1.9794 Y1.9964
X1.976 Y1.9972
X1.9757
X1.9724 Y1.9981
X1.9721 Y1.9982
X1.9688 Y1.999
X1.9685 Y1.9991
X1.9652 Y2.0001
X1.9649 Y2.0002
X1.9618 Y2.0012
X1.9614 Y2.0013
X1.9583 Y2.0024
X1.958 Y2.0025
X1.955 Y2.0036
X1.9545 Y2.0038
X1.9516 Y2.0049
X1.9512 Y2.0051
X1.9484 Y2.0063
X1.9479 Y2.0065
X1.9452 Y2.0078
X1.9447 Y2.0081
X1.9421 Y2.0094
X1.9416 Y2.0097
X1.9391 Y2.0111
X1.9385 Y2.0115
X1.9362 Y2.0129
X1.9356 Y2.0133
X1.9334 Y2.0148
X1.9327 Y2.0153
X1.9306 Y2.0169
X1.93 Y2.0175
X1.928 Y2.0191
X1.9273 Y2.0198
X1.9256 Y2.0215
X1.9248 Y2.0222
X1.9232 Y2.024
X1.9226 Y2.0247
X1.9211 Y2.0266
X1.9205 Y2.0274
X1.9191 Y2.0294
X1.9186 Y2.0301
X1.9173 Y2.0322
X1.9169 Y2.033
X1.9157 Y2.0351
X1.9153 Y2.0359
X1.9143 Y2.0381
X1.914 Y2.0388
X1.913 Y2.0411
X1.9127 Y2.0418
X1.9119 Y2.0441
X1.9117 Y2.0449
X1.911 Y2.0473
X1.9108 Y2.048
X1.9102 Y2.0504
X1.91 Y2.0511
X1.9095 Y2.0535
X1.9094 Y2.0543
X1.9091 Y2.0567
X1.909 Y2.0574
X1.9087 Y2.0599
X1.9086 Y2.0606
X1.9085 Y2.0631
Y2.0638
X1.9084 Y2.0663
Y2.067
X1.9085 Y2.0695
Y2.0702
X1.9087 Y2.0727
X1.9088 Y2.0733
X1.9091 Y2.0758
Y2.0765
X1.9095 Y2.079
X1.9096 Y2.0796
X1.9101 Y2.0821
X1.9103 Y2.0828
X1.9109 Y2.0852
X1.9111 Y2.0859
X1.9118 Y2.0883
X1.912 Y2.0889
X1.9128 Y2.0913
X1.9131 Y2.092
X1.914 Y2.0943
X1.9143 Y2.0949
X1.9153 Y2.0972
X1.9156 Y2.0978
X1.9167 Y2.1
X1.9171 Y2.1007
X1.9183 Y2.1028
X1.9186 Y2.1034
X1.92 Y2.1055
X1.9203 Y2.1061
X1.9218 Y2.1082
X1.9222 Y2.1087
X1.9237 Y2.1107
X1.9241 Y2.1112
X1.9257 Y2.1132
X1.9261 Y2.1137
X1.9279 Y2.1156
X1.9283 Y2.1161
X1.9301 Y2.118
X1.9305 Y2.1184
X1.9325 Y2.1202
X1.9329 Y2.1206
X1.9349 Y2.1224
X1.9353 Y2.1228
X1.9374 Y2.1245
X1.9378 Y2.1248
X1.9401 Y2.1265
X1.9405 Y2.1269
X1.9428 Y2.1285
X1.9432 Y2.1288
X1.9456 Y2.1304
X1.946 Y2.1307
X1.9484 Y2.1322
X1.9488 Y2.1325
X1.9514 Y2.134
X1.9518 Y2.1342
X1.9544 Y2.1357
X1.9548 Y2.1359
X1.9576 Y2.1373
X1.9579 Y2.1375
X1.9608 Y2.1389
X1.9611 Y2.139
X1.964 Y2.1404
X1.9644 Y2.1405
X1.9674 Y2.1418
X1.9677 Y2.1419
X1.9708 Y2.1432
X1.9711 Y2.1433
X1.9743 Y2.1445
X1.9746 Y2.1446
X1.9779 Y2.1458
X1.9782 Y2.1459
X1.9815 Y2.147
X1.9818
X1.9852 Y2.1481
X1.9854 Y2.1482
X1.9889 Y2.1492
X1.9891
X1.9926 Y2.1502
X1.9928 Y2.1503
X1.9963 Y2.1512
X1.9965
X2. Y2.1521
X2.0002
X2.0037 Y2.153
X2.0039
X2.0074 Y2.1538
X2.0076
X2.0111 Y2.1546
X2.0112
X2.0147 Y2.1553
X2.0149
X2.0183 Y2.156
X2.0184
X2.0219 Y2.1566
X2.022 Y2.1567
X2.0253 Y2.1573
X2.0254
X2.0287 Y2.1578
X2.0288 Y2.1579
X2.032 Y2.1584
X2.0321
X2.0352 Y2.1589
X2.0353
X2.0384 Y2.1594
X2.0413 Y2.1598
X2.0414
X2.0442 Y2.1602
X2.0443
X2.0469 Y2.1606
X2.047
X2.0495 Y2.161
X2.0519 Y2.1613
X2.0542 Y2.1616
X2.0562 Y2.1619
X2.0581 Y2.1621
X2.0599 Y2.1623
X2.0615 Y2.1626
X2.0631 Y2.1628
X2.0646 Y2.163
X2.066 Y2.1632
X2.0675 Y2.1633
Y2.1634
X2.0689 Y2.1635
X2.0704 Y2.1637
X2.0719 Y2.164
X2.0735 Y2.1642
X2.0752 Y2.1644
X2.077 Y2.1646
X2.079 Y2.1649
X2.0811 Y2.1652
X2.0834 Y2.1655
X2.086 Y2.1659
X2.0887 Y2.1663
X2.0918 Y2.1667
X2.0951 Y2.1671
X2.0987 Y2.1676
X2.1026 Y2.1682
X2.1069 Y2.1687
X2.1093 Y2.1691
X2.1117 Y2.1694
X2.1143 Y2.1698
X2.1169 Y2.1701
X2.1196 Y2.1705
X2.1223 Y2.1709
X2.1251 Y2.1713
X2.1279 Y2.1717
X2.1307 Y2.1721
X2.1336 Y2.1725
X2.1365 Y2.173
X2.1393 Y2.1734
X2.1422 Y2.1739
X2.1451 Y2.1743
X2.1479 Y2.1748
X2.1507 Y2.1753
X2.1535 Y2.1758
X2.1562 Y2.1763
X2.1589 Y2.1768
X2.1615 Y2.1773
X2.1641 Y2.1779
X2.1665 Y2.1784
X2.1688 Y2.1789
X2.1711 Y2.1795
X2.1732 Y2.18
X2.1752 Y2.1805
X2.1771 Y2.1811
X2.1777 Y2.1812
X2.1736 Y2.1821
X2.1677 Y2.1832
X2.1609 Y2.1843
X2.1532 Y2.1853
X2.1448 Y2.1863
X2.1356 Y2.1873
X2.1259 Y2.1884
X2.1156 Y2.1894
X2.1049 Y2.1904
X2.0937 Y2.1914
X2.0822 Y2.1925
X2.0706 Y2.1935
X2.0588 Y2.1946
X2.0469 Y2.1957
X2.0352 Y2.1968
X2.0235 Y2.1979
X2.0121 Y2.199
X2.012
X2.0009 Y2.2002
X1.9902 Y2.2013
X1.9901
X1.9799 Y2.2025
X1.9798
X1.9702 Y2.2037
X1.97
X1.9611 Y2.2049
X1.9608 Y2.205
X1.9527 Y2.2062
X1.9524
X1.945 Y2.2075
X1.9447
X1.9382 Y2.2088
X1.9378 Y2.2089
X1.9322 Y2.2101
X1.9317 Y2.2102
X1.9269 Y2.2114
X1.9263 Y2.2116
X1.9222 Y2.2128
X1.9215 Y2.213
X1.9179 Y2.2143
X1.9171 Y2.2146
X1.914 Y2.2159
X1.9131 Y2.2163
X1.9104 Y2.2176
X1.9095 Y2.2181
X1.9071 Y2.2195
X1.9063 Y2.22
X1.9041 Y2.2214
X1.9034 Y2.2219
X1.9014 Y2.2234
X1.901 Y2.2238
X1.899 Y2.2254
X1.8988 Y2.2256
X1.8968 Y2.2273
X1.8947 Y2.229
X1.8925 Y2.2307
X1.8902 Y2.2325
X1.8875 Y2.2344
X1.8846 Y2.2363
X1.8811 Y2.2383
X1.8772 Y2.2404
X1.8727 Y2.2426
X1.8675 Y2.2448
X1.8615 Y2.2472
X1.8547 Y2.2497
X1.847 Y2.2522
X1.8384 Y2.2548
X1.8288 Y2.2575
X1.8185 Y2.2603
X1.8074 Y2.2631
X1.7958 Y2.2661
X1.7835 Y2.2691
X1.7708 Y2.2722
X1.7578 Y2.2754
X1.7444 Y2.2787
X1.7308 Y2.2821
X1.7171 Y2.2856
X1.717 Y2.2857
X1.7033 Y2.2892
X1.7032 Y2.2893
X1.6895 Y2.293
X1.6894
X1.6758 Y2.2968
X1.6756 Y2.2969
X1.6622 Y2.3008
X1.662
X1.6489 Y2.3049
X1.6487
X1.6359 Y2.3091
X1.6356 Y2.3092
X1.6232 Y2.3135
X1.6229 Y2.3136
X1.611 Y2.318
X1.6107 Y2.3181
X1.5994 Y2.3227
X1.599 Y2.3228
X1.5884 Y2.3274
X1.5879 Y2.3277
X1.5782 Y2.3324
X1.5775 Y2.3327
X1.5686 Y2.3375
X1.5679 Y2.3379
X1.56 Y2.3428
X1.5591 Y2.3433
X1.5522 Y2.3482
X1.5513 Y2.3489
X1.5453 Y2.3538
X1.5444 Y2.3546
X1.5394 Y2.3595
X1.5383 Y2.3606
X1.5342 Y2.3654
X1.5332 Y2.3668
X1.5299 Y2.3716
X1.5289 Y2.3732
X1.5264 Y2.3781
X1.5256 Y2.3799
X1.5238 Y2.3848
X1.5232 Y2.3867
X1.5221 Y2.3916
X1.5218 Y2.3935
X1.5213 Y2.3984
X1.5212 Y2.4003
X1.5213 Y2.4052
X1.5214 Y2.4069
X1.5221 Y2.4119
X1.5224 Y2.4136
X1.5236 Y2.4187
X1.5241 Y2.4202
X1.5259 Y2.4254
X1.5264 Y2.4267
X1.5288 Y2.432
X1.5294 Y2.4331
X1.5324 Y2.4384
X1.5329 Y2.4394
X1.5364 Y2.4448
X1.537 Y2.4456
X1.541 Y2.4509
X1.5416 Y2.4516
X1.5461 Y2.457
X1.5467 Y2.4576
X1.5517 Y2.4629
X1.5522 Y2.4635
X1.5577 Y2.4687
X1.5582 Y2.4692
X1.5641 Y2.4744
X1.5646 Y2.4748
X1.5709 Y2.4799
X1.5714 Y2.4803
X1.5781 Y2.4853
X1.5786 Y2.4857
X1.5857 Y2.4905
X1.5862 Y2.4908
X1.5936 Y2.4955
X1.5941 Y2.4958
X1.6019 Y2.5003
X1.6024 Y2.5006
X1.6106 Y2.5049
X1.6111 Y2.5052
X1.6197 Y2.5093
X1.6202 Y2.5096
X1.6294 Y2.5136
X1.6299 Y2.5138
X1.6396 Y2.5177
X1.6401 Y2.5178
X1.6503 Y2.5215
X1.6508 Y2.5217
X1.6617 Y2.5252
X1.6621 Y2.5253
X1.6737 Y2.5287
X1.6741 Y2.5288
X1.6864 Y2.532
X1.6868 Y2.5321
X1.6998 Y2.5351
X1.7002 Y2.5352
X1.714 Y2.538
X1.7144 Y2.5381
X1.7291 Y2.5408
X1.7294
X1.745 Y2.5433
X1.7452 Y2.5434
X1.7617 Y2.5457
X1.762 Y2.5458
X1.7795 Y2.5479
X1.7797 Y2.548
X1.7983 Y2.5499
X1.7985 Y2.55
X1.8181 Y2.5518
X1.8183
X1.8389 Y2.5535
X1.8391
X1.861 Y2.5549
X1.8611 Y2.555
X1.8842 Y2.5562
X1.8843 Y2.5563
X1.9086 Y2.5574
X1.9087
X1.9343 Y2.5583
X1.9344
X1.9613 Y2.5591
X1.9615
X1.9897 Y2.5597
X1.9898
X2.0193 Y2.5601
X2.0499 Y2.5604
X2.05
X2.0816 Y2.5605
X2.1141
X2.1473 Y2.5603
X2.1811 Y2.5601
X2.2153 Y2.5597
X2.2154
X2.25 Y2.5592
X2.2848 Y2.5586
X2.3197 Y2.5579
X2.3546 Y2.5571
X2.3893 Y2.5563
X2.4238 Y2.5554
X2.4578 Y2.5544
X2.4913 Y2.5534
X2.5241 Y2.5524
X2.5561 Y2.5514
X2.5872 Y2.5503
X2.6173 Y2.5492
X2.6462 Y2.5482
X2.6738 Y2.5471
X2.6999 Y2.5461
X2.7245 Y2.545
X2.7475 Y2.5441
X2.7688 Y2.5431
X2.7887 Y2.5422
X2.807 Y2.5414
X2.824 Y2.5406
X2.8397 Y2.5398
X2.8541 Y2.5392
X2.8673 Y2.5386
X2.8795 Y2.538
X2.8906 Y2.5376
X2.9008 Y2.5372
X2.91 Y2.5369
X2.9185 Y2.5367
X2.9262 Y2.5366
X2.9332 Y2.5365
X2.9385 Y2.5366
X2.9397 Y2.5369
X2.9407 Y2.5375
X2.9414 Y2.5386
X2.9416 Y2.5398
Y2.5429
X2.9415 Y2.5441 Z0.0327
Y2.5451 Z0.0334
Y2.5458 Z0.0344
Y2.546 Z0.0356
G0 Z0.2625
X2.9305 Y2.549
G1 Z0.1019 F1.8
Z0.0194
X2.9306 Y2.5488 Z0.0182 F14.2
Y2.5481 Z0.0172
Y2.5471 Z0.0165
Y2.5459 Z0.0163
Y2.5428
X2.9309 Y2.5416
X2.9316 Y2.5406
X2.9326 Y2.5399
X2.9338 Y2.5397
X2.9396
X2.9454 Y2.5399
X2.9507 Y2.5402
X2.9557 Y2.5406
X2.9604 Y2.541
X2.9648 Y2.5416
X2.9691 Y2.5423
X2.9733 Y2.5432
X2.9776 Y2.5441
X2.982 Y2.5452
X2.9865 Y2.5464
X2.9912 Y2.5477
X2.9962 Y2.5492
X3.0015 Y2.5507
X3.007 Y2.5523
X3.0071
X3.0129 Y2.554
X3.013
X3.0191 Y2.5557
X3.0193 Y2.5558
X3.0258 Y2.5575
X3.026
X3.0329 Y2.5592
X3.0331 Y2.5593
X3.0404 Y2.561
X3.0407 Y2.5611
X3.0485 Y2.5628
X3.0488
X3.0571 Y2.5645
X3.0574 Y2.5646
X3.0663 Y2.5662
X3.0666
X3.0761 Y2.5678
X3.0764 Y2.5679
X3.0866 Y2.5694
X3.0869
X3.0978 Y2.5709
X3.0981
X3.1097 Y2.5723
X3.11
X3.1224 Y2.5735
X3.1226 Y2.5736
X3.1358 Y2.5747
X3.1361
X3.1502 Y2.5757
X3.1504
X3.1654 Y2.5766
X3.1657
X3.1816 Y2.5773
X3.1819
X3.1988 Y2.5779
X3.199
X3.217 Y2.5783
X3.2172
X3.2361 Y2.5785
X3.2362
X3.256 Y2.5786
X3.2561
X3.2766
X3.2767
X3.2979 Y2.5785
X3.3198 Y2.5784
X3.3422 Y2.5783
X3.365 Y2.5782
X3.3882 Y2.5781
X3.4116
X3.4353 Y2.5782
X3.459 Y2.5785
X3.4827 Y2.5789
X3.5063 Y2.5796
X3.5298 Y2.5804
X3.5531 Y2.5815
X3.576 Y2.5829
X3.5985 Y2.5845
X3.6205 Y2.5865
X3.6419 Y2.5889
X3.6626 Y2.5917
X3.6826 Y2.5948
X3.7017 Y2.5984
X3.7199 Y2.6024
X3.737 Y2.607
X3.7532 Y2.612
X3.7686 Y2.6174
X3.7832 Y2.6233
X3.797 Y2.6296
X3.8103 Y2.6363
X3.8229 Y2.6434
X3.8351 Y2.6508
X3.8468 Y2.6586
X3.8582 Y2.6668
X3.8693 Y2.6753
X3.8802 Y2.6841
X3.891 Y2.6932
X3.9016 Y2.7026
X3.9123 Y2.7122
X3.9229 Y2.7221
X3.9337 Y2.7323
X3.9446 Y2.7426
Y2.7427
X3.9557 Y2.7532
X3.9558
X3.9671 Y2.7638
X3.9672 Y2.7639
X3.9788 Y2.7746
X3.979 Y2.7748
X3.991 Y2.7856
X3.9912 Y2.7858
X4.0037 Y2.7966
X4.0039 Y2.7968
X4.0168 Y2.8077
X4.0171 Y2.808
X4.0307 Y2.8189
X4.0309 Y2.8191
X4.045 Y2.8301
X4.0452 Y2.8303
X4.0598 Y2.8413
X4.06 Y2.8414
X4.075 Y2.8524
X4.0753 Y2.8525
X4.0907 Y2.8634
X4.0909 Y2.8635
X4.1065 Y2.8743
X4.1068 Y2.8744
X4.1227 Y2.885
X4.1229 Y2.8851
X4.139 Y2.8955
X4.1392 Y2.8957
X4.1555 Y2.9059
X4.1557 Y2.906
X4.172 Y2.916
X4.1722 Y2.9161
X4.1886 Y2.9257
X4.1888 Y2.9259
X4.205 Y2.9352
X4.2053 Y2.9354
X4.2214 Y2.9444
X4.2216 Y2.9445
X4.2376 Y2.9531
X4.2379 Y2.9532
X4.2537 Y2.9615
X4.2539 Y2.9616
X4.2694 Y2.9693
X4.2697 Y2.9695
X4.2848 Y2.9768
X4.2851 Y2.9769
X4.2999 Y2.9837
X4.3002 Y2.9838
X4.3144 Y2.99
X4.3148 Y2.9902
X4.3285 Y2.9958
X4.329 Y2.996
X4.3421 Y3.001
X4.3426 Y3.0011
X4.355 Y3.0055
X4.3556 Y3.0057
X4.3674 Y3.0093
X4.3681 Y3.0096
X4.379 Y3.0125
X4.3798 Y3.0127
X4.3899 Y3.0149
X4.3908 Y3.0151
X4.3999 Y3.0166
X4.401 Y3.0168
X4.4093 Y3.0177
X4.4106 Y3.0178
X4.4181 Y3.018
X4.4195
X4.4263 Y3.0178
X4.4279 Y3.0177
X4.4339 Y3.0169
X4.4356 Y3.0166
X4.441 Y3.0154
X4.443 Y3.0149
X4.4477 Y3.0133
X4.4497 Y3.0125
X4.4538 Y3.0105
X4.4558 Y3.0095
X4.4594 Y3.0072
X4.4613 Y3.0059
X4.4644 Y3.0033
X4.466 Y3.0018
X4.4688 Y2.999
X4.4703 Y2.9973
X4.4727 Y2.9941
X4.4738 Y2.9924
X4.4759 Y2.9889
X4.4768 Y2.9873
X4.4786 Y2.9835
X4.4792 Y2.982
X4.4807 Y2.978
X4.4811 Y2.9768
X4.4823 Y2.9725
X4.4827 Y2.9711
X4.4837 Y2.9667
X4.4838 Y2.9658
X4.4846 Y2.9611
X4.4847 Y2.96
X4.4852 Y2.9552
Y2.9546
X4.4856 Y2.9497
Y2.9488
X4.4857 Y2.9438
Y2.9432
X4.4856 Y2.9381
Y2.9374
X4.4853 Y2.9323
Y2.9319
X4.4849 Y2.9268
X4.4848 Y2.9262
X4.4843 Y2.9212
X4.4842 Y2.9209
X4.4836 Y2.9159
X4.4835 Y2.9153
X4.4827 Y2.9103
Y2.9102
X4.4819 Y2.9053
X4.4818 Y2.9048
X4.4809 Y2.8999
X4.4808 Y2.8998
X4.4798 Y2.8949
Y2.8946
X4.4787 Y2.8897
Y2.8896
X4.4776 Y2.8847
X4.4775 Y2.8846
X4.4764 Y2.8797
X4.4753 Y2.8748
X4.4752 Y2.8747
X4.4741 Y2.8699
X4.4729 Y2.8651
X4.4718 Y2.8602
X4.4707 Y2.8554
X4.4697 Y2.8506
X4.4687 Y2.8458
X4.4678 Y2.8411
X4.4669 Y2.8362
X4.4661 Y2.8314
X4.4655 Y2.8266
X4.465 Y2.8217
X4.4645 Y2.8168
X4.4642 Y2.8118
X4.464 Y2.8068
X4.4639 Y2.8017
X4.464 Y2.7965
X4.4642 Y2.7913
X4.4645 Y2.786
X4.4649 Y2.7806
X4.4655 Y2.7752
X4.4661 Y2.7697
X4.4668 Y2.764
X4.4677 Y2.7584
X4.4686 Y2.7527
X4.4696 Y2.7468
X4.4707 Y2.7409
X4.4718 Y2.735
X4.473 Y2.729
X4.4743 Y2.7229
X4.4757 Y2.7167
X4.477 Y2.7105
X4.4784 Y2.7042
X4.4799 Y2.6978
X4.4813 Y2.6914
X4.4828 Y2.6849
X4.4843 Y2.6783
X4.4859 Y2.6717
X4.4871 Y2.6664
X4.4884 Y2.6612
X4.4897 Y2.6559
X4.4912 Y2.6507
X4.4928 Y2.6455
X4.4946 Y2.6403
X4.4966 Y2.6351
X4.4989 Y2.6299
X4.5015 Y2.6248
X4.5044 Y2.6195
X4.5077 Y2.6144
X4.5114 Y2.6091
X4.5156 Y2.6038
X4.5203 Y2.5986
X4.5256 Y2.5932
X4.5315 Y2.5879
X4.5381 Y2.5825
X4.5454 Y2.5771
X4.5535 Y2.5717
X4.5624 Y2.5662
X4.5723 Y2.5607
X4.583 Y2.5553
X4.5946 Y2.5498
X4.6075 Y2.5442
G2 X4.6188 Y2.527 I-0.0075 J-0.0172
G1 Y2.
G2 X4.6 Y1.9812 I-0.0188 J0.
G1 X4.5594
X4.5191
X4.4791
X4.4394
X4.4
X4.3609
X4.3222 Y1.9811
X4.2837
X4.2457
X4.2079
X4.1705
X4.1335
X4.0968
X4.0605
X4.0245
X3.9889
X3.9537 Y1.981
X3.9189
X3.8845
X3.8505
X3.8169
X3.7837
X3.7509
X3.7185
X3.5278
X3.3528 Y1.9811
X3.1927 Y1.9812
X3.0469 Y1.9813
X2.9147 Y1.9814
X2.7955 Y1.9815
X2.6885 Y1.9817
X2.593 Y1.9819
X2.5085 Y1.9821
X2.4342 Y1.9823
X2.3693 Y1.9825
X2.3134 Y1.9827
X2.2655 Y1.983
X2.2252 Y1.9832
X2.1916 Y1.9834
X2.1642 Y1.9837
X2.1422 Y1.9839
X2.1249 Y1.9841
X2.1118 Y1.9844
X2.1117
X2.102 Y1.9846
X2.1019
X2.0949 Y1.9848
X2.0947
X2.0897 Y1.985
X2.0895
X2.0859 Y1.9851
X2.0858
X2.0828 Y1.9853
X2.0799 Y1.9854
X2.0769 Y1.9855
X2.074 Y1.9856
X2.071 Y1.9857
X2.068 Y1.9858
X2.065 Y1.9859
X2.0619 Y1.986
X2.0588
X2.0557 Y1.9861
X2.0525 Y1.9862
X2.0494 Y1.9863
X2.0462
X2.0461
X2.0429 Y1.9864
X2.0428
X2.0396 Y1.9865
X2.0363 Y1.9867
X2.0362
X2.033 Y1.9868
X2.0329
X2.0296 Y1.987
X2.0295
X2.0262 Y1.9872
X2.0261
X2.0228 Y1.9874
X2.0226
X2.0193 Y1.9876
X2.0191
X2.0158 Y1.9879
X2.0156
X2.0122 Y1.9882
X2.012
X2.0086 Y1.9886
X2.0084
X2.005 Y1.989
X2.0048
X2.0013 Y1.9894
X2.0011
X1.9976 Y1.9899
X1.9974
X1.9939 Y1.9905
X1.9936
X1.9901 Y1.9911
X1.9899
X1.9864 Y1.9918
X1.9861
X1.9827 Y1.9925
X1.9824
X1.979 Y1.9933
X1.9786
X1.9753 Y1.9941
X1.9749 Y1.9942
X1.9716 Y1.9951
X1.9713
X1.968 Y1.996
X1.9676 Y1.9961
X1.9644 Y1.9971
X1.964 Y1.9972
X1.9608 Y1.9982
X1.9604 Y1.9983
X1.9573 Y1.9994
X1.9569 Y1.9996
X1.9539 Y2.0007
X1.9534 Y2.0009
X1.9505 Y2.002
X1.95 Y2.0022
X1.9471 Y2.0035
X1.9466 Y2.0037
X1.9439 Y2.005
X1.9433 Y2.0053
X1.9407 Y2.0066
X1.9401 Y2.007
X1.9376 Y2.0084
X1.9369 Y2.0088
X1.9345 Y2.0103
X1.9338 Y2.0107
X1.9316 Y2.0123
X1.9308 Y2.0128
X1.9287 Y2.0144
X1.9279 Y2.0151
X1.926 Y2.0167
X1.9251 Y2.0175
X1.9234 Y2.0192
X1.9225 Y2.0201
X1.9209 Y2.0219
X1.9202 Y2.0228
X1.9186 Y2.0247
X1.918 Y2.0256
X1.9166 Y2.0276
X1.916 Y2.0285
X1.9147 Y2.0305
X1.9142 Y2.0315
X1.913 Y2.0336
X1.9125 Y2.0345
X1.9115 Y2.0367
X1.9111 Y2.0376
X1.9102 Y2.0399
X1.9098 Y2.0408
X1.909 Y2.0431
X1.9087 Y2.044
X1.908 Y2.0464
X1.9078 Y2.0472
X1.9072 Y2.0496
X1.907 Y2.0505
X1.9065 Y2.0529
X1.9063 Y2.0538
X1.906 Y2.0563
X1.9059 Y2.0571
X1.9056 Y2.0596
X1.9055 Y2.0604
X1.9054 Y2.0629
X1.9053 Y2.0637
Y2.0662
Y2.0671
X1.9054 Y2.0696
Y2.0704
X1.9056 Y2.0729
X1.9057 Y2.0737
X1.9059 Y2.0762
X1.9061 Y2.077
X1.9064 Y2.0795
X1.9066 Y2.0802
X1.9071 Y2.0827
X1.9073 Y2.0836
X1.9079 Y2.086
X1.9081 Y2.0868
X1.9088 Y2.0892
X1.909 Y2.0899
X1.9098 Y2.0923
X1.9102 Y2.0932
X1.9111 Y2.0954
X1.9114 Y2.0962
X1.9124 Y2.0985
X1.9128 Y2.0993
X1.9139 Y2.1015
X1.9143 Y2.1022
X1.9156 Y2.1044
X1.916 Y2.1051
X1.9173 Y2.1072
X1.9178 Y2.1079
X1.9192 Y2.1099
X1.9197 Y2.1106
X1.9212 Y2.1126
X1.9217 Y2.1132
X1.9233 Y2.1152
X1.9238 Y2.1158
X1.9255 Y2.1177
X1.926 Y2.1182
X1.9279 Y2.1201
X1.9284 Y2.1206
X1.9303 Y2.1225
X1.9308 Y2.1229
X1.9328 Y2.1247
X1.9333 Y2.1252
X1.9354 Y2.1269
X1.9359 Y2.1273
X1.9381 Y2.129
X1.9386 Y2.1294
X1.9409 Y2.131
X1.9414 Y2.1314
X1.9438 Y2.133
X1.9443 Y2.1333
X1.9468 Y2.1349
X1.9472 Y2.1352
X1.9498 Y2.1367
X1.9503 Y2.1369
X1.9529 Y2.1384
X1.9534 Y2.1387
X1.9561 Y2.1401
X1.9566 Y2.1403
X1.9594 Y2.1417
X1.9598 Y2.1419
X1.9628 Y2.1432
X1.9632 Y2.1434
X1.9662 Y2.1447
X1.9666 Y2.1448
X1.9697 Y2.1461
X1.9701 Y2.1462
X1.9732 Y2.1474
X1.9736 Y2.1476
X1.9769 Y2.1487
X1.9772 Y2.1488
X1.9805 Y2.1499
X1.9809 Y2.15
X1.9842 Y2.1511
X1.9845 Y2.1512
X1.988 Y2.1522
X1.9883 Y2.1523
X1.9918 Y2.1532
X1.992 Y2.1533
X1.9955 Y2.1542
X1.9957
X1.9993 Y2.1551
X1.9995 Y2.1552
X2.003 Y2.156
X2.0032
X2.0068 Y2.1568
X2.0069 Y2.1569
X2.0104 Y2.1576
X2.0106 Y2.1577
X2.0141 Y2.1584
X2.0143
X2.0177 Y2.1591
X2.0179
X2.0213 Y2.1597
X2.0214
X2.0248 Y2.1603
X2.0249 Y2.1604
X2.0282 Y2.1609
X2.0283
X2.0315 Y2.1615
X2.0316
X2.0348 Y2.162
X2.0349
X2.0379 Y2.1625
X2.038
X2.0409 Y2.1629
X2.041
X2.0438 Y2.1633
X2.0465 Y2.1637
X2.0466
X2.0491 Y2.1641
X2.0515 Y2.1644
X2.0537 Y2.1647
X2.0558 Y2.1649
X2.0577 Y2.1652
X2.0595 Y2.1654
X2.0611 Y2.1657
X2.0627 Y2.1659
X2.0642 Y2.1661
X2.0656 Y2.1663
X2.067 Y2.1664
X2.0671 Y2.1665
X2.0685 Y2.1666
X2.07 Y2.1668
X2.0715 Y2.167
X2.0731 Y2.1673
X2.0748 Y2.1675
X2.0766 Y2.1677
X2.0785 Y2.168
X2.0807 Y2.1683
X2.083 Y2.1686
X2.0856 Y2.169
X2.0883 Y2.1693
X2.0913 Y2.1698
X2.0947 Y2.1702
X2.0982 Y2.1707
X2.1022 Y2.1713
X2.1065 Y2.1718
X2.1088 Y2.1722
X2.1113 Y2.1725
X2.1138 Y2.1729
X2.1164 Y2.1732
X2.1191 Y2.1736
X2.1219 Y2.174
X2.1246 Y2.1744
X2.1274 Y2.1748
X2.1303 Y2.1752
X2.1331 Y2.1756
X2.136 Y2.1761
X2.1388 Y2.1765
X2.1417 Y2.177
X2.1446 Y2.1774
X2.1474 Y2.1779
X2.1502 Y2.1784
X2.153 Y2.1789
X2.1557 Y2.1794
X2.1583 Y2.1799
X2.1609 Y2.1804
X2.1628 Y2.1808
X2.1604 Y2.1812
X2.1528 Y2.1822
X2.1444 Y2.1832
X2.1353 Y2.1842
X2.1256 Y2.1852
X2.1153 Y2.1863
X2.1046 Y2.1873
X2.0934 Y2.1883
X2.082 Y2.1894
X2.0703 Y2.1904
X2.0585 Y2.1915
X2.0467 Y2.1926
X2.0349 Y2.1937
X2.0232 Y2.1948
X2.0118 Y2.1959
X2.0117
X2.0006 Y2.197
X2.0005 Y2.1971
X1.9899 Y2.1982
X1.9897
X1.9796 Y2.1994
X1.9794
X1.9698 Y2.2006
X1.9696
X1.9607 Y2.2018
X1.9604 Y2.2019
X1.9522 Y2.2031
X1.9518 Y2.2032
X1.9445 Y2.2044
X1.9441 Y2.2045
X1.9376 Y2.2057
X1.9371 Y2.2058
X1.9316 Y2.207
X1.931 Y2.2072
X1.9262 Y2.2084
X1.9254 Y2.2086
X1.9213 Y2.2098
X1.9204 Y2.2101
X1.9169 Y2.2113
X1.9159 Y2.2117
X1.9128 Y2.213
X1.9117 Y2.2135
X1.909 Y2.2148
X1.9079 Y2.2154
X1.9055 Y2.2168
X1.9045 Y2.2174
X1.9024 Y2.2188
X1.9016 Y2.2194
X1.8995 Y2.2209
X1.899 Y2.2214
X1.897 Y2.223
X1.8968 Y2.2232
X1.8947 Y2.2249
X1.8927 Y2.2266
X1.8906 Y2.2283
X1.8883 Y2.23
X1.8858 Y2.2318
X1.8829 Y2.2336
X1.8796 Y2.2356
X1.8758 Y2.2376
X1.8714 Y2.2397
X1.8663 Y2.242
X1.8604 Y2.2443
X1.8537 Y2.2467
X1.8461 Y2.2492
X1.8375 Y2.2518
X1.828 Y2.2545
X1.8177 Y2.2572
X1.8067 Y2.2601
X1.795 Y2.263
X1.7828 Y2.2661
X1.7701 Y2.2692
X1.757 Y2.2724
X1.7437 Y2.2757
X1.7436
X1.7301 Y2.2791
X1.73
X1.7163 Y2.2826
X1.7162
X1.7025 Y2.2862
X1.7024 Y2.2863
X1.6887 Y2.29
X1.6885
X1.675 Y2.2938
X1.6748 Y2.2939
X1.6614 Y2.2978
X1.6611
X1.648 Y2.3019
X1.6477 Y2.302
X1.6349 Y2.3061
X1.6346 Y2.3062
X1.6222 Y2.3105
X1.6218 Y2.3107
X1.61 Y2.3151
X1.6095 Y2.3152
X1.5983 Y2.3198
X1.5977 Y2.32
X1.5872 Y2.3246
X1.5866 Y2.3249
X1.5768 Y2.3296
X1.5761 Y2.33
X1.5672 Y2.3347
X1.5663 Y2.3353
X1.5583 Y2.3401
X1.5573 Y2.3408
X1.5504 Y2.3456
X1.5493 Y2.3465
X1.5434 Y2.3513
X1.5422 Y2.3524
X1.5372 Y2.3572
X1.536 Y2.3585
X1.5318 Y2.3634
X1.5306 Y2.365
X1.5273 Y2.3699
X1.5262 Y2.3718
X1.5236 Y2.3766
X1.5227 Y2.3788
X1.5209 Y2.3837
X1.5202 Y2.386
X1.5191 Y2.3909
X1.5187 Y2.3932
X1.5182 Y2.3981
X1.5181 Y2.4003
X1.5182 Y2.4053
X1.5183 Y2.4073
X1.519 Y2.4123
X1.5193 Y2.4144
X1.5206 Y2.4195
X1.5211 Y2.4213
X1.5229 Y2.4265
X1.5236 Y2.428
X1.526 Y2.4333
X1.5267 Y2.4346
X1.5296 Y2.44
X1.5303 Y2.4411
X1.5338 Y2.4465
X1.5345 Y2.4474
X1.5385 Y2.4528
X1.5392 Y2.4537
X1.5437 Y2.459
X1.5444 Y2.4597
X1.5494 Y2.4651
X1.55 Y2.4657
X1.5555 Y2.471
X1.5561 Y2.4716
X1.562 Y2.4768
X1.5626 Y2.4773
X1.5689 Y2.4824
X1.5695 Y2.4828
X1.5762 Y2.4878
X1.5768 Y2.4882
X1.5839 Y2.4931
X1.5845 Y2.4935
X1.5919 Y2.4981
X1.5925 Y2.4985
X1.6003 Y2.503
X1.6009 Y2.5033
X1.6091 Y2.5077
X1.6097 Y2.508
X1.6184 Y2.5121
X1.619 Y2.5124
X1.6281 Y2.5164
X1.6287 Y2.5167
X1.6384 Y2.5206
X1.639 Y2.5208
X1.6493 Y2.5245
X1.6498 Y2.5247
X1.6607 Y2.5282
X1.6613 Y2.5283
X1.6728 Y2.5317
X1.6733 Y2.5318
X1.6856 Y2.535
X1.6861 Y2.5351
X1.6991 Y2.5382
X1.6996 Y2.5383
X1.7134 Y2.5411
X1.7138 Y2.5412
X1.7285 Y2.5439
X1.7289
X1.7445 Y2.5464
X1.7448 Y2.5465
X1.7613 Y2.5488
X1.7616 Y2.5489
X1.7791 Y2.551
X1.7794 Y2.5511
X1.7979 Y2.5531
X1.7982
X1.8178 Y2.5549
X1.818
X1.8387 Y2.5566
X1.8389
X1.8608 Y2.5581
X1.861
X1.884 Y2.5594
X1.8842
X1.9085 Y2.5605
X1.9086
X1.9342 Y2.5615
X1.9344
X1.9612 Y2.5622
X1.9614
X1.9896 Y2.5628
X1.9897
X2.0192 Y2.5633
X2.0193
X2.0499 Y2.5635
X2.05
X2.0816 Y2.5636
X2.1141
X2.1473 Y2.5635
X2.1811 Y2.5632
X2.2154 Y2.5628
X2.25 Y2.5623
X2.2848 Y2.5617
X2.2849
X2.3198 Y2.561
X2.3547 Y2.5602
X2.3894 Y2.5594
X2.4239 Y2.5585
X2.4579 Y2.5576
X2.4914 Y2.5566
X2.5242 Y2.5555
X2.5562 Y2.5545
X2.5873 Y2.5534
X2.6174 Y2.5524
X2.6463 Y2.5513
X2.6739 Y2.5502
X2.7001 Y2.5492
X2.7247 Y2.5482
X2.7476 Y2.5472
X2.769 Y2.5462
X2.7888 Y2.5453
X2.8072 Y2.5445
X2.8241 Y2.5437
X2.8398 Y2.543
X2.8542 Y2.5423
X2.8675 Y2.5417
X2.8796 Y2.5411
X2.8907 Y2.5407
X2.9009 Y2.5403
X2.9101 Y2.54
X2.9185 Y2.5398
X2.9262 Y2.5397
X2.9332
X2.9338
X2.9348 Y2.5395
X2.9356 Y2.5389
X2.9362 Y2.5381
X2.9367 Y2.5373
X2.9375 Y2.5368
X2.9385 Y2.5366
X2.9396
X2.9455 Y2.5368
X2.9509 Y2.5371
X2.956 Y2.5375
X2.9607 Y2.5379
X2.9653 Y2.5385
X2.9696 Y2.5393
X2.974 Y2.5401
X2.9783 Y2.5411
X2.9827 Y2.5422
X2.9873 Y2.5434
X2.9921 Y2.5447
X2.9971 Y2.5462
X3.0023 Y2.5477
X3.0079 Y2.5493
X3.0137 Y2.551
X3.0138
X3.0199 Y2.5527
X3.0201
X3.0266 Y2.5544
X3.0268 Y2.5545
X3.0336 Y2.5562
X3.0338 Y2.5563
X3.0411 Y2.558
X3.0414
X3.0492 Y2.5597
X3.0494 Y2.5598
X3.0577 Y2.5614
X3.058 Y2.5615
X3.0669 Y2.5631
X3.0671 Y2.5632
X3.0766 Y2.5647
X3.0769 Y2.5648
X3.0871 Y2.5663
X3.0873
X3.0982 Y2.5678
X3.0984
X3.11 Y2.5691
X3.1103 Y2.5692
X3.1227 Y2.5704
X3.1229
X3.1361 Y2.5716
X3.1363
X3.1504 Y2.5726
X3.1506
X3.1656 Y2.5735
X3.1658
X3.1818 Y2.5742
X3.182
X3.1989 Y2.5748
X3.1991
X3.217 Y2.5751
X3.2172
X3.2361 Y2.5754
X3.2362
X3.256
X3.2561
X3.2766
X3.2767
X3.2979
X3.3198 Y2.5753
X3.3422 Y2.5751
X3.365 Y2.575
X3.3882
X3.4117
X3.4353 Y2.5751
X3.459 Y2.5754
X3.4827 Y2.5758
X3.5064 Y2.5764
X3.5299 Y2.5773
X3.5532 Y2.5784
X3.5762 Y2.5797
X3.5988 Y2.5814
X3.6208 Y2.5834
X3.6423 Y2.5858
X3.6631 Y2.5886
X3.6831 Y2.5917
X3.7023 Y2.5953
X3.7206 Y2.5994
X3.7379 Y2.604
X3.7542 Y2.609
X3.7697 Y2.6145
X3.7844 Y2.6204
X3.7984 Y2.6268
X3.8117 Y2.6335
X3.8245 Y2.6407
X3.8368 Y2.6482
X3.8486 Y2.6561
X3.8601 Y2.6643
X3.8713 Y2.6728
X3.8822 Y2.6816
X3.893 Y2.6908
X3.9037 Y2.7002
X3.9144 Y2.7099
X3.9251 Y2.7199
X3.9358 Y2.73
X3.9467 Y2.7404
X3.9578 Y2.7509
X3.9579
X3.9692 Y2.7616
X3.9693
X3.9809 Y2.7723
X3.9811 Y2.7725
X3.9931 Y2.7833
X3.9933 Y2.7834
X4.0057 Y2.7943
X4.0059 Y2.7944
X4.0188 Y2.8053
X4.0191 Y2.8055
X4.0326 Y2.8165
X4.0328 Y2.8166
X4.0469 Y2.8276
X4.0471 Y2.8278
X4.0617 Y2.8388
X4.0619 Y2.8389
X4.0769 Y2.8498
X4.0771 Y2.85
X4.0925 Y2.8608
X4.0926 Y2.8609
X4.1083 Y2.8717
X4.1085 Y2.8718
X4.1244 Y2.8824
X4.1246 Y2.8825
X4.1407 Y2.8929
X4.1409 Y2.893
X4.1571 Y2.9032
X4.1573 Y2.9033
X4.1736 Y2.9133
X4.1738 Y2.9134
X4.1901 Y2.9231
X4.1903 Y2.9232
X4.2066 Y2.9325
X4.2068 Y2.9326
X4.223 Y2.9416
X4.2231 Y2.9417
X4.2391 Y2.9504
X4.2393 Y2.9505
X4.2551 Y2.9587
X4.2553 Y2.9588
X4.2708 Y2.9665
X4.271 Y2.9667
X4.2862 Y2.9739
X4.2864 Y2.9741
X4.3012 Y2.9808
X4.3014 Y2.9809
X4.3157 Y2.9871
X4.316 Y2.9873
X4.3297 Y2.9929
X4.3301 Y2.993
X4.3432 Y2.998
X4.3436 Y2.9982
X4.3561 Y3.0025
X4.3566 Y3.0027
X4.3683 Y3.0064
X4.3689 Y3.0065
X4.3798 Y3.0095
X4.3805 Y3.0097
X4.3905 Y3.0119
X4.3913 Y3.012
X4.4005 Y3.0135
X4.4014 Y3.0137
X4.4096 Y3.0146
X4.4107
X4.4182 Y3.0149
X4.4194
X4.4261 Y3.0147
X4.4275 Y3.0146
X4.4335 Y3.0138
X4.435 Y3.0136
X4.4404 Y3.0124
X4.442 Y3.0119
X4.4467 Y3.0103
X4.4483 Y3.0097
X4.4525 Y3.0077
X4.4541 Y3.0068
X4.4578 Y3.0045
X4.4593 Y3.0034
X4.4624 Y3.0009
X4.4638 Y2.9997
X4.4665 Y2.9968
X4.4678 Y2.9954
X4.4702 Y2.9922
X4.4712 Y2.9908
X4.4733 Y2.9873
X4.474 Y2.9859
X4.4758 Y2.9822
X4.4763 Y2.9809
X4.4778 Y2.9769
X4.4781 Y2.9759
X4.4794 Y2.9717
X4.4797 Y2.9705
X4.4806 Y2.966
X4.4807 Y2.9653
X4.4815 Y2.9606
X4.4816 Y2.9597
X4.4821 Y2.9549
Y2.9544
X4.4824 Y2.9495
X4.4825 Y2.9487
X4.4826 Y2.9437
Y2.9432
X4.4825 Y2.9382
Y2.9376
X4.4822 Y2.9325
Y2.9321
X4.4818 Y2.927
X4.4817 Y2.9265
X4.4812 Y2.9215
X4.4811 Y2.9213
X4.4805 Y2.9163
X4.4804 Y2.9158
X4.4796 Y2.9108
Y2.9107
X4.4788 Y2.9058
X4.4787 Y2.9054
X4.4778 Y2.9005
Y2.9004
X4.4768 Y2.8955
X4.4767 Y2.8953
X4.4757 Y2.8904
X4.4756 Y2.8903
X4.4745 Y2.8854
Y2.8853
X4.4734 Y2.8804
X4.4722 Y2.8755
Y2.8754
X4.471 Y2.8706
X4.4699 Y2.8658
X4.4688 Y2.8609
X4.4677 Y2.8561
X4.4666 Y2.8512
X4.4656 Y2.8464
X4.4647 Y2.8416
X4.4638 Y2.8367
X4.4631 Y2.8318
X4.4624 Y2.827
X4.4618 Y2.822
X4.4614 Y2.817
X4.4611 Y2.812
X4.4609 Y2.8068
X4.4608 Y2.8017
X4.4609 Y2.7965
X4.4611 Y2.7912
X4.4614 Y2.7858
X4.4618 Y2.7803
X4.4623 Y2.7749
X4.463 Y2.7693
X4.4637 Y2.7636
X4.4646 Y2.758
X4.4655 Y2.7522
X4.4665 Y2.7463
X4.4676 Y2.7404
X4.4688 Y2.7344
X4.47 Y2.7284
X4.4713 Y2.7222
X4.4726 Y2.716
X4.474 Y2.7098
X4.4754 Y2.7035
X4.4768 Y2.6972
X4.4783 Y2.6907
X4.4798 Y2.6842
X4.4813 Y2.6776
X4.4828 Y2.671
X4.484 Y2.6657
X4.4853 Y2.6604
X4.4867 Y2.6551
X4.4882 Y2.6498
X4.4898 Y2.6445
X4.4917 Y2.6392
X4.4937 Y2.6339
X4.4961 Y2.6286
X4.4987 Y2.6233
X4.5017 Y2.6179
X4.5051 Y2.6126
X4.5089 Y2.6072
X4.5132 Y2.6018
X4.518 Y2.5964
X4.5234 Y2.591
X4.5295 Y2.5855
X4.5362 Y2.58
X4.5436 Y2.5745
X4.5518 Y2.569
X4.5609 Y2.5635
X4.5708 Y2.558
X4.5816 Y2.5525
X4.5933 Y2.5469
X4.6062 Y2.5413
G2 X4.6156 Y2.527 I-0.0062 J-0.0143
G1 Y2.
G2 X4.6 Y1.9844 I-0.0156 J0.
G1 X4.5594
X4.5191 Y1.9843
X4.4791
X4.4394
X4.4
X4.3609
X4.3222
X4.2837
X4.2457 Y1.9842
X4.2079
X4.1705
X4.1335
X4.0968
X4.0605
X4.0245
X3.9889
X3.9537
X3.9189
X3.8845
X3.8505
X3.8169
X3.7837
X3.7509
X3.7185
X3.5278
X3.3528
X3.1927 Y1.9843
X3.0469 Y1.9844
X2.9147 Y1.9845
X2.7955 Y1.9847
X2.6885 Y1.9848
X2.593 Y1.985
X2.5085 Y1.9852
X2.4342 Y1.9854
X2.3693 Y1.9856
X2.3134 Y1.9858
X2.2655 Y1.9861
X2.2252 Y1.9863
X2.1917 Y1.9866
X2.1642 Y1.9868
X2.1422 Y1.987
X2.125 Y1.9873
X2.1249
X2.1118 Y1.9875
X2.1117
X2.102 Y1.9877
X2.1019
X2.095 Y1.9879
X2.0948
X2.0899 Y1.9881
X2.0897
X2.086 Y1.9883
X2.0829 Y1.9884
X2.08 Y1.9886
X2.077 Y1.9887
X2.0741 Y1.9888
X2.0711 Y1.9889
X2.0681
X2.065 Y1.989
X2.062 Y1.9891
X2.0589 Y1.9892
X2.0558
X2.0526 Y1.9893
X2.0494 Y1.9894
X2.0462 Y1.9895
X2.043 Y1.9896
X2.0429
X2.0397 Y1.9897
X2.0365 Y1.9898
X2.0364
X2.0331 Y1.9899
X2.033
X2.0298 Y1.9901
X2.0297
X2.0264 Y1.9903
X2.0263
X2.023 Y1.9905
X2.0228
X2.0195 Y1.9907
X2.0194 Y1.9908
X2.016 Y1.991
X2.0159
X2.0125 Y1.9913
X2.0123
X2.0089 Y1.9917
X2.0088
X2.0054 Y1.9921
X2.0052
X2.0017 Y1.9925
X2.0015
X1.998 Y1.993
X1.9978
X1.9943 Y1.9936
X1.9941
X1.9906 Y1.9942
X1.9904
X1.987 Y1.9948
X1.9867 Y1.9949
X1.9833 Y1.9956
X1.983
X1.9796 Y1.9963
X1.9794 Y1.9964
X1.976 Y1.9972
X1.9757
X1.9724 Y1.9981
X1.9721 Y1.9982
X1.9688 Y1.999
X1.9685 Y1.9991
X1.9652 Y2.0001
X1.9649 Y2.0002
X1.9618 Y2.0012
X1.9614 Y2.0013
X1.9583 Y2.0024
X1.958 Y2.0025
X1.955 Y2.0036
X1.9545 Y2.0038
X1.9516 Y2.0049
X1.9512 Y2.0051
X1.9484 Y2.0063
X1.9479 Y2.0065
X1.9452 Y2.0078
X1.9447 Y2.0081
X1.9421 Y2.0094
X1.9416 Y2.0097
X1.9391 Y2.0111
X1.9385 Y2.0115
X1.9362 Y2.0129
X1.9356 Y2.0133
X1.9334 Y2.0148
X1.9327 Y2.0153
X1.9306 Y2.0169
X1.93 Y2.0175
X1.928 Y2.0191
X1.9273 Y2.0198
X1.9256 Y2.0215
X1.9248 Y2.0222
X1.9232 Y2.024
X1.9226 Y2.0247
X1.9211 Y2.0266
X1.9205 Y2.0274
X1.9191 Y2.0294
X1.9186 Y2.0301
X1.9173 Y2.0322
X1.9169 Y2.033
X1.9157 Y2.0351
X1.9153 Y2.0359
X1.9143 Y2.0381
X1.914 Y2.0388
X1.913 Y2.0411
X1.9127 Y2.0418
X1.9119 Y2.0441
X1.9117 Y2.0449
X1.911 Y2.0473
X1.9108 Y2.048
X1.9102 Y2.0504
X1.91 Y2.0511
X1.9095 Y2.0535
X1.9094 Y2.0543
X1.9091 Y2.0567
X1.909 Y2.0574
X1.9087 Y2.0599
X1.9086 Y2.0606
X1.9085 Y2.0631
Y2.0638
X1.9084 Y2.0663
Y2.067
X1.9085 Y2.0695
Y2.0702
X1.9087 Y2.0727
X1.9088 Y2.0733
X1.9091 Y2.0758
Y2.0765
X1.9095 Y2.079
X1.9096 Y2.0796
X1.9101 Y2.0821
X1.9103 Y2.0828
X1.9109 Y2.0852
X1.9111 Y2.0859
X1.9118 Y2.0883
X1.912 Y2.0889
X1.9128 Y2.0913
X1.9131 Y2.092
X1.914 Y2.0943
X1.9143 Y2.0949
X1.9153 Y2.0972
X1.9156 Y2.0978
X1.9167 Y2.1
X1.9171 Y2.1007
X1.9183 Y2.1028
X1.9186 Y2.1034
X1.92 Y2.1055
X1.9203 Y2.1061
X1.9218 Y2.1082
X1.9222 Y2.1087
X1.9237 Y2.1107
X1.9241 Y2.1112
X1.9257 Y2.1132
X1.9261 Y2.1137
X1.9279 Y2.1156
X1.9283 Y2.1161
X1.9301 Y2.118
X1.9305 Y2.1184
X1.9325 Y2.1202
X1.9329 Y2.1206
X1.9349 Y2.1224
X1.9353 Y2.1228
X1.9374 Y2.1245
X1.9378 Y2.1248
X1.9401 Y2.1265
X1.9405 Y2.1269
X1.9428 Y2.1285
X1.9432 Y2.1288
X1.9456 Y2.1304
X1.946 Y2.1307
X1.9484 Y2.1322
X1.9488 Y2.1325
X1.9514 Y2.134
X1.9518 Y2.1342
X1.9544 Y2.1357
X1.9548 Y2.1359
X1.9576 Y2.1373
X1.9579 Y2.1375
X1.9608 Y2.1389
X1.9611 Y2.139
X1.964 Y2.1404
X1.9644 Y2.1405
X1.9674 Y2.1418
X1.9677 Y2.1419
X1.9708 Y2.1432
X1.9711 Y2.1433
X1.9743 Y2.1445
X1.9746 Y2.1446
X1.9779 Y2.1458
X1.9782 Y2.1459
X1.9815 Y2.147
X1.9818
X1.9852 Y2.1481
X1.9854 Y2.1482
X1.9889 Y2.1492
X1.9891
X1.9926 Y2.1502
X1.9928 Y2.1503
X1.9963 Y2.1512
X1.9965
X2. Y2.1521
X2.0002
X2.0037 Y2.153
X2.0039
X2.0074 Y2.1538
X2.0076
X2.0111 Y2.1546
X2.0112
X2.0147 Y2.1553
X2.0149
X2.0183 Y2.156
X2.0184
X2.0219 Y2.1566
X2.022 Y2.1567
X2.0253 Y2.1573
X2.0254
X2.0287 Y2.1578
X2.0288 Y2.1579
X2.032 Y2.1584
X2.0321
X2.0352 Y2.1589
X2.0353
X2.0384 Y2.1594
X2.0413 Y2.1598
X2.0414
X2.0442 Y2.1602
X2.0443
X2.0469 Y2.1606
X2.047
X2.0495 Y2.161
X2.0519 Y2.1613
X2.0542 Y2.1616
X2.0562 Y2.1619
X2.0581 Y2.1621
X2.0599 Y2.1623
X2.0615 Y2.1626
X2.0631 Y2.1628
X2.0646 Y2.163
X2.066 Y2.1632
X2.0675 Y2.1633
Y2.1634
X2.0689 Y2.1635
X2.0704 Y2.1637
X2.0719 Y2.164
X2.0735 Y2.1642
X2.0752 Y2.1644
X2.077 Y2.1646
X2.079 Y2.1649
X2.0811 Y2.1652
X2.0834 Y2.1655
X2.086 Y2.1659
X2.0887 Y2.1663
X2.0918 Y2.1667
X2.0951 Y2.1671
X2.0987 Y2.1676
X2.1026 Y2.1682
X2.1069 Y2.1687
X2.1093 Y2.1691
X2.1117 Y2.1694
X2.1143 Y2.1698
X2.1169 Y2.1701
X2.1196 Y2.1705
X2.1223 Y2.1709
X2.1251 Y2.1713
X2.1279 Y2.1717
X2.1307 Y2.1721
X2.1336 Y2.1725
X2.1365 Y2.173
X2.1393 Y2.1734
X2.1422 Y2.1739
X2.1451 Y2.1743
X2.1479 Y2.1748
X2.1507 Y2.1753
X2.1535 Y2.1758
X2.1562 Y2.1763
X2.1589 Y2.1768
X2.1615 Y2.1773
X2.1641 Y2.1779
X2.1665 Y2.1784
X2.1688 Y2.1789
X2.1711 Y2.1795
X2.1732 Y2.18
X2.1752 Y2.1805
X2.1771 Y2.1811
X2.1777 Y2.1812
X2.1736 Y2.1821
X2.1677 Y2.1832
X2.1609 Y2.1843
X2.1532 Y2.1853
X2.1448 Y2.1863
X2.1356 Y2.1873
X2.1259 Y2.1884
X2.1156 Y2.1894
X2.1049 Y2.1904
X2.0937 Y2.1914
X2.0822 Y2.1925
X2.0706 Y2.1935
X2.0588 Y2.1946
X2.0469 Y2.1957
X2.0352 Y2.1968
X2.0235 Y2.1979
X2.0121 Y2.199
X2.012
X2.0009 Y2.2002
X1.9902 Y2.2013
X1.9901
X1.9799 Y2.2025
X1.9798
X1.9702 Y2.2037
X1.97
X1.9611 Y2.2049
X1.9608 Y2.205
X1.9527 Y2.2062
X1.9524
X1.945 Y2.2075
X1.9447
X1.9382 Y2.2088
X1.9378 Y2.2089
X1.9322 Y2.2101
X1.9317 Y2.2102
X1.9269 Y2.2114
X1.9263 Y2.2116
X1.9222 Y2.2128
X1.9215 Y2.213
X1.9179 Y2.2143
X1.9171 Y2.2146
X1.914 Y2.2159
X1.9131 Y2.2163
X1.9104 Y2.2176
X1.9095 Y2.2181
X1.9071 Y2.2195
X1.9063 Y2.22
X1.9041 Y2.2214
X1.9034 Y2.2219
X1.9014 Y2.2234
X1.901 Y2.2238
X1.899 Y2.2254
X1.8988 Y2.2256
X1.8968 Y2.2273
X1.8947 Y2.229
X1.8925 Y2.2307
X1.8902 Y2.2325
X1.8875 Y2.2344
X1.8846 Y2.2363
X1.8811 Y2.2383
X1.8772 Y2.2404
X1.8727 Y2.2426
X1.8675 Y2.2448
X1.8615 Y2.2472
X1.8547 Y2.2497
X1.847 Y2.2522
X1.8384 Y2.2548
X1.8288 Y2.2575
X1.8185 Y2.2603
X1.8074 Y2.2631
X1.7958 Y2.2661
X1.7835 Y2.2691
X1.7708 Y2.2722
X1.7578 Y2.2754
X1.7444 Y2.2787
X1.7308 Y2.2821
X1.7171 Y2.2856
X1.717 Y2.2857
X1.7033 Y2.2892
X1.7032 Y2.2893
X1.6895 Y2.293
X1.6894
X1.6758 Y2.2968
X1.6756 Y2.2969
X1.6622 Y2.3008
X1.662
X1.6489 Y2.3049
X1.6487
X1.6359 Y2.3091
X1.6356 Y2.3092
X1.6232 Y2.3135
X1.6229 Y2.3136
X1.611 Y2.318
X1.6107 Y2.3181
X1.5994 Y2.3227
X1.599 Y2.3228
X1.5884 Y2.3274
X1.5879 Y2.3277
X1.5782 Y2.3324
X1.5775 Y2.3327
X1.5686 Y2.3375
X1.5679 Y2.3379
X1.56 Y2.3428
X1.5591 Y2.3433
X1.5522 Y2.3482
X1.5513 Y2.3489
X1.5453 Y2.3538
X1.5444 Y2.3546
X1.5394 Y2.3595
X1.5383 Y2.3606
X1.5342 Y2.3654
X1.5332 Y2.3668
X1.5299 Y2.3716
X1.5289 Y2.3732
X1.5264 Y2.3781
X1.5256 Y2.3799
X1.5238 Y2.3848
X1.5232 Y2.3867
X1.5221 Y2.3916
X1.5218 Y2.3935
X1.5213 Y2.3984
X1.5212 Y2.4003
X1.5213 Y2.4052
X1.5214 Y2.4069
X1.5221 Y2.4119
X1.5224 Y2.4136
X1.5236 Y2.4187
X1.5241 Y2.4202
X1.5259 Y2.4254
X1.5264 Y2.4267
X1.5288 Y2.432
X1.5294 Y2.4331
X1.5324 Y2.4384
X1.5329 Y2.4394
X1.5364 Y2.4448
X1.537 Y2.4456
X1.541 Y2.4509
X1.5416 Y2.4516
X1.5461 Y2.457
X1.5467 Y2.4576
X1.5517 Y2.4629
X1.5522 Y2.4635
X1.5577 Y2.4687
X1.5582 Y2.4692
X1.5641 Y2.4744
X1.5646 Y2.4748
X1.5709 Y2.4799
X1.5714 Y2.4803
X1.5781 Y2.4853
X1.5786 Y2.4857
X1.5857 Y2.4905
X1.5862 Y2.4908
X1.5936 Y2.4955
X1.5941 Y2.4958
X1.6019 Y2.5003
X1.6024 Y2.5006
X1.6106 Y2.5049
X1.6111 Y2.5052
X1.6197 Y2.5093
X1.6202 Y2.5096
X1.6294 Y2.5136
X1.6299 Y2.5138
X1.6396 Y2.5177
X1.6401 Y2.5178
X1.6503 Y2.5215
X1.6508 Y2.5217
X1.6617 Y2.5252
X1.6621 Y2.5253
X1.6737 Y2.5287
X1.6741 Y2.5288
X1.6864 Y2.532
X1.6868 Y2.5321
X1.6998 Y2.5351
X1.7002 Y2.5352
X1.714 Y2.538
X1.7144 Y2.5381
X1.7291 Y2.5408
X1.7294
X1.745 Y2.5433
X1.7452 Y2.5434
X1.7617 Y2.5457
X1.762 Y2.5458
X1.7795 Y2.5479
X1.7797 Y2.548
X1.7983 Y2.5499
X1.7985 Y2.55
X1.8181 Y2.5518
X1.8183
X1.8389 Y2.5535
X1.8391
X1.861 Y2.5549
X1.8611 Y2.555
X1.8842 Y2.5562
X1.8843 Y2.5563
X1.9086 Y2.5574
X1.9087
X1.9343 Y2.5583
X1.9344
X1.9613 Y2.5591
X1.9615
X1.9897 Y2.5597
X1.9898
X2.0193 Y2.5601
X2.0499 Y2.5604
X2.05
X2.0816 Y2.5605
X2.1141
X2.1473 Y2.5603
X2.1811 Y2.5601
X2.2153 Y2.5597
X2.2154
X2.25 Y2.5592
X2.2848 Y2.5586
X2.3197 Y2.5579
X2.3546 Y2.5571
X2.3893 Y2.5563
X2.4238 Y2.5554
X2.4578 Y2.5544
X2.4913 Y2.5534
X2.5241 Y2.5524
X2.5561 Y2.5514
X2.5872 Y2.5503
X2.6173 Y2.5492
X2.6462 Y2.5482
X2.6738 Y2.5471
X2.6999 Y2.5461
X2.7245 Y2.545
X2.7475 Y2.5441
X2.7688 Y2.5431
X2.7887 Y2.5422
X2.807 Y2.5414
X2.824 Y2.5406
X2.8397 Y2.5398
X2.8541 Y2.5392
X2.8673 Y2.5386
X2.8795 Y2.538
X2.8906 Y2.5376
X2.9008 Y2.5372
X2.91 Y2.5369
X2.9185 Y2.5367
X2.9262 Y2.5366
X2.9332 Y2.5365
X2.9385 Y2.5366
X2.9397 Y2.5369
X2.9407 Y2.5375
X2.9414 Y2.5386
X2.9416 Y2.5398
Y2.5429
X2.9415 Y2.5441 Z0.0165
Y2.5451 Z0.0172
Y2.5458 Z0.0182
Y2.546 Z0.0194
G0 Z0.2625
X2.9305 Y2.549
G1 Z0.0856 F1.8
Z0.0031
X2.9306 Y2.5488 Z0.0019 F14.2
Y2.5481 Z0.0009
Y2.5471 Z0.0002
Y2.5459 Z0.
Y2.5428
X2.9309 Y2.5416
X2.9316 Y2.5406
X2.9326 Y2.5399
X2.9338 Y2.5397
X2.9396
X2.9454 Y2.5399
X2.9507 Y2.5402
X2.9557 Y2.5406
X2.9604 Y2.541
X2.9648 Y2.5416
X2.9691 Y2.5423
X2.9733 Y2.5432
X2.9776 Y2.5441
X2.982 Y2.5452
X2.9865 Y2.5464
X2.9912 Y2.5477
X2.9962 Y2.5492
X3.0015 Y2.5507
X3.007 Y2.5523
X3.0071
X3.0129 Y2.554
X3.013
X3.0191 Y2.5557
X3.0193 Y2.5558
X3.0258 Y2.5575
X3.026
X3.0329 Y2.5592
X3.0331 Y2.5593
X3.0404 Y2.561
X3.0407 Y2.5611
X3.0485 Y2.5628
X3.0488
X3.0571 Y2.5645
X3.0574 Y2.5646
X3.0663 Y2.5662
X3.0666
X3.0761 Y2.5678
X3.0764 Y2.5679
X3.0866 Y2.5694
X3.0869
X3.0978 Y2.5709
X3.0981
X3.1097 Y2.5723
X3.11
X3.1224 Y2.5735
X3.1226 Y2.5736
X3.1358 Y2.5747
X3.1361
X3.1502 Y2.5757
X3.1504
X3.1654 Y2.5766
X3.1657
X3.1816 Y2.5773
X3.1819
X3.1988 Y2.5779
X3.199
X3.217 Y2.5783
X3.2172
X3.2361 Y2.5785
X3.2362
X3.256 Y2.5786
X3.2561
X3.2766
X3.2767
X3.2979 Y2.5785
X3.3198 Y2.5784
X3.3422 Y2.5783
X3.365 Y2.5782
X3.3882 Y2.5781
X3.4116
X3.4353 Y2.5782
X3.459 Y2.5785
X3.4827 Y2.5789
X3.5063 Y2.5796
X3.5298 Y2.5804
X3.5531 Y2.5815
X3.576 Y2.5829
X3.5985 Y2.5845
X3.6205 Y2.5865
X3.6419 Y2.5889
X3.6626 Y2.5917
X3.6826 Y2.5948
X3.7017 Y2.5984
X3.7199 Y2.6024
X3.737 Y2.607
X3.7532 Y2.612
X3.7686 Y2.6174
X3.7832 Y2.6233
X3.797 Y2.6296
X3.8103 Y2.6363
X3.8229 Y2.6434
X3.8351 Y2.6508
X3.8468 Y2.6586
X3.8582 Y2.6668
X3.8693 Y2.6753
X3.8802 Y2.6841
X3.891 Y2.6932
X3.9016 Y2.7026
X3.9123 Y2.7122
X3.9229 Y2.7221
X3.9337 Y2.7323
X3.9446 Y2.7426
Y2.7427
X3.9557 Y2.7532
X3.9558
X3.9671 Y2.7638
X3.9672 Y2.7639
X3.9788 Y2.7746
X3.979 Y2.7748
X3.991 Y2.7856
X3.9912 Y2.7858
X4.0037 Y2.7966
X4.0039 Y2.7968
X4.0168 Y2.8077
X4.0171 Y2.808
X4.0307 Y2.8189
X4.0309 Y2.8191
X4.045 Y2.8301
X4.0452 Y2.8303
X4.0598 Y2.8413
X4.06 Y2.8414
X4.075 Y2.8524
X4.0753 Y2.8525
X4.0907 Y2.8634
X4.0909 Y2.8635
X4.1065 Y2.8743
X4.1068 Y2.8744
X4.1227 Y2.885
X4.1229 Y2.8851
X4.139 Y2.8955
X4.1392 Y2.8957
X4.1555 Y2.9059
X4.1557 Y2.906
X4.172 Y2.916
X4.1722 Y2.9161
X4.1886 Y2.9257
X4.1888 Y2.9259
X4.205 Y2.9352
X4.2053 Y2.9354
X4.2214 Y2.9444
X4.2216 Y2.9445
X4.2376 Y2.9531
X4.2379 Y2.9532
X4.2537 Y2.9615
X4.2539 Y2.9616
X4.2694 Y2.9693
X4.2697 Y2.9695
X4.2848 Y2.9768
X4.2851 Y2.9769
X4.2999 Y2.9837
X4.3002 Y2.9838
X4.3144 Y2.99
X4.3148 Y2.9902
X4.3285 Y2.9958
X4.329 Y2.996
X4.3421 Y3.001
X4.3426 Y3.0011
X4.355 Y3.0055
X4.3556 Y3.0057
X4.3674 Y3.0093
X4.3681 Y3.0096
X4.379 Y3.0125
X4.3798 Y3.0127
X4.3899 Y3.0149
X4.3908 Y3.0151
X4.3999 Y3.0166
X4.401 Y3.0168
X4.4093 Y3.0177
X4.4106 Y3.0178
X4.4181 Y3.018
X4.4195
X4.4263 Y3.0178
X4.4279 Y3.0177
X4.4339 Y3.0169
X4.4356 Y3.0166
X4.441 Y3.0154
X4.443 Y3.0149
X4.4477 Y3.0133
X4.4497 Y3.0125
X4.4538 Y3.0105
X4.4558 Y3.0095
X4.4594 Y3.0072
X4.4613 Y3.0059
X4.4644 Y3.0033
X4.466 Y3.0018
X4.4688 Y2.999
X4.4703 Y2.9973
X4.4727 Y2.9941
X4.4738 Y2.9924
X4.4759 Y2.9889
X4.4768 Y2.9873
X4.4786 Y2.9835
X4.4792 Y2.982
X4.4807 Y2.978
X4.4811 Y2.9768
X4.4823 Y2.9725
X4.4827 Y2.9711
X4.4837 Y2.9667
X4.4838 Y2.9658
X4.4846 Y2.9611
X4.4847 Y2.96
X4.4852 Y2.9552
Y2.9546
X4.4856 Y2.9497
Y2.9488
X4.4857 Y2.9438
Y2.9432
X4.4856 Y2.9381
Y2.9374
X4.4853 Y2.9323
Y2.9319
X4.4849 Y2.9268
X4.4848 Y2.9262
X4.4843 Y2.9212
X4.4842 Y2.9209
X4.4836 Y2.9159
X4.4835 Y2.9153
X4.4827 Y2.9103
Y2.9102
X4.4819 Y2.9053
X4.4818 Y2.9048
X4.4809 Y2.8999
X4.4808 Y2.8998
X4.4798 Y2.8949
Y2.8946
X4.4787 Y2.8897
Y2.8896
X4.4776 Y2.8847
X4.4775 Y2.8846
X4.4764 Y2.8797
X4.4753 Y2.8748
X4.4752 Y2.8747
X4.4741 Y2.8699
X4.4729 Y2.8651
X4.4718 Y2.8602
X4.4707 Y2.8554
X4.4697 Y2.8506
X4.4687 Y2.8458
X4.4678 Y2.8411
X4.4669 Y2.8362
X4.4661 Y2.8314
X4.4655 Y2.8266
X4.465 Y2.8217
X4.4645 Y2.8168
X4.4642 Y2.8118
X4.464 Y2.8068
X4.4639 Y2.8017
X4.464 Y2.7965
X4.4642 Y2.7913
X4.4645 Y2.786
X4.4649 Y2.7806
X4.4655 Y2.7752
X4.4661 Y2.7697
X4.4668 Y2.764
X4.4677 Y2.7584
X4.4686 Y2.7527
X4.4696 Y2.7468
X4.4707 Y2.7409
X4.4718 Y2.735
X4.473 Y2.729
X4.4743 Y2.7229
X4.4757 Y2.7167
X4.477 Y2.7105
X4.4784 Y2.7042
X4.4799 Y2.6978
X4.4813 Y2.6914
X4.4828 Y2.6849
X4.4843 Y2.6783
X4.4859 Y2.6717
X4.4871 Y2.6664
X4.4884 Y2.6612
X4.4897 Y2.6559
X4.4912 Y2.6507
X4.4928 Y2.6455
X4.4946 Y2.6403
X4.4966 Y2.6351
X4.4989 Y2.6299
X4.5015 Y2.6248
X4.5044 Y2.6195
X4.5077 Y2.6144
X4.5114 Y2.6091
X4.5156 Y2.6038
X4.5203 Y2.5986
X4.5256 Y2.5932
X4.5315 Y2.5879
X4.5381 Y2.5825
X4.5454 Y2.5771
X4.5535 Y2.5717
X4.5624 Y2.5662
X4.5723 Y2.5607
X4.583 Y2.5553
X4.5946 Y2.5498
X4.6075 Y2.5442
G2 X4.6188 Y2.527 I-0.0075 J-0.0172
G1 Y2.
G2 X4.6 Y1.9812 I-0.0188 J0.
G1 X4.5594
X4.5191
X4.4791
X4.4394
X4.4
X4.3609
X4.3222 Y1.9811
X4.2837
X4.2457
X4.2079
X4.1705
X4.1335
X4.0968
X4.0605
X4.0245
X3.9889
X3.9537 Y1.981
X3.9189
X3.8845
X3.8505
X3.8169
X3.7837
X3.7509
X3.7185
X3.5278
X3.3528 Y1.9811
X3.1927 Y1.9812
X3.0469 Y1.9813
X2.9147 Y1.9814
X2.7955 Y1.9815
X2.6885 Y1.9817
X2.593 Y1.9819
X2.5085 Y1.9821
X2.4342 Y1.9823
X2.3693 Y1.9825
X2.3134 Y1.9827
X2.2655 Y1.983
X2.2252 Y1.9832
X2.1916 Y1.9834
X2.1642 Y1.9837
X2.1422 Y1.9839
X2.1249 Y1.9841
X2.1118 Y1.9844
X2.1117
X2.102 Y1.9846
X2.1019
X2.0949 Y1.9848
X2.0947
X2.0897 Y1.985
X2.0895
X2.0859 Y1.9851
X2.0858
X2.0828 Y1.9853
X2.0799 Y1.9854
X2.0769 Y1.9855
X2.074 Y1.9856
X2.071 Y1.9857
X2.068 Y1.9858
X2.065 Y1.9859
X2.0619 Y1.986
X2.0588
X2.0557 Y1.9861
X2.0525 Y1.9862
X2.0494 Y1.9863
X2.0462
X2.0461
X2.0429 Y1.9864
X2.0428
X2.0396 Y1.9865
X2.0363 Y1.9867
X2.0362
X2.033 Y1.9868
X2.0329
X2.0296 Y1.987
X2.0295
X2.0262 Y1.9872
X2.0261
X2.0228 Y1.9874
X2.0226
X2.0193 Y1.9876
X2.0191
X2.0158 Y1.9879
X2.0156
X2.0122 Y1.9882
X2.012
X2.0086 Y1.9886
X2.0084
X2.005 Y1.989
X2.0048
X2.0013 Y1.9894
X2.0011
X1.9976 Y1.9899
X1.9974
X1.9939 Y1.9905
X1.9936
X1.9901 Y1.9911
X1.9899
X1.9864 Y1.9918
X1.9861
X1.9827 Y1.9925
X1.9824
X1.979 Y1.9933
X1.9786
X1.9753 Y1.9941
X1.9749 Y1.9942
X1.9716 Y1.9951
X1.9713
X1.968 Y1.996
X1.9676 Y1.9961
X1.9644 Y1.9971
X1.964 Y1.9972
X1.9608 Y1.9982
X1.9604 Y1.9983
X1.9573 Y1.9994
X1.9569 Y1.9996
X1.9539 Y2.0007
X1.9534 Y2.0009
X1.9505 Y2.002
X1.95 Y2.0022
X1.9471 Y2.0035
X1.9466 Y2.0037
X1.9439 Y2.005
X1.9433 Y2.0053
X1.9407 Y2.0066
X1.9401 Y2.007
X1.9376 Y2.0084
X1.9369 Y2.0088
X1.9345 Y2.0103
X1.9338 Y2.0107
X1.9316 Y2.0123
X1.9308 Y2.0128
X1.9287 Y2.0144
X1.9279 Y2.0151
X1.926 Y2.0167
X1.9251 Y2.0175
X1.9234 Y2.0192
X1.9225 Y2.0201
X1.9209 Y2.0219
X1.9202 Y2.0228
X1.9186 Y2.0247
X1.918 Y2.0256
X1.9166 Y2.0276
X1.916 Y2.0285
X1.9147 Y2.0305
X1.9142 Y2.0315
X1.913 Y2.0336
X1.9125 Y2.0345
X1.9115 Y2.0367
X1.9111 Y2.0376
X1.9102 Y2.0399
X1.9098 Y2.0408
X1.909 Y2.0431
X1.9087 Y2.044
X1.908 Y2.0464
X1.9078 Y2.0472
X1.9072 Y2.0496
X1.907 Y2.0505
X1.9065 Y2.0529
X1.9063 Y2.0538
X1.906 Y2.0563
X1.9059 Y2.0571
X1.9056 Y2.0596
X1.9055 Y2.0604
X1.9054 Y2.0629
X1.9053 Y2.0637
Y2.0662
Y2.0671
X1.9054 Y2.0696
Y2.0704
X1.9056 Y2.0729
X1.9057 Y2.0737
X1.9059 Y2.0762
X1.9061 Y2.077
X1.9064 Y2.0795
X1.9066 Y2.0802
X1.9071 Y2.0827
X1.9073 Y2.0836
X1.9079 Y2.086
X1.9081 Y2.0868
X1.9088 Y2.0892
X1.909 Y2.0899
X1.9098 Y2.0923
X1.9102 Y2.0932
X1.9111 Y2.0954
X1.9114 Y2.0962
X1.9124 Y2.0985
X1.9128 Y2.0993
X1.9139 Y2.1015
X1.9143 Y2.1022
X1.9156 Y2.1044
X1.916 Y2.1051
X1.9173 Y2.1072
X1.9178 Y2.1079
X1.9192 Y2.1099
X1.9197 Y2.1106
X1.9212 Y2.1126
X1.9217 Y2.1132
X1.9233 Y2.1152
X1.9238 Y2.1158
X1.9255 Y2.1177
X1.926 Y2.1182
X1.9279 Y2.1201
X1.9284 Y2.1206
X1.9303 Y2.1225
X1.9308 Y2.1229
X1.9328 Y2.1247
X1.9333 Y2.1252
X1.9354 Y2.1269
X1.9359 Y2.1273
X1.9381 Y2.129
X1.9386 Y2.1294
X1.9409 Y2.131
X1.9414 Y2.1314
X1.9438 Y2.133
X1.9443 Y2.1333
X1.9468 Y2.1349
X1.9472 Y2.1352
X1.9498 Y2.1367
X1.9503 Y2.1369
X1.9529 Y2.1384
X1.9534 Y2.1387
X1.9561 Y2.1401
X1.9566 Y2.1403
X1.9594 Y2.1417
X1.9598 Y2.1419
X1.9628 Y2.1432
X1.9632 Y2.1434
X1.9662 Y2.1447
X1.9666 Y2.1448
X1.9697 Y2.1461
X1.9701 Y2.1462
X1.9732 Y2.1474
X1.9736 Y2.1476
X1.9769 Y2.1487
X1.9772 Y2.1488
X1.9805 Y2.1499
X1.9809 Y2.15
X1.9842 Y2.1511
X1.9845 Y2.1512
X1.988 Y2.1522
X1.9883 Y2.1523
X1.9918 Y2.1532
X1.992 Y2.1533
X1.9955 Y2.1542
X1.9957
X1.9993 Y2.1551
X1.9995 Y2.1552
X2.003 Y2.156
X2.0032
X2.0068 Y2.1568
X2.0069 Y2.1569
X2.0104 Y2.1576
X2.0106 Y2.1577
X2.0141 Y2.1584
X2.0143
X2.0177 Y2.1591
X2.0179
X2.0213 Y2.1597
X2.0214
X2.0248 Y2.1603
X2.0249 Y2.1604
X2.0282 Y2.1609
X2.0283
X2.0315 Y2.1615
X2.0316
X2.0348 Y2.162
X2.0349
X2.0379 Y2.1625
X2.038
X2.0409 Y2.1629
X2.041
X2.0438 Y2.1633
X2.0465 Y2.1637
X2.0466
X2.0491 Y2.1641
X2.0515 Y2.1644
X2.0537 Y2.1647
X2.0558 Y2.1649
X2.0577 Y2.1652
X2.0595 Y2.1654
X2.0611 Y2.1657
X2.0627 Y2.1659
X2.0642 Y2.1661
X2.0656 Y2.1663
X2.067 Y2.1664
X2.0671 Y2.1665
X2.0685 Y2.1666
X2.07 Y2.1668
X2.0715 Y2.167
X2.0731 Y2.1673
X2.0748 Y2.1675
X2.0766 Y2.1677
X2.0785 Y2.168
X2.0807 Y2.1683
X2.083 Y2.1686
X2.0856 Y2.169
X2.0883 Y2.1693
X2.0913 Y2.1698
X2.0947 Y2.1702
X2.0982 Y2.1707
X2.1022 Y2.1713
X2.1065 Y2.1718
X2.1088 Y2.1722
X2.1113 Y2.1725
X2.1138 Y2.1729
X2.1164 Y2.1732
X2.1191 Y2.1736
X2.1219 Y2.174
X2.1246 Y2.1744
X2.1274 Y2.1748
X2.1303 Y2.1752
X2.1331 Y2.1756
X2.136 Y2.1761
X2.1388 Y2.1765
X2.1417 Y2.177
X2.1446 Y2.1774
X2.1474 Y2.1779
X2.1502 Y2.1784
X2.153 Y2.1789
X2.1557 Y2.1794
X2.1583 Y2.1799
X2.1609 Y2.1804
X2.1628 Y2.1808
X2.1604 Y2.1812
X2.1528 Y2.1822
X2.1444 Y2.1832
X2.1353 Y2.1842
X2.1256 Y2.1852
X2.1153 Y2.1863
X2.1046 Y2.1873
X2.0934 Y2.1883
X2.082 Y2.1894
X2.0703 Y2.1904
X2.0585 Y2.1915
X2.0467 Y2.1926
X2.0349 Y2.1937
X2.0232 Y2.1948
X2.0118 Y2.1959
X2.0117
X2.0006 Y2.197
X2.0005 Y2.1971
X1.9899 Y2.1982
X1.9897
X1.9796 Y2.1994
X1.9794
X1.9698 Y2.2006
X1.9696
X1.9607 Y2.2018
X1.9604 Y2.2019
X1.9522 Y2.2031
X1.9518 Y2.2032
X1.9445 Y2.2044
X1.9441 Y2.2045
X1.9376 Y2.2057
X1.9371 Y2.2058
X1.9316 Y2.207
X1.931 Y2.2072
X1.9262 Y2.2084
X1.9254 Y2.2086
X1.9213 Y2.2098
X1.9204 Y2.2101
X1.9169 Y2.2113
X1.9159 Y2.2117
X1.9128 Y2.213
X1.9117 Y2.2135
X1.909 Y2.2148
X1.9079 Y2.2154
X1.9055 Y2.2168
X1.9045 Y2.2174
X1.9024 Y2.2188
X1.9016 Y2.2194
X1.8995 Y2.2209
X1.899 Y2.2214
X1.897 Y2.223
X1.8968 Y2.2232
X1.8947 Y2.2249
X1.8927 Y2.2266
X1.8906 Y2.2283
X1.8883 Y2.23
X1.8858 Y2.2318
X1.8829 Y2.2336
X1.8796 Y2.2356
X1.8758 Y2.2376
X1.8714 Y2.2397
X1.8663 Y2.242
X1.8604 Y2.2443
X1.8537 Y2.2467
X1.8461 Y2.2492
X1.8375 Y2.2518
X1.828 Y2.2545
X1.8177 Y2.2572
X1.8067 Y2.2601
X1.795 Y2.263
X1.7828 Y2.2661
X1.7701 Y2.2692
X1.757 Y2.2724
X1.7437 Y2.2757
X1.7436
X1.7301 Y2.2791
X1.73
X1.7163 Y2.2826
X1.7162
X1.7025 Y2.2862
X1.7024 Y2.2863
X1.6887 Y2.29
X1.6885
X1.675 Y2.2938
X1.6748 Y2.2939
X1.6614 Y2.2978
X1.6611
X1.648 Y2.3019
X1.6477 Y2.302
X1.6349 Y2.3061
X1.6346 Y2.3062
X1.6222 Y2.3105
X1.6218 Y2.3107
X1.61 Y2.3151
X1.6095 Y2.3152
X1.5983 Y2.3198
X1.5977 Y2.32
X1.5872 Y2.3246
X1.5866 Y2.3249
X1.5768 Y2.3296
X1.5761 Y2.33
X1.5672 Y2.3347
X1.5663 Y2.3353
X1.5583 Y2.3401
X1.5573 Y2.3408
X1.5504 Y2.3456
X1.5493 Y2.3465
X1.5434 Y2.3513
X1.5422 Y2.3524
X1.5372 Y2.3572
X1.536 Y2.3585
X1.5318 Y2.3634
X1.5306 Y2.365
X1.5273 Y2.3699
X1.5262 Y2.3718
X1.5236 Y2.3766
X1.5227 Y2.3788
X1.5209 Y2.3837
X1.5202 Y2.386
X1.5191 Y2.3909
X1.5187 Y2.3932
X1.5182 Y2.3981
X1.5181 Y2.4003
X1.5182 Y2.4053
X1.5183 Y2.4073
X1.519 Y2.4123
X1.5193 Y2.4144
X1.5206 Y2.4195
X1.5211 Y2.4213
X1.5229 Y2.4265
X1.5236 Y2.428
X1.526 Y2.4333
X1.5267 Y2.4346
X1.5296 Y2.44
X1.5303 Y2.4411
X1.5338 Y2.4465
X1.5345 Y2.4474
X1.5385 Y2.4528
X1.5392 Y2.4537
X1.5437 Y2.459
X1.5444 Y2.4597
X1.5494 Y2.4651
X1.55 Y2.4657
X1.5555 Y2.471
X1.5561 Y2.4716
X1.562 Y2.4768
X1.5626 Y2.4773
X1.5689 Y2.4824
X1.5695 Y2.4828
X1.5762 Y2.4878
X1.5768 Y2.4882
X1.5839 Y2.4931
X1.5845 Y2.4935
X1.5919 Y2.4981
X1.5925 Y2.4985
X1.6003 Y2.503
X1.6009 Y2.5033
X1.6091 Y2.5077
X1.6097 Y2.508
X1.6184 Y2.5121
X1.619 Y2.5124
X1.6281 Y2.5164
X1.6287 Y2.5167
X1.6384 Y2.5206
X1.639 Y2.5208
X1.6493 Y2.5245
X1.6498 Y2.5247
X1.6607 Y2.5282
X1.6613 Y2.5283
X1.6728 Y2.5317
X1.6733 Y2.5318
X1.6856 Y2.535
X1.6861 Y2.5351
X1.6991 Y2.5382
X1.6996 Y2.5383
X1.7134 Y2.5411
X1.7138 Y2.5412
X1.7285 Y2.5439
X1.7289
X1.7445 Y2.5464
X1.7448 Y2.5465
X1.7613 Y2.5488
X1.7616 Y2.5489
X1.7791 Y2.551
X1.7794 Y2.5511
X1.7979 Y2.5531
X1.7982
X1.8178 Y2.5549
X1.818
X1.8387 Y2.5566
X1.8389
X1.8608 Y2.5581
X1.861
X1.884 Y2.5594
X1.8842
X1.9085 Y2.5605
X1.9086
X1.9342 Y2.5615
X1.9344
X1.9612 Y2.5622
X1.9614
X1.9896 Y2.5628
X1.9897
X2.0192 Y2.5633
X2.0193
X2.0499 Y2.5635
X2.05
X2.0816 Y2.5636
X2.1141
X2.1473 Y2.5635
X2.1811 Y2.5632
X2.2154 Y2.5628
X2.25 Y2.5623
X2.2848 Y2.5617
X2.2849
X2.3198 Y2.561
X2.3547 Y2.5602
X2.3894 Y2.5594
X2.4239 Y2.5585
X2.4579 Y2.5576
X2.4914 Y2.5566
X2.5242 Y2.5555
X2.5562 Y2.5545
X2.5873 Y2.5534
X2.6174 Y2.5524
X2.6463 Y2.5513
X2.6739 Y2.5502
X2.7001 Y2.5492
X2.7247 Y2.5482
X2.7476 Y2.5472
X2.769 Y2.5462
X2.7888 Y2.5453
X2.8072 Y2.5445
X2.8241 Y2.5437
X2.8398 Y2.543
X2.8542 Y2.5423
X2.8675 Y2.5417
X2.8796 Y2.5411
X2.8907 Y2.5407
X2.9009 Y2.5403
X2.9101 Y2.54
X2.9185 Y2.5398
X2.9262 Y2.5397
X2.9332
X2.9338
X2.9348 Y2.5395
X2.9356 Y2.5389
X2.9362 Y2.5381
X2.9367 Y2.5373
X2.9375 Y2.5368
X2.9385 Y2.5366
X2.9396
X2.9455 Y2.5368
X2.9509 Y2.5371
X2.956 Y2.5375
X2.9607 Y2.5379
X2.9653 Y2.5385
X2.9696 Y2.5393
X2.974 Y2.5401
X2.9783 Y2.5411
X2.9827 Y2.5422
X2.9873 Y2.5434
X2.9921 Y2.5447
X2.9971 Y2.5462
X3.0023 Y2.5477
X3.0079 Y2.5493
X3.0137 Y2.551
X3.0138
X3.0199 Y2.5527
X3.0201
X3.0266 Y2.5544
X3.0268 Y2.5545
X3.0336 Y2.5562
X3.0338 Y2.5563
X3.0411 Y2.558
X3.0414
X3.0492 Y2.5597
X3.0494 Y2.5598
X3.0577 Y2.5614
X3.058 Y2.5615
X3.0669 Y2.5631
X3.0671 Y2.5632
X3.0766 Y2.5647
X3.0769 Y2.5648
X3.0871 Y2.5663
X3.0873
X3.0982 Y2.5678
X3.0984
X3.11 Y2.5691
X3.1103 Y2.5692
X3.1227 Y2.5704
X3.1229
X3.1361 Y2.5716
X3.1363
X3.1504 Y2.5726
X3.1506
X3.1656 Y2.5735
X3.1658
X3.1818 Y2.5742
X3.182
X3.1989 Y2.5748
X3.1991
X3.217 Y2.5751
X3.2172
X3.2361 Y2.5754
X3.2362
X3.256
X3.2561
X3.2766
X3.2767
X3.2979
X3.3198 Y2.5753
X3.3422 Y2.5751
X3.365 Y2.575
X3.3882
X3.4117
X3.4353 Y2.5751
X3.459 Y2.5754
X3.4827 Y2.5758
X3.5064 Y2.5764
X3.5299 Y2.5773
X3.5532 Y2.5784
X3.5762 Y2.5797
X3.5988 Y2.5814
X3.6208 Y2.5834
X3.6423 Y2.5858
X3.6631 Y2.5886
X3.6831 Y2.5917
X3.7023 Y2.5953
X3.7206 Y2.5994
X3.7379 Y2.604
X3.7542 Y2.609
X3.7697 Y2.6145
X3.7844 Y2.6204
X3.7984 Y2.6268
X3.8117 Y2.6335
X3.8245 Y2.6407
X3.8368 Y2.6482
X3.8486 Y2.6561
X3.8601 Y2.6643
X3.8713 Y2.6728
X3.8822 Y2.6816
X3.893 Y2.6908
X3.9037 Y2.7002
X3.9144 Y2.7099
X3.9251 Y2.7199
X3.9358 Y2.73
X3.9467 Y2.7404
X3.9578 Y2.7509
X3.9579
X3.9692 Y2.7616
X3.9693
X3.9809 Y2.7723
X3.9811 Y2.7725
X3.9931 Y2.7833
X3.9933 Y2.7834
X4.0057 Y2.7943
X4.0059 Y2.7944
X4.0188 Y2.8053
X4.0191 Y2.8055
X4.0326 Y2.8165
X4.0328 Y2.8166
X4.0469 Y2.8276
X4.0471 Y2.8278
X4.0617 Y2.8388
X4.0619 Y2.8389
X4.0769 Y2.8498
X4.0771 Y2.85
X4.0925 Y2.8608
X4.0926 Y2.8609
X4.1083 Y2.8717
X4.1085 Y2.8718
X4.1244 Y2.8824
X4.1246 Y2.8825
X4.1407 Y2.8929
X4.1409 Y2.893
X4.1571 Y2.9032
X4.1573 Y2.9033
X4.1736 Y2.9133
X4.1738 Y2.9134
X4.1901 Y2.9231
X4.1903 Y2.9232
X4.2066 Y2.9325
X4.2068 Y2.9326
X4.223 Y2.9416
X4.2231 Y2.9417
X4.2391 Y2.9504
X4.2393 Y2.9505
X4.2551 Y2.9587
X4.2553 Y2.9588
X4.2708 Y2.9665
X4.271 Y2.9667
X4.2862 Y2.9739
X4.2864 Y2.9741
X4.3012 Y2.9808
X4.3014 Y2.9809
X4.3157 Y2.9871
X4.316 Y2.9873
X4.3297 Y2.9929
X4.3301 Y2.993
X4.3432 Y2.998
X4.3436 Y2.9982
X4.3561 Y3.0025
X4.3566 Y3.0027
X4.3683 Y3.0064
X4.3689 Y3.0065
X4.3798 Y3.0095
X4.3805 Y3.0097
X4.3905 Y3.0119
X4.3913 Y3.012
X4.4005 Y3.0135
X4.4014 Y3.0137
X4.4096 Y3.0146
X4.4107
X4.4182 Y3.0149
X4.4194
X4.4261 Y3.0147
X4.4275 Y3.0146
X4.4335 Y3.0138
X4.435 Y3.0136
X4.4404 Y3.0124
X4.442 Y3.0119
X4.4467 Y3.0103
X4.4483 Y3.0097
X4.4525 Y3.0077
X4.4541 Y3.0068
X4.4578 Y3.0045
X4.4593 Y3.0034
X4.4624 Y3.0009
X4.4638 Y2.9997
X4.4665 Y2.9968
X4.4678 Y2.9954
X4.4702 Y2.9922
X4.4712 Y2.9908
X4.4733 Y2.9873
X4.474 Y2.9859
X4.4758 Y2.9822
X4.4763 Y2.9809
X4.4778 Y2.9769
X4.4781 Y2.9759
X4.4794 Y2.9717
X4.4797 Y2.9705
X4.4806 Y2.966
X4.4807 Y2.9653
X4.4815 Y2.9606
X4.4816 Y2.9597
X4.4821 Y2.9549
Y2.9544
X4.4824 Y2.9495
X4.4825 Y2.9487
X4.4826 Y2.9437
Y2.9432
X4.4825 Y2.9382
Y2.9376
X4.4822 Y2.9325
Y2.9321
X4.4818 Y2.927
X4.4817 Y2.9265
X4.4812 Y2.9215
X4.4811 Y2.9213
X4.4805 Y2.9163
X4.4804 Y2.9158
X4.4796 Y2.9108
Y2.9107
X4.4788 Y2.9058
X4.4787 Y2.9054
X4.4778 Y2.9005
Y2.9004
X4.4768 Y2.8955
X4.4767 Y2.8953
X4.4757 Y2.8904
X4.4756 Y2.8903
X4.4745 Y2.8854
Y2.8853
X4.4734 Y2.8804
X4.4722 Y2.8755
Y2.8754
X4.471 Y2.8706
X4.4699 Y2.8658
X4.4688 Y2.8609
X4.4677 Y2.8561
X4.4666 Y2.8512
X4.4656 Y2.8464
X4.4647 Y2.8416
X4.4638 Y2.8367
X4.4631 Y2.8318
X4.4624 Y2.827
X4.4618 Y2.822
X4.4614 Y2.817
X4.4611 Y2.812
X4.4609 Y2.8068
X4.4608 Y2.8017
X4.4609 Y2.7965
X4.4611 Y2.7912
X4.4614 Y2.7858
X4.4618 Y2.7803
X4.4623 Y2.7749
X4.463 Y2.7693
X4.4637 Y2.7636
X4.4646 Y2.758
X4.4655 Y2.7522
X4.4665 Y2.7463
X4.4676 Y2.7404
X4.4688 Y2.7344
X4.47 Y2.7284
X4.4713 Y2.7222
X4.4726 Y2.716
X4.474 Y2.7098
X4.4754 Y2.7035
X4.4768 Y2.6972
X4.4783 Y2.6907
X4.4798 Y2.6842
X4.4813 Y2.6776
X4.4828 Y2.671
X4.484 Y2.6657
X4.4853 Y2.6604
X4.4867 Y2.6551
X4.4882 Y2.6498
X4.4898 Y2.6445
X4.4917 Y2.6392
X4.4937 Y2.6339
X4.4961 Y2.6286
X4.4987 Y2.6233
X4.5017 Y2.6179
X4.5051 Y2.6126
X4.5089 Y2.6072
X4.5132 Y2.6018
X4.518 Y2.5964
X4.5234 Y2.591
X4.5295 Y2.5855
X4.5362 Y2.58
X4.5436 Y2.5745
X4.5518 Y2.569
X4.5609 Y2.5635
X4.5708 Y2.558
X4.5816 Y2.5525
X4.5933 Y2.5469
X4.6062 Y2.5413
G2 X4.6156 Y2.527 I-0.0062 J-0.0143
G1 Y2.
G2 X4.6 Y1.9844 I-0.0156 J0.
G1 X4.5594
X4.5191 Y1.9843
X4.4791
X4.4394
X4.4
X4.3609
X4.3222
X4.2837
X4.2457 Y1.9842
X4.2079
X4.1705
X4.1335
X4.0968
X4.0605
X4.0245
X3.9889
X3.9537
X3.9189
X3.8845
X3.8505
X3.8169
X3.7837
X3.7509
X3.7185
X3.5278
X3.3528
X3.1927 Y1.9843
X3.0469 Y1.9844
X2.9147 Y1.9845
X2.7955 Y1.9847
X2.6885 Y1.9848
X2.593 Y1.985
X2.5085 Y1.9852
X2.4342 Y1.9854
X2.3693 Y1.9856
X2.3134 Y1.9858
X2.2655 Y1.9861
X2.2252 Y1.9863
X2.1917 Y1.9866
X2.1642 Y1.9868
X2.1422 Y1.987
X2.125 Y1.9873
X2.1249
X2.1118 Y1.9875
X2.1117
X2.102 Y1.9877
X2.1019
X2.095 Y1.9879
X2.0948
X2.0899 Y1.9881
X2.0897
X2.086 Y1.9883
X2.0829 Y1.9884
X2.08 Y1.9886
X2.077 Y1.9887
X2.0741 Y1.9888
X2.0711 Y1.9889
X2.0681
X2.065 Y1.989
X2.062 Y1.9891
X2.0589 Y1.9892
X2.0558
X2.0526 Y1.9893
X2.0494 Y1.9894
X2.0462 Y1.9895
X2.043 Y1.9896
X2.0429
X2.0397 Y1.9897
X2.0365 Y1.9898
X2.0364
X2.0331 Y1.9899
X2.033
X2.0298 Y1.9901
X2.0297
X2.0264 Y1.9903
X2.0263
X2.023 Y1.9905
X2.0228
X2.0195 Y1.9907
X2.0194 Y1.9908
X2.016 Y1.991
X2.0159
X2.0125 Y1.9913
X2.0123
X2.0089 Y1.9917
X2.0088
X2.0054 Y1.9921
X2.0052
X2.0017 Y1.9925
X2.0015
X1.998 Y1.993
X1.9978
X1.9943 Y1.9936
X1.9941
X1.9906 Y1.9942
X1.9904
X1.987 Y1.9948
X1.9867 Y1.9949
X1.9833 Y1.9956
X1.983
X1.9796 Y1.9963
X1.9794 Y1.9964
X1.976 Y1.9972
X1.9757
X1.9724 Y1.9981
X1.9721 Y1.9982
X1.9688 Y1.999
X1.9685 Y1.9991
X1.9652 Y2.0001
X1.9649 Y2.0002
X1.9618 Y2.0012
X1.9614 Y2.0013
X1.9583 Y2.0024
X1.958 Y2.0025
X1.955 Y2.0036
X1.9545 Y2.0038
X1.9516 Y2.0049
X1.9512 Y2.0051
X1.9484 Y2.0063
X1.9479 Y2.0065
X1.9452 Y2.0078
X1.9447 Y2.0081
X1.9421 Y2.0094
X1.9416 Y2.0097
X1.9391 Y2.0111
X1.9385 Y2.0115
X1.9362 Y2.0129
X1.9356 Y2.0133
X1.9334 Y2.0148
X1.9327 Y2.0153
X1.9306 Y2.0169
X1.93 Y2.0175
X1.928 Y2.0191
X1.9273 Y2.0198
X1.9256 Y2.0215
X1.9248 Y2.0222
X1.9232 Y2.024
X1.9226 Y2.0247
X1.9211 Y2.0266
X1.9205 Y2.0274
X1.9191 Y2.0294
X1.9186 Y2.0301
X1.9173 Y2.0322
X1.9169 Y2.033
X1.9157 Y2.0351
X1.9153 Y2.0359
X1.9143 Y2.0381
X1.914 Y2.0388
X1.913 Y2.0411
X1.9127 Y2.0418
X1.9119 Y2.0441
X1.9117 Y2.0449
X1.911 Y2.0473
X1.9108 Y2.048
X1.9102 Y2.0504
X1.91 Y2.0511
X1.9095 Y2.0535
X1.9094 Y2.0543
X1.9091 Y2.0567
X1.909 Y2.0574
X1.9087 Y2.0599
X1.9086 Y2.0606
X1.9085 Y2.0631
Y2.0638
X1.9084 Y2.0663
Y2.067
X1.9085 Y2.0695
Y2.0702
X1.9087 Y2.0727
X1.9088 Y2.0733
X1.9091 Y2.0758
Y2.0765
X1.9095 Y2.079
X1.9096 Y2.0796
X1.9101 Y2.0821
X1.9103 Y2.0828
X1.9109 Y2.0852
X1.9111 Y2.0859
X1.9118 Y2.0883
X1.912 Y2.0889
X1.9128 Y2.0913
X1.9131 Y2.092
X1.914 Y2.0943
X1.9143 Y2.0949
X1.9153 Y2.0972
X1.9156 Y2.0978
X1.9167 Y2.1
X1.9171 Y2.1007
X1.9183 Y2.1028
X1.9186 Y2.1034
X1.92 Y2.1055
X1.9203 Y2.1061
X1.9218 Y2.1082
X1.9222 Y2.1087
X1.9237 Y2.1107
X1.9241 Y2.1112
X1.9257 Y2.1132
X1.9261 Y2.1137
X1.9279 Y2.1156
X1.9283 Y2.1161
X1.9301 Y2.118
X1.9305 Y2.1184
X1.9325 Y2.1202
X1.9329 Y2.1206
X1.9349 Y2.1224
X1.9353 Y2.1228
X1.9374 Y2.1245
X1.9378 Y2.1248
X1.9401 Y2.1265
X1.9405 Y2.1269
X1.9428 Y2.1285
X1.9432 Y2.1288
X1.9456 Y2.1304
X1.946 Y2.1307
X1.9484 Y2.1322
X1.9488 Y2.1325
X1.9514 Y2.134
X1.9518 Y2.1342
X1.9544 Y2.1357
X1.9548 Y2.1359
X1.9576 Y2.1373
X1.9579 Y2.1375
X1.9608 Y2.1389
X1.9611 Y2.139
X1.964 Y2.1404
X1.9644 Y2.1405
X1.9674 Y2.1418
X1.9677 Y2.1419
X1.9708 Y2.1432
X1.9711 Y2.1433
X1.9743 Y2.1445
X1.9746 Y2.1446
X1.9779 Y2.1458
X1.9782 Y2.1459
X1.9815 Y2.147
X1.9818
X1.9852 Y2.1481
X1.9854 Y2.1482
X1.9889 Y2.1492
X1.9891
X1.9926 Y2.1502
X1.9928 Y2.1503
X1.9963 Y2.1512
X1.9965
X2. Y2.1521
X2.0002
X2.0037 Y2.153
X2.0039
X2.0074 Y2.1538
X2.0076
X2.0111 Y2.1546
X2.0112
X2.0147 Y2.1553
X2.0149
X2.0183 Y2.156
X2.0184
X2.0219 Y2.1566
X2.022 Y2.1567
X2.0253 Y2.1573
X2.0254
X2.0287 Y2.1578
X2.0288 Y2.1579
X2.032 Y2.1584
X2.0321
X2.0352 Y2.1589
X2.0353
X2.0384 Y2.1594
X2.0413 Y2.1598
X2.0414
X2.0442 Y2.1602
X2.0443
X2.0469 Y2.1606
X2.047
X2.0495 Y2.161
X2.0519 Y2.1613
X2.0542 Y2.1616
X2.0562 Y2.1619
X2.0581 Y2.1621
X2.0599 Y2.1623
X2.0615 Y2.1626
X2.0631 Y2.1628
X2.0646 Y2.163
X2.066 Y2.1632
X2.0675 Y2.1633
Y2.1634
X2.0689 Y2.1635
X2.0704 Y2.1637
X2.0719 Y2.164
X2.0735 Y2.1642
X2.0752 Y2.1644
X2.077 Y2.1646
X2.079 Y2.1649
X2.0811 Y2.1652
X2.0834 Y2.1655
X2.086 Y2.1659
X2.0887 Y2.1663
X2.0918 Y2.1667
X2.0951 Y2.1671
X2.0987 Y2.1676
X2.1026 Y2.1682
X2.1069 Y2.1687
X2.1093 Y2.1691
X2.1117 Y2.1694
X2.1143 Y2.1698
X2.1169 Y2.1701
X2.1196 Y2.1705
X2.1223 Y2.1709
X2.1251 Y2.1713
X2.1279 Y2.1717
X2.1307 Y2.1721
X2.1336 Y2.1725
X2.1365 Y2.173
X2.1393 Y2.1734
X2.1422 Y2.1739
X2.1451 Y2.1743
X2.1479 Y2.1748
X2.1507 Y2.1753
X2.1535 Y2.1758
X2.1562 Y2.1763
X2.1589 Y2.1768
X2.1615 Y2.1773
X2.1641 Y2.1779
X2.1665 Y2.1784
X2.1688 Y2.1789
X2.1711 Y2.1795
X2.1732 Y2.18
X2.1752 Y2.1805
X2.1771 Y2.1811
X2.1777 Y2.1812
X2.1736 Y2.1821
X2.1677 Y2.1832
X2.1609 Y2.1843
X2.1532 Y2.1853
X2.1448 Y2.1863
X2.1356 Y2.1873
X2.1259 Y2.1884
X2.1156 Y2.1894
X2.1049 Y2.1904
X2.0937 Y2.1914
X2.0822 Y2.1925
X2.0706 Y2.1935
X2.0588 Y2.1946
X2.0469 Y2.1957
X2.0352 Y2.1968
X2.0235 Y2.1979
X2.0121 Y2.199
X2.012
X2.0009 Y2.2002
X1.9902 Y2.2013
X1.9901
X1.9799 Y2.2025
X1.9798
X1.9702 Y2.2037
X1.97
X1.9611 Y2.2049
X1.9608 Y2.205
X1.9527 Y2.2062
X1.9524
X1.945 Y2.2075
X1.9447
X1.9382 Y2.2088
X1.9378 Y2.2089
X1.9322 Y2.2101
X1.9317 Y2.2102
X1.9269 Y2.2114
X1.9263 Y2.2116
X1.9222 Y2.2128
X1.9215 Y2.213
X1.9179 Y2.2143
X1.9171 Y2.2146
X1.914 Y2.2159
X1.9131 Y2.2163
X1.9104 Y2.2176
X1.9095 Y2.2181
X1.9071 Y2.2195
X1.9063 Y2.22
X1.9041 Y2.2214
X1.9034 Y2.2219
X1.9014 Y2.2234
X1.901 Y2.2238
X1.899 Y2.2254
X1.8988 Y2.2256
X1.8968 Y2.2273
X1.8947 Y2.229
X1.8925 Y2.2307
X1.8902 Y2.2325
X1.8875 Y2.2344
X1.8846 Y2.2363
X1.8811 Y2.2383
X1.8772 Y2.2404
X1.8727 Y2.2426
X1.8675 Y2.2448
X1.8615 Y2.2472
X1.8547 Y2.2497
X1.847 Y2.2522
X1.8384 Y2.2548
X1.8288 Y2.2575
X1.8185 Y2.2603
X1.8074 Y2.2631
X1.7958 Y2.2661
X1.7835 Y2.2691
X1.7708 Y2.2722
X1.7578 Y2.2754
X1.7444 Y2.2787
X1.7308 Y2.2821
X1.7171 Y2.2856
X1.717 Y2.2857
X1.7033 Y2.2892
X1.7032 Y2.2893
X1.6895 Y2.293
X1.6894
X1.6758 Y2.2968
X1.6756 Y2.2969
X1.6622 Y2.3008
X1.662
X1.6489 Y2.3049
X1.6487
X1.6359 Y2.3091
X1.6356 Y2.3092
X1.6232 Y2.3135
X1.6229 Y2.3136
X1.611 Y2.318
X1.6107 Y2.3181
X1.5994 Y2.3227
X1.599 Y2.3228
X1.5884 Y2.3274
X1.5879 Y2.3277
X1.5782 Y2.3324
X1.5775 Y2.3327
X1.5686 Y2.3375
X1.5679 Y2.3379
X1.56 Y2.3428
X1.5591 Y2.3433
X1.5522 Y2.3482
X1.5513 Y2.3489
X1.5453 Y2.3538
X1.5444 Y2.3546
X1.5394 Y2.3595
X1.5383 Y2.3606
X1.5342 Y2.3654
X1.5332 Y2.3668
X1.5299 Y2.3716
X1.5289 Y2.3732
X1.5264 Y2.3781
X1.5256 Y2.3799
X1.5238 Y2.3848
X1.5232 Y2.3867
X1.5221 Y2.3916
X1.5218 Y2.3935
X1.5213 Y2.3984
X1.5212 Y2.4003
X1.5213 Y2.4052
X1.5214 Y2.4069
X1.5221 Y2.4119
X1.5224 Y2.4136
X1.5236 Y2.4187
X1.5241 Y2.4202
X1.5259 Y2.4254
X1.5264 Y2.4267
X1.5288 Y2.432
X1.5294 Y2.4331
X1.5324 Y2.4384
X1.5329 Y2.4394
X1.5364 Y2.4448
X1.537 Y2.4456
X1.541 Y2.4509
X1.5416 Y2.4516
X1.5461 Y2.457
X1.5467 Y2.4576
X1.5517 Y2.4629
X1.5522 Y2.4635
X1.5577 Y2.4687
X1.5582 Y2.4692
X1.5641 Y2.4744
X1.5646 Y2.4748
X1.5709 Y2.4799
X1.5714 Y2.4803
X1.5781 Y2.4853
X1.5786 Y2.4857
X1.5857 Y2.4905
X1.5862 Y2.4908
X1.5936 Y2.4955
X1.5941 Y2.4958
X1.6019 Y2.5003
X1.6024 Y2.5006
X1.6106 Y2.5049
X1.6111 Y2.5052
X1.6197 Y2.5093
X1.6202 Y2.5096
X1.6294 Y2.5136
X1.6299 Y2.5138
X1.6396 Y2.5177
X1.6401 Y2.5178
X1.6503 Y2.5215
X1.6508 Y2.5217
X1.6617 Y2.5252
X1.6621 Y2.5253
X1.6737 Y2.5287
X1.6741 Y2.5288
X1.6864 Y2.532
X1.6868 Y2.5321
X1.6998 Y2.5351
X1.7002 Y2.5352
X1.714 Y2.538
X1.7144 Y2.5381
X1.7291 Y2.5408
X1.7294
X1.745 Y2.5433
X1.7452 Y2.5434
X1.7617 Y2.5457
X1.762 Y2.5458
X1.7795 Y2.5479
X1.7797 Y2.548
X1.7983 Y2.5499
X1.7985 Y2.55
X1.8181 Y2.5518
X1.8183
X1.8389 Y2.5535
X1.8391
X1.861 Y2.5549
X1.8611 Y2.555
X1.8842 Y2.5562
X1.8843 Y2.5563
X1.9086 Y2.5574
X1.9087
X1.9343 Y2.5583
X1.9344
X1.9613 Y2.5591
X1.9615
X1.9897 Y2.5597
X1.9898
X2.0193 Y2.5601
X2.0499 Y2.5604
X2.05
X2.0816 Y2.5605
X2.1141
X2.1473 Y2.5603
X2.1811 Y2.5601
X2.2153 Y2.5597
X2.2154
X2.25 Y2.5592
X2.2848 Y2.5586
X2.3197 Y2.5579
X2.3546 Y2.5571
X2.3893 Y2.5563
X2.4238 Y2.5554
X2.4578 Y2.5544
X2.4913 Y2.5534
X2.5241 Y2.5524
X2.5561 Y2.5514
X2.5872 Y2.5503
X2.6173 Y2.5492
X2.6462 Y2.5482
X2.6738 Y2.5471
X2.6999 Y2.5461
X2.7245 Y2.545
X2.7475 Y2.5441
X2.7688 Y2.5431
X2.7887 Y2.5422
X2.807 Y2.5414
X2.824 Y2.5406
X2.8397 Y2.5398
X2.8541 Y2.5392
X2.8673 Y2.5386
X2.8795 Y2.538
X2.8906 Y2.5376
X2.9008 Y2.5372
X2.91 Y2.5369
X2.9185 Y2.5367
X2.9262 Y2.5366
X2.9332 Y2.5365
X2.9385 Y2.5366
X2.9397 Y2.5369
X2.9407 Y2.5375
X2.9414 Y2.5386
X2.9416 Y2.5398
Y2.5429
X2.9415 Y2.5441 Z0.0002
Y2.5451 Z0.0009
Y2.5458 Z0.0019
Y2.546 Z0.0031
G0 Z0.2625
X2.9359 Y2.6775
G1 Z0.1319 F1.8
Z0.0356
Y2.6778 Z0.0344 F14.2
Y2.6784 Z0.0334
Y2.6794 Z0.0327
Y2.6806 Z0.0325
Y2.6838
X2.9357 Y2.685
X2.935 Y2.686
X2.934 Y2.6867
X2.9328 Y2.6869
X2.8628 Y2.6868
X2.7685 Y2.6867
X2.6627 Y2.6866
X2.5448 Y2.6865
X2.414 Y2.6863
X2.2696 Y2.6862
X2.1109 Y2.686
X1.9372 Y2.6859
X1.7477 Y2.6857
X1.7199
X1.6918 Y2.6856
X1.6633
X1.6346
X1.6055 Y2.6855
X1.5761
X1.5465
X1.5165
X1.4863 Y2.6854
X1.4557
X1.4249
X1.3938 Y2.6853
X1.3624
X1.3308
X1.2988 Y2.6852
X1.2667
X1.2342
X1.2015 Y2.6851
X1.1685
X1.1353
X1.1018 Y2.685
X1.0681
X1.0342
X1.
G2 X0.9812 Y2.7037 I0. J0.0187
G1 Y3.4792
G2 X1.0003 Y3.498 I0.0187 J0.
G1 X1.011 Y3.4978
X1.0216
X1.0322
X1.0428
X1.0534 Y3.498
X1.064 Y3.4982
X1.0745 Y3.4985
X1.0849 Y3.4989
X1.0954 Y3.4994
X1.1057 Y3.5
X1.116 Y3.5006
X1.1263 Y3.5013
X1.1365 Y3.5022
X1.1466 Y3.5031
X1.1567 Y3.5041
X1.1667 Y3.5052
X1.1766 Y3.5064
X1.1864 Y3.5076
X1.1961 Y3.509
X1.2058 Y3.5105
X1.2153 Y3.5121
X1.2248 Y3.5138
X1.2341 Y3.5155
X1.2433 Y3.5174
X1.2613 Y3.5214
X1.279 Y3.5258
X1.2963 Y3.5306
X1.3135 Y3.5356
X1.3305 Y3.5409
X1.3475 Y3.5464
X1.3645 Y3.5521
X1.3816 Y3.558
X1.3989 Y3.564
X1.4164 Y3.57
X1.4165
X1.4343 Y3.5761
X1.4344
X1.4525 Y3.5821
X1.4527 Y3.5822
X1.4712 Y3.5881
X1.4714 Y3.5882
X1.4904 Y3.5941
X1.4906
X1.5102 Y3.5998
X1.5105 Y3.5999
X1.5306 Y3.6054
X1.531 Y3.6055
X1.5519 Y3.6108
X1.5522 Y3.6109
X1.5739 Y3.6159
X1.5743 Y3.616
X1.5968 Y3.6207
X1.5972 Y3.6208
X1.6206 Y3.6251
X1.621 Y3.6252
X1.6454 Y3.6292
X1.6458 Y3.6293
X1.6713 Y3.6328
X1.6718 Y3.6329
X1.6984 Y3.6359
X1.6988 Y3.636
X1.7266 Y3.6386
X1.7271
X1.7562 Y3.6406
X1.7565
X1.7869 Y3.6422
X1.7872
X1.8186 Y3.6432
X1.8189
X1.8513 Y3.6438
X1.8515
X1.8848 Y3.644
X1.885
X1.919 Y3.6438
X1.9192
X1.9539 Y3.6432
X1.9541
X1.9893 Y3.6423
X1.9895
X2.0251 Y3.6411
X2.0253
X2.0613 Y3.6396
X2.0614
X2.0976 Y3.6379
X2.0977
X2.1341 Y3.636
X2.1342
X2.1705 Y3.634
X2.1706
X2.2068 Y3.6318
X2.2069
X2.2429 Y3.6294
X2.243
X2.2787 Y3.6271
X2.314 Y3.6246
X2.3487 Y3.6222
X2.3828 Y3.6198
X2.4161 Y3.6174
X2.4485 Y3.6151
X2.48 Y3.613
X2.5103 Y3.611
X2.5394 Y3.6091
X2.5672 Y3.6075
X2.5938 Y3.606
X2.6193 Y3.6048
X2.6436 Y3.6037
X2.667 Y3.6028
X2.6894 Y3.602
X2.711 Y3.6014
X2.7319 Y3.6009
X2.752 Y3.6005
X2.7715 Y3.6002
X2.7906 Y3.6
X2.8091 Y3.5999
X2.8273 Y3.5998
X2.8453
X2.863
X2.8805 Y3.5999
X2.898 Y3.6
X2.9156 Y3.6001
X2.9332 Y3.6002
X2.951
X2.9691 Y3.6003
X2.9875
X2.9876
X3.0063 Y3.6002
X3.0064
X3.0256 Y3.6001
X3.0257
X3.0454 Y3.5999
X3.0455
X3.0658 Y3.5996
X3.0659
X3.0867 Y3.5992
X3.0868
X3.108 Y3.5987
X3.1081
X3.1298 Y3.5981
X3.1299
X3.152 Y3.5974
X3.1521
X3.1746 Y3.5965
X3.1747
X3.1975 Y3.5955
X3.1976
X3.2208 Y3.5943
X3.2209
X3.2443 Y3.593
X3.2444
X3.2681 Y3.5915
X3.2682
X3.2921 Y3.5898
X3.2923
X3.3163 Y3.5879
X3.3165
X3.3407 Y3.5858
X3.3409
X3.3652 Y3.5835
X3.3654
X3.3899 Y3.5809
X3.39
X3.4146 Y3.5782
X3.4147 Y3.5781
X3.4393 Y3.5752
X3.4395 Y3.5751
X3.4641 Y3.5719
X3.4643
X3.4888 Y3.5684
X3.489 Y3.5683
X3.5135 Y3.5646
X3.5137 Y3.5645
X3.5381 Y3.5605
X3.5383 Y3.5604
X3.5626 Y3.5561
X3.5629
X3.587 Y3.5514
X3.5873
X3.6112 Y3.5464
X3.6115
X3.6352 Y3.5412
X3.6355 Y3.5411
X3.659 Y3.5356
X3.6593 Y3.5355
X3.6826 Y3.5298
X3.6828 Y3.5297
X3.7058 Y3.5237
X3.7061 Y3.5236
X3.7288 Y3.5174
X3.729 Y3.5173
X3.7515 Y3.5108
X3.7517
X3.7738 Y3.5041
X3.774
X3.7957 Y3.4972
X3.7959 Y3.4971
X3.8172 Y3.4901
X3.8174
X3.8383 Y3.4829
X3.8385
X3.859 Y3.4756
X3.8592 Y3.4755
X3.8792 Y3.4681
X3.8794 Y3.468
X3.8989 Y3.4605
X3.8991 Y3.4604
X3.9181 Y3.4529
X3.9183 Y3.4528
X3.9367 Y3.4451
X3.937 Y3.445
X3.9548 Y3.4374
X3.955 Y3.4373
X3.9723 Y3.4295
X3.9725 Y3.4294
X3.9891 Y3.4217
X3.9894 Y3.4216
X4.0054 Y3.4138
X4.0057 Y3.4137
X4.0209 Y3.406
X4.0212 Y3.4058
X4.0358 Y3.3982
X4.0361 Y3.398
X4.05 Y3.3904
X4.0504 Y3.3902
X4.0635 Y3.3826
X4.0638 Y3.3824
X4.0744 Y3.376
X4.0748 Y3.3758
X4.0848 Y3.3694
X4.0852 Y3.3692
X4.0946 Y3.3629
X4.095 Y3.3626
X4.1039 Y3.3564
X4.1042 Y3.3561
X4.1125 Y3.35
X4.1129 Y3.3496
X4.1206 Y3.3436
X4.121 Y3.3433
X4.1281 Y3.3373
X4.1286 Y3.3369
X4.1351 Y3.3311
X4.1356 Y3.3306
X4.1415 Y3.325
X4.142 Y3.3244
X4.1473 Y3.3189
X4.1479 Y3.3182
X4.1525 Y3.3128
X4.1531 Y3.312
X4.1571 Y3.3068
X4.1578 Y3.3059
X4.1612 Y3.3009
X4.162 Y3.2996
X4.1648 Y3.2948
X4.1655 Y3.2935
X4.1676 Y3.2888
X4.1683 Y3.2872
X4.1699 Y3.2828
X4.1703 Y3.2813
X4.1714 Y3.2772
X4.1719 Y3.2751
X4.1724 Y3.2712
X4.1726 Y3.2688
X4.1727 Y3.265
X4.1726 Y3.2622
X4.1721 Y3.2586
X4.1715 Y3.2558
X4.1705 Y3.2522
X4.1696 Y3.2497
X4.168 Y3.2462
X4.1669 Y3.2441
X4.1648 Y3.2406
X4.1637 Y3.239
X4.161 Y3.2355
X4.1599 Y3.2342
X4.1567 Y3.2306
X4.1555 Y3.2295
X4.1515 Y3.2259
X4.1503 Y3.2249
X4.1457 Y3.2213
X4.1445 Y3.2205
X4.1392 Y3.2169
X4.1381 Y3.2163
X4.1309 Y3.2122
X4.1299 Y3.2117
X4.1218 Y3.2078
X4.1209 Y3.2074
X4.112 Y3.2035
X4.1113 Y3.2033
X4.1015 Y3.1996
X4.1009 Y3.1994
X4.0904 Y3.1958
X4.09 Y3.1956
X4.0788 Y3.1921
X4.0784 Y3.192
X4.0667 Y3.1887
X4.0663 Y3.1886
X4.054 Y3.1853
X4.0537 Y3.1852
X4.0411 Y3.1821
X4.0408 Y3.182
X4.0277 Y3.179
X4.0274 Y3.1789
X4.0141 Y3.176
X4.0139 Y3.1759
X4.0002 Y3.1731
X4.0001
X3.9862 Y3.1703
X3.9861
X3.9722 Y3.1677
X3.9721 Y3.1676
X3.9581 Y3.1651
X3.958
X3.9441 Y3.1626
X3.944
X3.9302 Y3.1602
X3.9165 Y3.1579
X3.903 Y3.1557
X3.8899 Y3.1535
X3.8771 Y3.1513
X3.8647 Y3.1492
X3.8528 Y3.1472
X3.8415 Y3.1451
X3.8308 Y3.1431
X3.8207 Y3.1411
X3.8111 Y3.1391
X3.8022 Y3.1371
X3.7937 Y3.1351
X3.7858 Y3.133
X3.7783 Y3.131
X3.7714 Y3.1289
X3.7649 Y3.1268
X3.7589 Y3.1247
X3.7534 Y3.1226
X3.7482 Y3.1204
X3.7435 Y3.1182
X3.7392 Y3.116
X3.7351 Y3.1137
X3.7315 Y3.1114
X3.7281 Y3.109
X3.7249 Y3.1066
X3.722 Y3.1041
X3.7193 Y3.1015
X3.7167 Y3.0988
X3.7143 Y3.0959
X3.7121 Y3.0929
X3.7099 Y3.0898
X3.7078 Y3.0865
X3.7057 Y3.0831
X3.7036 Y3.0795
X3.7016 Y3.0757
X3.6995 Y3.0718
X3.6973 Y3.0678
Y3.0677
X3.6951 Y3.0637
X3.6949 Y3.0634
X3.6926 Y3.0595
X3.6924 Y3.0591
X3.69 Y3.0552
X3.6896 Y3.0546
X3.6871 Y3.0507
X3.6866 Y3.0501
X3.6838 Y3.0463
X3.6833 Y3.0456
X3.6803 Y3.0418
X3.6797 Y3.041
X3.6764 Y3.0373
X3.6757 Y3.0365
X3.672 Y3.0329
X3.6713 Y3.0321
X3.6673 Y3.0285
X3.6664 Y3.0278
X3.662 Y3.0243
X3.6612 Y3.0236
X3.6563 Y3.0202
X3.6554 Y3.0196
X3.6501 Y3.0162
X3.6492 Y3.0157
X3.6434 Y3.0124
X3.6425 Y3.012
X3.6361 Y3.0088
X3.6353 Y3.0085
X3.6283 Y3.0054
X3.6275 Y3.0051
X3.6198 Y3.0022
X3.6191 Y3.0019
X3.6108 Y2.9991
X3.61 Y2.9989
X3.601 Y2.9963
X3.6003 Y2.9961
X3.5905 Y2.9937
X3.5899 Y2.9935
X3.5793 Y2.9913
X3.5789 Y2.9912
X3.5677 Y2.9891
X3.5673 Y2.989
X3.5555 Y2.9871
X3.5552
X3.5429 Y2.9853
X3.5427 Y2.9852
X3.53 Y2.9835
X3.5298
X3.5168 Y2.9819
X3.5166
X3.5033 Y2.9804
X3.5031
X3.4896 Y2.979
X3.4895
X3.4759 Y2.9777
X3.4758
X3.4621 Y2.9764
X3.4484 Y2.9752
X3.4348 Y2.974
X3.4214 Y2.9728
X3.4083 Y2.9716
X3.3956 Y2.9704
X3.3832 Y2.9691
X3.3714 Y2.9679
X3.3601 Y2.9665
X3.3495 Y2.9651
X3.3396 Y2.9636
X3.3304 Y2.962
X3.3222 Y2.9602
X3.3148 Y2.9584
X3.3102 Y2.9571
X3.3062 Y2.9557
X3.3027 Y2.9543
X3.2999 Y2.953
X3.2977 Y2.9517
X3.296 Y2.9505
X3.2948 Y2.9494
X3.294 Y2.9484
X3.2936 Y2.9477
X3.2935 Y2.9475
X3.2934 Y2.947
Y2.9463
X3.2935 Y2.9453
X3.2938 Y2.9444
X3.2943 Y2.9435
X3.2953 Y2.9422
X3.2967 Y2.9404
X3.2985 Y2.9387
X3.3006 Y2.9368
X3.3031 Y2.935
X3.306 Y2.933
X3.3093 Y2.9311
X3.313 Y2.9291
X3.3171 Y2.9271
X3.3215 Y2.9251
X3.3263 Y2.9231
X3.3314 Y2.9211
X3.3369 Y2.919
X3.3426 Y2.917
X3.3486 Y2.915
X3.3548 Y2.913
X3.3613 Y2.9111
X3.3681 Y2.9092
X3.3752 Y2.9074
X3.3857 Y2.9048
X3.3966 Y2.9024
X3.408 Y2.9
X3.4197 Y2.8976
X3.4318 Y2.8953
X3.4442 Y2.8931
X3.4568 Y2.8908
X3.4696 Y2.8886
X3.4825 Y2.8864
X3.4955 Y2.8842
X3.5085 Y2.8819
X3.5215 Y2.8796
X3.5216
X3.5344 Y2.8773
X3.5346 Y2.8772
X3.5473 Y2.8748
X3.5475
X3.56 Y2.8723
X3.5602
X3.5725 Y2.8697
X3.5728
X3.5848 Y2.867
X3.5851
X3.5969 Y2.8642
X3.5972 Y2.8641
X3.6086 Y2.8612
X3.6089 Y2.8611
X3.6199 Y2.8581
X3.6204 Y2.8579
X3.6309 Y2.8548
X3.6314 Y2.8546
X3.6414 Y2.8512
X3.642 Y2.851
X3.6514 Y2.8475
X3.6521 Y2.8473
X3.6609 Y2.8436
X3.6616 Y2.8433
X3.6686 Y2.84
X3.6693 Y2.8396
X3.6758 Y2.8362
X3.6766 Y2.8358
X3.6826 Y2.8323
X3.6834 Y2.8319
X3.6889 Y2.8283
X3.6897 Y2.8277
X3.6947 Y2.8241
X3.6955 Y2.8235
X3.7001 Y2.8198
X3.7009 Y2.8191
X3.705 Y2.8154
X3.7058 Y2.8146
X3.7094 Y2.8109
X3.7102 Y2.81
X3.7134 Y2.8063
X3.7142 Y2.8052
X3.7169 Y2.8016
X3.7177 Y2.8003
X3.7199 Y2.7967
X3.7207 Y2.7953
X3.7225 Y2.7918
X3.7232 Y2.7901
X3.7245 Y2.7866
X3.7251 Y2.7846
X3.726 Y2.7813
X3.7264 Y2.7791
X3.7268 Y2.7759
X3.727 Y2.7738
Y2.7707
X3.7269 Y2.7685
X3.7266 Y2.7653
X3.7262 Y2.763
X3.7255 Y2.7599
X3.7248 Y2.7576
X3.7237 Y2.7545
X3.7227 Y2.7524
X3.7211 Y2.7493
X3.72 Y2.7474
X3.7179 Y2.7444
X3.7167 Y2.7428
X3.7141 Y2.7398
X3.7129 Y2.7385
X3.7098 Y2.7355
X3.7086 Y2.7344
X3.705 Y2.7314
X3.7039 Y2.7306
X3.6996 Y2.7276
X3.6986 Y2.727
X3.6938 Y2.724
X3.6928 Y2.7235
X3.6873 Y2.7206
X3.6863 Y2.7201
X3.6803 Y2.7174
X3.6793 Y2.717
X3.6715 Y2.714
X3.6705 Y2.7137
X3.662 Y2.7109
X3.6612 Y2.7107
X3.6519 Y2.7081
X3.6512 Y2.708
X3.6412 Y2.7056
X3.6407 Y2.7055
X3.6301 Y2.7033
X3.6297 Y2.7032
X3.6186 Y2.7012
X3.6182
X3.6066 Y2.6994
X3.6063 Y2.6993
X3.5944 Y2.6977
X3.5941
X3.5818 Y2.6962
X3.5815
X3.569 Y2.6948
X3.5688
X3.5561 Y2.6937
X3.5558 Y2.6936
X3.543 Y2.6926
X3.5428
X3.5299 Y2.6917
X3.5297
X3.5168 Y2.6909
X3.5167
X3.5039 Y2.6903
X3.5037 Y2.6902
X3.491 Y2.6897
X3.4909
X3.4784 Y2.6893
X3.4783
X3.4661 Y2.6889
X3.466
X3.4541 Y2.6886
X3.454
X3.4425 Y2.6884
X3.4424
X3.4313 Y2.6882
X3.4207 Y2.6881
X3.4106 Y2.688
X3.4012 Y2.6879
X3.3923 Y2.6878
X3.3836 Y2.6877
X3.3741
X3.3632 Y2.6876
X3.3502
X3.3344 Y2.6875
X3.3151 Y2.6874
X3.2914
X3.2628 Y2.6873
X3.2285
X3.1878 Y2.6872
X3.1399 Y2.6871
X3.0842
X3.0199 Y2.687
X2.9464 Y2.6869
X2.9328
X2.9318 Y2.6871
X2.931 Y2.6876
X2.9304 Y2.6885
X2.9299 Y2.6893
X2.9291 Y2.6898
X2.9281 Y2.69
X2.8628 Y2.6899
X2.7685 Y2.6898
X2.6627 Y2.6897
X2.5448 Y2.6896
X2.414 Y2.6895
X2.2696 Y2.6893
X2.1109 Y2.6892
X1.9372 Y2.689
X1.7477 Y2.6888
X1.7199
X1.6918 Y2.6887
X1.6633
X1.6346
X1.6055
X1.5761 Y2.6886
X1.5465
X1.5165
X1.4863 Y2.6885
X1.4557
X1.4249
X1.3938
X1.3624 Y2.6884
X1.3308
X1.2988
X1.2666 Y2.6883
X1.2342
X1.2015
X1.1685 Y2.6882
X1.1353
X1.1018
X1.0681 Y2.6881
X1.0342
X1.
G2 X0.9844 Y2.7037 I0. J0.0156
G1 Y3.4792
G2 X1.0002 Y3.4949 I0.0156 J0.
G1 X1.0109 Y3.4947
X1.0216 Y3.4946
X1.0323
X1.0429 Y3.4947
X1.0535 Y3.4949
X1.064 Y3.4951
X1.0746 Y3.4954
X1.0851 Y3.4958
X1.0955 Y3.4963
X1.1059 Y3.4969
X1.1163 Y3.4975
X1.1265 Y3.4982
X1.1368 Y3.4991
X1.1469 Y3.5
X1.157 Y3.501
X1.167 Y3.5021
X1.177 Y3.5033
X1.1868 Y3.5046
X1.1966 Y3.5059
X1.2063 Y3.5074
X1.2158 Y3.509
X1.2253 Y3.5107
X1.2347 Y3.5125
X1.2439 Y3.5143
X1.262 Y3.5184
X1.2797 Y3.5228
X1.2972 Y3.5276
X1.3144 Y3.5326
X1.3315 Y3.5379
X1.3485 Y3.5435
X1.3655 Y3.5492
X1.3826 Y3.555
X1.3999 Y3.561
X1.4174 Y3.5671
X1.4175
X1.4353 Y3.5731
X1.4354 Y3.5732
X1.4535 Y3.5792
X1.4536
X1.4721 Y3.5852
X1.4723
X1.4913 Y3.5911
X1.4915
X1.511 Y3.5968
X1.5113 Y3.5969
X1.5315 Y3.6024
X1.5318 Y3.6025
X1.5526 Y3.6078
X1.5529
X1.5746 Y3.6129
X1.5749
X1.5974 Y3.6176
X1.5977 Y3.6177
X1.6212 Y3.6221
X1.6215
X1.6459 Y3.6261
X1.6463 Y3.6262
X1.6718 Y3.6297
X1.6721
X1.6987 Y3.6328
X1.6991 Y3.6329
X1.7269 Y3.6354
X1.7273 Y3.6355
X1.7564 Y3.6375
X1.7567
X1.787 Y3.6391
X1.7873
X1.8187 Y3.6401
X1.8189
X1.8513 Y3.6407
X1.8515
X1.8848 Y3.6409
X1.885
X1.919 Y3.6407
X1.9192
X1.9539 Y3.6401
X1.954
X1.9892 Y3.6392
X1.9894
X2.025 Y3.638
X2.0251
X2.0612 Y3.6365
X2.0613
X2.0975 Y3.6348
X2.0976
X2.1339 Y3.6329
X2.134
X2.1703 Y3.6308
X2.1704
X2.2066 Y3.6286
X2.2067
X2.2427 Y3.6263
X2.2428
X2.2785 Y3.6239
X2.3138 Y3.6215
X2.3485 Y3.6191
X2.3826 Y3.6167
X2.4159 Y3.6143
X2.4483 Y3.612
X2.4798 Y3.6099
X2.5101 Y3.6078
X2.5392 Y3.606
X2.5671 Y3.6043
X2.5937 Y3.6029
X2.6191 Y3.6017
X2.6435 Y3.6006
X2.6669 Y3.5996
X2.6893 Y3.5989
X2.7109 Y3.5982
X2.7318 Y3.5977
X2.7519 Y3.5973
X2.7715 Y3.5971
X2.7905 Y3.5969
X2.8091 Y3.5967
X2.8273
X2.8453
X2.863
X2.8805 Y3.5968
X2.8981 Y3.5969
X2.9156 Y3.597
X2.9332
X2.951 Y3.5971
X2.9691 Y3.5972
X2.9875
X3.0063 Y3.5971
X3.0256 Y3.597
X3.0454 Y3.5968
X3.0455
X3.0658 Y3.5965
X3.0866 Y3.5961
X3.0867
X3.108 Y3.5956
X3.1297 Y3.595
X3.1298
X3.1519 Y3.5943
X3.152
X3.1745 Y3.5934
X3.1746
X3.1974 Y3.5924
X3.1975
X3.2206 Y3.5912
X3.2207
X3.2441 Y3.5899
X3.2442
X3.2679 Y3.5883
X3.268
X3.2919 Y3.5867
X3.292 Y3.5866
X3.3161 Y3.5848
X3.3162
X3.3405 Y3.5827
X3.3406
X3.3649 Y3.5804
X3.3651 Y3.5803
X3.3895 Y3.5778
X3.3897
X3.4142 Y3.5751
X3.4144 Y3.575
X3.4389 Y3.5721
X3.4391 Y3.572
X3.4637 Y3.5688
X3.4638
X3.4884 Y3.5653
X3.4885 Y3.5652
X3.513 Y3.5615
X3.5132 Y3.5614
X3.5376 Y3.5574
X3.5378
X3.5621 Y3.553
X3.5623
X3.5864 Y3.5484
X3.5866 Y3.5483
X3.6106 Y3.5434
X3.6108 Y3.5433
X3.6346 Y3.5381
X3.6348
X3.6583 Y3.5325
X3.6585
X3.6818 Y3.5267
X3.682
X3.705 Y3.5207
X3.7052 Y3.5206
X3.728 Y3.5144
X3.7282 Y3.5143
X3.7506 Y3.5078
X3.7508
X3.7729 Y3.5011
X3.773
X3.7947 Y3.4942
X3.7949
X3.8162 Y3.4872
X3.8164 Y3.4871
X3.8373 Y3.48
X3.8375 Y3.4799
X3.8579 Y3.4726
X3.8581
X3.8781 Y3.4652
X3.8783 Y3.4651
X3.8978 Y3.4576
X3.898 Y3.4575
X3.9169 Y3.45
X3.9171 Y3.4499
X3.9355 Y3.4423
X3.9357 Y3.4422
X3.9535 Y3.4345
X3.9537 Y3.4344
X3.971 Y3.4267
X3.9712 Y3.4266
X3.9878 Y3.4189
X3.988 Y3.4188
X4.004 Y3.411
X4.0042 Y3.4109
X4.0195 Y3.4032
X4.0197 Y3.4031
X4.0344 Y3.3954
X4.0346 Y3.3953
X4.0485 Y3.3876
X4.0488 Y3.3875
X4.0619 Y3.3799
X4.0622 Y3.3797
X4.0728 Y3.3733
X4.0731 Y3.3731
X4.0831 Y3.3668
X4.0834 Y3.3666
X4.0929 Y3.3603
X4.0932 Y3.3601
X4.1021 Y3.3538
X4.1024 Y3.3536
X4.1107 Y3.3475
X4.111 Y3.3472
X4.1187 Y3.3412
X4.119 Y3.3409
X4.1261 Y3.3349
X4.1265 Y3.3346
X4.133 Y3.3288
X4.1334 Y3.3284
X4.1393 Y3.3227
X4.1398 Y3.3222
X4.145 Y3.3167
X4.1455 Y3.3161
X4.1501 Y3.3108
X4.1506 Y3.3101
X4.1547 Y3.3049
X4.1552 Y3.3042
X4.1586 Y3.2992
X4.1593 Y3.2981
X4.162 Y3.2933
X4.1626 Y3.2921
X4.1648 Y3.2875
X4.1653 Y3.2862
X4.1669 Y3.2818
X4.1673 Y3.2805
X4.1684 Y3.2764
X4.1688 Y3.2747
X4.1694 Y3.2707
X4.1695 Y3.2687
X4.1696 Y3.265
X4.1695 Y3.2626
X4.169 Y3.259
X4.1685 Y3.2567
X4.1675 Y3.2531
X4.1667 Y3.251
X4.1652 Y3.2475
X4.1643 Y3.2458
X4.1621 Y3.2423
X4.1612 Y3.2409
X4.1585 Y3.2374
X4.1576 Y3.2363
X4.1544 Y3.2328
X4.1534 Y3.2318
X4.1494 Y3.2282
X4.1484 Y3.2273
X4.1438 Y3.2237
X4.1428 Y3.2231
X4.1374 Y3.2195
X4.1365 Y3.219
X4.1294 Y3.2149
X4.1285 Y3.2145
X4.1205 Y3.2106
X4.1197 Y3.2102
X4.1108 Y3.2064
X4.1102 Y3.2062
X4.1004 Y3.2025
X4.0999 Y3.2023
X4.0894 Y3.1987
X4.089 Y3.1986
X4.0779 Y3.1951
X4.0775 Y3.195
X4.0658 Y3.1917
X4.0655 Y3.1916
X4.0532 Y3.1883
X4.053
X4.0403 Y3.1851
X4.0401
X4.027 Y3.182
X4.0268
X4.0134 Y3.179
X4.0132
X3.9996 Y3.1762
X3.9995 Y3.1761
X3.9856 Y3.1734
X3.9855
X3.9716 Y3.1707
X3.9715
X3.9576 Y3.1682
X3.9575
X3.9436 Y3.1657
X3.9435
X3.9297 Y3.1633
X3.916 Y3.161
X3.9025 Y3.1588
X3.8894 Y3.1566
X3.8766 Y3.1544
X3.8642 Y3.1523
X3.8523 Y3.1502
X3.841 Y3.1482
X3.8302 Y3.1462
X3.8201 Y3.1441
X3.8105 Y3.1421
X3.8015 Y3.1401
X3.7929 Y3.1381
X3.785 Y3.1361
X3.7775 Y3.134
X3.7705 Y3.1319
X3.7639 Y3.1298
X3.7579 Y3.1277
X3.7522 Y3.1255
X3.747 Y3.1233
X3.7421 Y3.121
X3.7377 Y3.1187
X3.7335 Y3.1164
X3.7297 Y3.114
X3.7262 Y3.1115
X3.723 Y3.109
X3.7199 Y3.1064
X3.7171 Y3.1037
X3.7144 Y3.1008
X3.7119 Y3.0979
X3.7095 Y3.0948
X3.7073 Y3.0916
X3.7051 Y3.0882
X3.703 Y3.0846
X3.7009 Y3.081
X3.6989 Y3.0772
X3.6968 Y3.0733
X3.6967
X3.6946 Y3.0693
X3.6945 Y3.0692
X3.6923 Y3.0652
X3.6922 Y3.065
X3.6899 Y3.0611
X3.6897 Y3.0607
X3.6873 Y3.0568
X3.687 Y3.0563
X3.6844 Y3.0525
X3.6841 Y3.0519
X3.6813 Y3.0481
X3.6809 Y3.0475
X3.6778 Y3.0437
X3.6773 Y3.0431
X3.674 Y3.0394
X3.6734 Y3.0387
X3.6698 Y3.0351
X3.6692 Y3.0344
X3.6652 Y3.0308
X3.6645 Y3.0302
X3.6601 Y3.0267
X3.6593 Y3.0262
X3.6545 Y3.0227
X3.6538 Y3.0222
X3.6484 Y3.0189
X3.6477 Y3.0184
X3.6419 Y3.0152
X3.6411 Y3.0148
X3.6347 Y3.0116
X3.634 Y3.0113
X3.627 Y3.0083
X3.6264 Y3.008
X3.6187 Y3.0051
X3.6181 Y3.0049
X3.6098 Y3.0021
X3.6092 Y3.0019
X3.6001 Y2.9993
X3.5995 Y2.9991
X3.5897 Y2.9967
X3.5892 Y2.9966
X3.5787 Y2.9943
X3.5783
X3.5671 Y2.9922
X3.5668 Y2.9921
X3.555 Y2.9902
X3.5547 Y2.9901
X3.5425 Y2.9883
X3.5423
X3.5296 Y2.9866
X3.5294
X3.5164 Y2.985
X3.5162
X3.5029 Y2.9835
X3.5028
X3.4893 Y2.9821
X3.4892
X3.4756 Y2.9808
X3.4755
X3.4618 Y2.9795
X3.4481 Y2.9783
X3.4345 Y2.9771
X3.4211 Y2.9759
X3.408 Y2.9747
X3.3953 Y2.9735
X3.3829 Y2.9722
X3.371 Y2.971
X3.3597 Y2.9696
X3.349 Y2.9682
X3.3391 Y2.9667
X3.3298 Y2.965
X3.3215 Y2.9633
X3.314 Y2.9614
X3.3093 Y2.96
X3.3051 Y2.9586
X3.3015 Y2.9572
X3.2984 Y2.9558
X3.296 Y2.9543
X3.294 Y2.9529
X3.2926 Y2.9516
X3.2914 Y2.9502
X3.2907 Y2.9491
X3.2904 Y2.9483
X3.2903 Y2.9473
Y2.946
X3.2905 Y2.9446
X3.2909 Y2.9432
X3.2916 Y2.9419
X3.2928 Y2.9402
X3.2944 Y2.9383
X3.2964 Y2.9364
X3.2987 Y2.9344
X3.3013 Y2.9324
X3.3044 Y2.9304
X3.3078 Y2.9284
X3.3116 Y2.9263
X3.3157 Y2.9243
X3.3202 Y2.9222
X3.3251 Y2.9202
X3.3303 Y2.9181
X3.3358 Y2.9161
X3.3416 Y2.914
X3.3476 Y2.912
X3.3539 Y2.91
X3.3605 Y2.9081
X3.3673 Y2.9062
X3.3744 Y2.9043
X3.385 Y2.9018
X3.3959 Y2.8993
X3.4074 Y2.8969
X3.4191 Y2.8946
X3.4313 Y2.8923
X3.4436 Y2.89
X3.4562 Y2.8878
X3.469 Y2.8856
X3.4819 Y2.8833
X3.4949 Y2.8811
X3.5079 Y2.8788
X3.508
X3.5209 Y2.8765
X3.521
X3.5339 Y2.8742
X3.534
X3.5467 Y2.8718
X3.5468
X3.5594 Y2.8693
X3.5596 Y2.8692
X3.5719 Y2.8667
X3.5721 Y2.8666
X3.5842 Y2.864
X3.5844 Y2.8639
X3.5961 Y2.8612
X3.5964 Y2.8611
X3.6078 Y2.8582
X3.6081 Y2.8581
X3.6191 Y2.8551
X3.6195 Y2.855
X3.63 Y2.8518
X3.6304 Y2.8516
X3.6404 Y2.8483
X3.6409 Y2.8481
X3.6503 Y2.8446
X3.6509 Y2.8444
X3.6597 Y2.8407
X3.6603 Y2.8404
X3.6673 Y2.8372
X3.6679 Y2.8369
X3.6744 Y2.8335
X3.675 Y2.8331
X3.681 Y2.8296
X3.6817 Y2.8292
X3.6872 Y2.8257
X3.6878 Y2.8252
X3.6929 Y2.8216
X3.6935 Y2.8211
X3.6981 Y2.8174
X3.6988 Y2.8168
X3.7029 Y2.8131
X3.7035 Y2.8124
X3.7071 Y2.8087
X3.7079 Y2.808
X3.711 Y2.8043
X3.7117 Y2.8034
X3.7144 Y2.7997
X3.7151 Y2.7987
X3.7173 Y2.7951
X3.7179 Y2.7939
X3.7197 Y2.7904
X3.7203 Y2.789
X3.7216 Y2.7855
X3.7221 Y2.7839
X3.723 Y2.7806
X3.7233 Y2.7787
X3.7237 Y2.7755
X3.7239 Y2.7738
Y2.7706
X3.7238 Y2.7688
X3.7235 Y2.7656
X3.7232 Y2.7637
X3.7225 Y2.7606
X3.7219 Y2.7587
X3.7207 Y2.7556
X3.72 Y2.7538
X3.7184 Y2.7507
X3.7174 Y2.7492
X3.7153 Y2.7461
X3.7143 Y2.7448
X3.7117 Y2.7418
X3.7107 Y2.7407
X3.7076 Y2.7377
X3.7066 Y2.7368
X3.703 Y2.7338
X3.7021 Y2.7332
X3.6978 Y2.7302
X3.697 Y2.7297
X3.6922 Y2.7267
X3.6913 Y2.7262
X3.6859 Y2.7234
X3.6851 Y2.723
X3.679 Y2.7203
X3.6782 Y2.7199
X3.6704 Y2.7169
X3.6696 Y2.7166
X3.661 Y2.7139
X3.6603 Y2.7137
X3.651 Y2.7111
X3.6505 Y2.711
X3.6405 Y2.7086
X3.6401 Y2.7085
X3.6295 Y2.7064
X3.6291 Y2.7063
X3.618 Y2.7043
X3.6177
X3.6062 Y2.7025
X3.6059 Y2.7024
X3.5939 Y2.7008
X3.5937
X3.5814 Y2.6993
X3.5812
X3.5687 Y2.698
X3.5685 Y2.6979
X3.5558 Y2.6968
X3.5556
X3.5428 Y2.6957
X3.5426
X3.5297 Y2.6948
X3.5295
X3.5167 Y2.694
X3.5165
X3.5037 Y2.6934
X3.5036
X3.4909 Y2.6928
X3.4908
X3.4783 Y2.6924
X3.4782
X3.466 Y2.692
X3.4659
X3.454 Y2.6917
X3.4539
X3.4424 Y2.6915
X3.4313 Y2.6913
X3.4312
X3.4206 Y2.6912
X3.4106 Y2.6911
X3.4012 Y2.691
X3.3923 Y2.6909
X3.3835
X3.3741 Y2.6908
X3.3632 Y2.6907
X3.3502
X3.3344 Y2.6906
X3.315
X3.2914 Y2.6905
X3.2628
X3.2285 Y2.6904
X3.1878 Y2.6903
X3.1399
X3.0842 Y2.6902
X3.0199 Y2.6901
X2.9464 Y2.69
X2.9281
X2.9269 Y2.6898
X2.9259 Y2.6891
X2.9252 Y2.6881
X2.925 Y2.6869
Y2.6838
Y2.6826 Z0.0327
Y2.6815 Z0.0334
Y2.6809 Z0.0344
Y2.6806 Z0.0356
G0 Z0.2625
X2.9359 Y2.6775
G1 Z0.1019 F1.8
Z0.0194
Y2.6778 Z0.0182 F14.2
Y2.6784 Z0.0172
Y2.6794 Z0.0165
Y2.6806 Z0.0163
Y2.6838
X2.9357 Y2.685
X2.935 Y2.686
X2.934 Y2.6867
X2.9328 Y2.6869
X2.8628 Y2.6868
X2.7685 Y2.6867
X2.6627 Y2.6866
X2.5448 Y2.6865
X2.414 Y2.6863
X2.2696 Y2.6862
X2.1109 Y2.686
X1.9372 Y2.6859
X1.7477 Y2.6857
X1.7199
X1.6918 Y2.6856
X1.6633
X1.6346
X1.6055 Y2.6855
X1.5761
X1.5465
X1.5165
X1.4863 Y2.6854
X1.4557
X1.4249
X1.3938 Y2.6853
X1.3624
X1.3308
X1.2988 Y2.6852
X1.2667
X1.2342
X1.2015 Y2.6851
X1.1685
X1.1353
X1.1018 Y2.685
X1.0681
X1.0342
X1.
G2 X0.9812 Y2.7037 I0. J0.0187
G1 Y3.4792
G2 X1.0003 Y3.498 I0.0187 J0.
G1 X1.011 Y3.4978
X1.0216
X1.0322
X1.0428
X1.0534 Y3.498
X1.064 Y3.4982
X1.0745 Y3.4985
X1.0849 Y3.4989
X1.0954 Y3.4994
X1.1057 Y3.5
X1.116 Y3.5006
X1.1263 Y3.5013
X1.1365 Y3.5022
X1.1466 Y3.5031
X1.1567 Y3.5041
X1.1667 Y3.5052
X1.1766 Y3.5064
X1.1864 Y3.5076
X1.1961 Y3.509
X1.2058 Y3.5105
X1.2153 Y3.5121
X1.2248 Y3.5138
X1.2341 Y3.5155
X1.2433 Y3.5174
X1.2613 Y3.5214
X1.279 Y3.5258
X1.2963 Y3.5306
X1.3135 Y3.5356
X1.3305 Y3.5409
X1.3475 Y3.5464
X1.3645 Y3.5521
X1.3816 Y3.558
X1.3989 Y3.564
X1.4164 Y3.57
X1.4165
X1.4343 Y3.5761
X1.4344
X1.4525 Y3.5821
X1.4527 Y3.5822
X1.4712 Y3.5881
X1.4714 Y3.5882
X1.4904 Y3.5941
X1.4906
X1.5102 Y3.5998
X1.5105 Y3.5999
X1.5306 Y3.6054
X1.531 Y3.6055
X1.5519 Y3.6108
X1.5522 Y3.6109
X1.5739 Y3.6159
X1.5743 Y3.616
X1.5968 Y3.6207
X1.5972 Y3.6208
X1.6206 Y3.6251
X1.621 Y3.6252
X1.6454 Y3.6292
X1.6458 Y3.6293
X1.6713 Y3.6328
X1.6718 Y3.6329
X1.6984 Y3.6359
X1.6988 Y3.636
X1.7266 Y3.6386
X1.7271
X1.7562 Y3.6406
X1.7565
X1.7869 Y3.6422
X1.7872
X1.8186 Y3.6432
X1.8189
X1.8513 Y3.6438
X1.8515
X1.8848 Y3.644
X1.885
X1.919 Y3.6438
X1.9192
X1.9539 Y3.6432
X1.9541
X1.9893 Y3.6423
X1.9895
X2.0251 Y3.6411
X2.0253
X2.0613 Y3.6396
X2.0614
X2.0976 Y3.6379
X2.0977
X2.1341 Y3.636
X2.1342
X2.1705 Y3.634
X2.1706
X2.2068 Y3.6318
X2.2069
X2.2429 Y3.6294
X2.243
X2.2787 Y3.6271
X2.314 Y3.6246
X2.3487 Y3.6222
X2.3828 Y3.6198
X2.4161 Y3.6174
X2.4485 Y3.6151
X2.48 Y3.613
X2.5103 Y3.611
X2.5394 Y3.6091
X2.5672 Y3.6075
X2.5938 Y3.606
X2.6193 Y3.6048
X2.6436 Y3.6037
X2.667 Y3.6028
X2.6894 Y3.602
X2.711 Y3.6014
X2.7319 Y3.6009
X2.752 Y3.6005
X2.7715 Y3.6002
X2.7906 Y3.6
X2.8091 Y3.5999
X2.8273 Y3.5998
X2.8453
X2.863
X2.8805 Y3.5999
X2.898 Y3.6
X2.9156 Y3.6001
X2.9332 Y3.6002
X2.951
X2.9691 Y3.6003
X2.9875
X2.9876
X3.0063 Y3.6002
X3.0064
X3.0256 Y3.6001
X3.0257
X3.0454 Y3.5999
X3.0455
X3.0658 Y3.5996
X3.0659
X3.0867 Y3.5992
X3.0868
X3.108 Y3.5987
X3.1081
X3.1298 Y3.5981
X3.1299
X3.152 Y3.5974
X3.1521
X3.1746 Y3.5965
X3.1747
X3.1975 Y3.5955
X3.1976
X3.2208 Y3.5943
X3.2209
X3.2443 Y3.593
X3.2444
X3.2681 Y3.5915
X3.2682
X3.2921 Y3.5898
X3.2923
X3.3163 Y3.5879
X3.3165
X3.3407 Y3.5858
X3.3409
X3.3652 Y3.5835
X3.3654
X3.3899 Y3.5809
X3.39
X3.4146 Y3.5782
X3.4147 Y3.5781
X3.4393 Y3.5752
X3.4395 Y3.5751
X3.4641 Y3.5719
X3.4643
X3.4888 Y3.5684
X3.489 Y3.5683
X3.5135 Y3.5646
X3.5137 Y3.5645
X3.5381 Y3.5605
X3.5383 Y3.5604
X3.5626 Y3.5561
X3.5629
X3.587 Y3.5514
X3.5873
X3.6112 Y3.5464
X3.6115
X3.6352 Y3.5412
X3.6355 Y3.5411
X3.659 Y3.5356
X3.6593 Y3.5355
X3.6826 Y3.5298
X3.6828 Y3.5297
X3.7058 Y3.5237
X3.7061 Y3.5236
X3.7288 Y3.5174
X3.729 Y3.5173
X3.7515 Y3.5108
X3.7517
X3.7738 Y3.5041
X3.774
X3.7957 Y3.4972
X3.7959 Y3.4971
X3.8172 Y3.4901
X3.8174
X3.8383 Y3.4829
X3.8385
X3.859 Y3.4756
X3.8592 Y3.4755
X3.8792 Y3.4681
X3.8794 Y3.468
X3.8989 Y3.4605
X3.8991 Y3.4604
X3.9181 Y3.4529
X3.9183 Y3.4528
