(1001)
(T1  D=0.0312 CR=0. - ZMIN=0. - FLAT END MILL)
G0 G90 G94 G17
G20
G53 G0 Z0.

(2D CONTOUR7)
M5
T1
S12000 M3
G4 P4.
G55
M8
G0 X4.5629 Y2.484
Z0.6625
Z0.2625
G1 Z0.1319 F1.8
Z0.0356
X4.5631 Y2.4842 Z0.0344 F14.2
X4.5637 Y2.4845 Z0.0334
X4.5646 Y2.4851 Z0.0327
X4.5656 Y2.4857 Z0.0325
X4.5682 Y2.4874
X4.5691 Y2.4883
X4.5695 Y2.4894
X4.5696 Y2.4906
X4.5691 Y2.4918
X4.5674 Y2.4944
X4.5673 Y2.4945
X4.563 Y2.5012
Y2.5013
X4.5585 Y2.5082
X4.5541 Y2.5152
X4.5496 Y2.5221
Y2.5222
X4.5452 Y2.5291
X4.5408 Y2.536
X4.5363 Y2.5428
X4.5319 Y2.5495
X4.5275 Y2.5561
X4.5231 Y2.5625
X4.5187 Y2.5688
X4.5144 Y2.5749
X4.5101 Y2.5808
X4.5058 Y2.5864
X4.5016 Y2.5918
X4.4975 Y2.5969
X4.4933 Y2.6017
X4.4894 Y2.6063
X4.4855 Y2.6104
X4.4818 Y2.6141
X4.4783 Y2.6173
X4.4749 Y2.6201
X4.4717 Y2.6223
X4.4688 Y2.624
X4.466 Y2.6252
X4.4635 Y2.6261
X4.4611 Y2.6265
X4.4594 Y2.6266
X4.4578 Y2.6265
X4.4563 Y2.6262
X4.4547 Y2.6257
X4.4531 Y2.6249
X4.4514 Y2.6238
X4.4496 Y2.6224
X4.4476 Y2.6206
X4.4456 Y2.6184
X4.4434 Y2.6159
X4.4412 Y2.6131
X4.439 Y2.61
X4.4367 Y2.6066
X4.4344 Y2.6031
X4.432 Y2.5993
X4.4296 Y2.5954
X4.4272 Y2.5912
X4.4246 Y2.5868
X4.4222 Y2.5824
X4.4221
X4.4195 Y2.5778
X4.4168 Y2.5731
X4.4167 Y2.5729
X4.414 Y2.5682
X4.4112 Y2.5633
X4.4111 Y2.5632
X4.4082 Y2.5583
X4.4081 Y2.5582
X4.4052 Y2.5533
X4.4051 Y2.5531
X4.402 Y2.5483
X4.4019 Y2.548
X4.3987 Y2.5431
X4.3986 Y2.5429
X4.3953 Y2.538
X4.3951 Y2.5377
X4.3912 Y2.532
X4.391 Y2.5317
X4.3868 Y2.526
Y2.5259
X4.3825 Y2.5202
Y2.5201
X4.3782 Y2.5144
X4.3781 Y2.5143
X4.3738 Y2.5085
X4.3696 Y2.5028
X4.3653 Y2.497
X4.3612 Y2.4912
X4.3573 Y2.4855
X4.3536 Y2.4798
X4.35 Y2.474
X4.3468 Y2.4683
X4.3439 Y2.4625
X4.3413 Y2.4566
X4.339 Y2.4507
X4.3372 Y2.4449
X4.3357 Y2.4389
X4.3347 Y2.433
X4.3341 Y2.4271
X4.334 Y2.4211
X4.3345 Y2.415
X4.3354 Y2.4087
X4.337 Y2.4024
X4.3392 Y2.3957
X4.3421 Y2.3888
X4.3458 Y2.3816
X4.35 Y2.3742
X4.3549 Y2.3666
X4.3604 Y2.3588
X4.3662 Y2.3507
X4.3726 Y2.3425
X4.3794 Y2.334
X4.3864 Y2.3254
X4.3938 Y2.3167
X4.4014 Y2.3077
X4.4091 Y2.2987
X4.417 Y2.2895
Y2.2894
X4.4248 Y2.2801
X4.4249 Y2.28
X4.4327 Y2.2706
X4.4329 Y2.2705
X4.4406 Y2.261
X4.4407 Y2.2608
X4.4484 Y2.2513
X4.4486 Y2.251
X4.456 Y2.2413
X4.4562 Y2.241
X4.4634 Y2.2313
X4.4636 Y2.2309
X4.4705 Y2.2211
X4.4708 Y2.2207
X4.4774 Y2.2108
X4.4777 Y2.2103
X4.4838 Y2.2003
X4.4842 Y2.1997
X4.4899 Y2.1897
X4.4903 Y2.189
X4.4955 Y2.1788
X4.4958 Y2.1781
X4.5005 Y2.1679
X4.5008 Y2.1671
X4.505 Y2.1569
X4.5053 Y2.1561
X4.509 Y2.1458
X4.5093 Y2.145
X4.5125 Y2.1346
X4.5127 Y2.1338
X4.5154 Y2.1233
X4.5156 Y2.1225
X4.5178 Y2.112
X4.518 Y2.1112
X4.5198 Y2.1007
X4.5199 Y2.0999
X4.5212 Y2.0894
X4.5213 Y2.0886
X4.5222 Y2.078
Y2.0772
X4.5227 Y2.0666
Y2.0658
Y2.0552
Y2.0545
X4.5223 Y2.0438
X4.5222 Y2.0431
X4.5215 Y2.0325
X4.5214 Y2.0318
X4.5202 Y2.0211
X4.5201 Y2.0205
X4.5185 Y2.0098
X4.5184 Y2.0092
X4.5164 Y1.9986
X4.5163 Y1.998
X4.5139 Y1.9874
X4.5137 Y1.9868
X4.511 Y1.9763
X4.5109 Y1.9756
X4.5077 Y1.9651
X4.5076 Y1.9646
X4.5042 Y1.9542
X4.504 Y1.9536
X4.5002 Y1.9432
X4.5 Y1.9427
X4.4959 Y1.9324
X4.4957 Y1.9319
X4.4913 Y1.9216
X4.491 Y1.9211
X4.4863 Y1.9109
X4.4861 Y1.9105
X4.4811 Y1.9004
X4.4808 Y1.8999
X4.4755 Y1.89
X4.4752 Y1.8895
X4.4696 Y1.8797
X4.4693 Y1.8792
X4.4634 Y1.8697
X4.4631 Y1.8692
X4.4569 Y1.8598
X4.4566 Y1.8593
X4.4501 Y1.8501
X4.4497 Y1.8496
X4.443 Y1.8407
X4.4426 Y1.8402
X4.4355 Y1.8314
X4.4351 Y1.8309
X4.4277 Y1.8224
X4.4273 Y1.8219
X4.4196 Y1.8136
X4.4192 Y1.8132
X4.4112 Y1.8051
X4.4107 Y1.8046
X4.4024 Y1.7968
X4.402 Y1.7964
X4.3934 Y1.7889
X4.3929 Y1.7885
X4.384 Y1.7812
X4.3835 Y1.7808
X4.3743 Y1.7739
X4.3737 Y1.7735
X4.3642 Y1.7668
X4.3636 Y1.7664
X4.3538 Y1.7601
X4.3533 Y1.7597
X4.3432 Y1.7537
X4.3426 Y1.7533
X4.3321 Y1.7476
X4.3315 Y1.7473
X4.3208 Y1.742
X4.3202 Y1.7417
X4.3092 Y1.7367
X4.3085 Y1.7364
X4.2972 Y1.7318
X4.2965 Y1.7315
X4.2849 Y1.7273
X4.2842 Y1.727
X4.2723 Y1.7232
X4.2716 Y1.723
X4.2594 Y1.7195
X4.2588 Y1.7193
X4.2462 Y1.7161
X4.2456 Y1.716
X4.2327 Y1.7132
X4.2322 Y1.7131
X4.2191 Y1.7106
X4.2187 Y1.7105
X4.2054 Y1.7083
X4.205 Y1.7082
X4.1915 Y1.7062
X4.1912 Y1.7061
X4.1776 Y1.7043
X4.1774
X4.1637 Y1.7027
X4.1635
X4.1497 Y1.7012
X4.1496
X4.1358 Y1.6998
X4.1357
X4.1219 Y1.6984
X4.1081 Y1.6971
X4.0945 Y1.6959
X4.0811 Y1.6945
X4.0678 Y1.6932
X4.0547 Y1.6917
X4.042 Y1.6901
X4.0296 Y1.6883
X4.0175 Y1.6864
X4.0058 Y1.6842
X3.9946 Y1.6818
X3.9838 Y1.6791
X3.9735 Y1.6761
X3.9638 Y1.6728
X3.9547 Y1.6692
X3.9461 Y1.6652
X3.9381 Y1.6609
X3.9307 Y1.6563
X3.9238 Y1.6515
X3.9174 Y1.6464
X3.9116 Y1.641
X3.9063 Y1.6354
X3.9015 Y1.6295
X3.8972 Y1.6235
X3.8934 Y1.6173
X3.8901 Y1.6109
X3.8874 Y1.6044
X3.885 Y1.5977
X3.8832 Y1.5909
X3.8819 Y1.5839
X3.881 Y1.5769
X3.8807 Y1.5697
X3.8808 Y1.5625
X3.8815 Y1.5552
X3.8826 Y1.5479
X3.8843 Y1.5405
X3.8865 Y1.5331
X3.8892 Y1.5257
X3.8924 Y1.5183
X3.8962 Y1.5108
X3.9004 Y1.5033
X3.9051 Y1.4957
X3.9102 Y1.4881
X3.9156 Y1.4804
X3.9214 Y1.4727
X3.9275 Y1.465
X3.9339 Y1.4573
X3.9405 Y1.4495
X3.9474 Y1.4417
X3.9543 Y1.4339
X3.9615 Y1.426
X3.9686 Y1.418
X3.9759 Y1.4101
Y1.41
X3.9831 Y1.4021
X3.9904 Y1.394
X3.9905 Y1.3939
X3.9976 Y1.3858
X3.9977 Y1.3857
X4.0046 Y1.3777
X4.0048 Y1.3774
X4.0116 Y1.3693
X4.0118 Y1.3691
X4.0184 Y1.361
X4.0187 Y1.3606
X4.025 Y1.3524
X4.0252 Y1.3521
X4.0313 Y1.3438
X4.0317 Y1.3434
X4.0374 Y1.3351
X4.0378 Y1.3345
X4.0432 Y1.3261
X4.0435 Y1.3257
X4.0486 Y1.3173
X4.049 Y1.3167
X4.0538 Y1.3081
X4.054 Y1.3077
X4.0585 Y1.2992
X4.0588 Y1.2985
X4.0629 Y1.2899
X4.0631 Y1.2894
X4.0669 Y1.2808
X4.0672 Y1.2803
X4.0706 Y1.2717
X4.0709 Y1.271
X4.074 Y1.2624
X4.0741 Y1.2618
X4.0769 Y1.2533
X4.0771 Y1.2526
X4.0795 Y1.2441
X4.0797 Y1.2434
X4.0817 Y1.2349
X4.0819 Y1.2342
X4.0836 Y1.2258
X4.0837 Y1.2251
X4.085 Y1.2168
X4.0852 Y1.216
X4.0861 Y1.2077
X4.0862 Y1.2069
X4.0868 Y1.1987
X4.0869 Y1.1979
X4.0871 Y1.1899
Y1.1891
X4.087 Y1.1811
X4.0869 Y1.1802
X4.0864 Y1.1724
X4.0863 Y1.1715
X4.0855 Y1.1639
X4.0853 Y1.1629
X4.0841 Y1.1554
X4.0839 Y1.1545
X4.0823 Y1.1472
X4.082 Y1.1462
X4.08 Y1.1391
X4.0797 Y1.138
X4.0773 Y1.1311
X4.0769 Y1.13
X4.0741 Y1.1233
X4.0736 Y1.1223
X4.0704 Y1.1158
X4.0699 Y1.1149
X4.0664 Y1.1086
X4.0658 Y1.1076
X4.0619 Y1.1015
X4.0613 Y1.1007
X4.0571 Y1.0948
X4.0565 Y1.094
X4.0519 Y1.0882
X4.0513 Y1.0875
X4.0464 Y1.082
X4.0458 Y1.0814
X4.0407 Y1.0761
X4.0401 Y1.0755
X4.0347 Y1.0704
X4.0341 Y1.0699
X4.0286 Y1.065
X4.028 Y1.0645
X4.0222 Y1.0598
X4.0216 Y1.0594
X4.0157 Y1.055
X4.0151 Y1.0546
X4.0091 Y1.0504
X4.0086 Y1.0501
X4.0024 Y1.0461
X4.0019 Y1.0458
X3.9956 Y1.0421
X3.9951 Y1.0418
X3.9889 Y1.0383
X3.9883 Y1.038
X3.9821 Y1.0349
X3.9815 Y1.0346
X3.9752 Y1.0317
X3.9747 Y1.0314
X3.9685 Y1.0288
X3.9679 Y1.0285
X3.9618 Y1.0262
X3.9612 Y1.0259
X3.9551 Y1.0239
X3.9545 Y1.0237
X3.9486 Y1.0219
X3.9479 Y1.0217
X3.9422 Y1.0202
X3.9414 Y1.02
X3.9359 Y1.0188
X3.9351 Y1.0186
X3.9298 Y1.0177
X3.9288 Y1.0176
X3.9238 Y1.017
X3.9228 Y1.0169
X3.9181 Y1.0166
X3.917 Y1.0165
X3.9124
X3.9113
X3.907 Y1.0168
X3.9058 Y1.0169
X3.9016 Y1.0173
X3.9004 Y1.0175
X3.8964 Y1.0183
X3.8952 Y1.0185
X3.8913 Y1.0195
X3.8901 Y1.0198
X3.8862 Y1.0211
X3.8851 Y1.0215
X3.8813 Y1.023
X3.8803 Y1.0235
X3.8766 Y1.0252
X3.8756 Y1.0257
X3.8719 Y1.0277
X3.871 Y1.0282
X3.8673 Y1.0305
X3.8666 Y1.031
X3.8629 Y1.0335
X3.8622 Y1.034
X3.8585 Y1.0368
X3.858 Y1.0372
X3.8543 Y1.0402
X3.8538 Y1.0406
X3.85 Y1.0439
X3.8496 Y1.0443
X3.8458 Y1.0478
X3.8454 Y1.0481
X3.8415 Y1.0519
X3.8413 Y1.0522
X3.8373 Y1.0562
X3.8371 Y1.0565
X3.833 Y1.0607
X3.8328 Y1.0609
X3.8286 Y1.0654
X3.8285 Y1.0656
X3.8242 Y1.0703
X3.8241 Y1.0705
X3.8196 Y1.0755
X3.8195
X3.8149 Y1.0808
X3.8101 Y1.0863
X3.8052 Y1.092
X3.8001 Y1.0978
X3.795 Y1.1038
X3.7897 Y1.1098
X3.7844 Y1.1159
X3.779 Y1.1222
X3.7734 Y1.1284
X3.7678 Y1.1347
X3.7622 Y1.1409
X3.7565 Y1.1472
X3.7507 Y1.1534
X3.7449 Y1.1595
X3.7391 Y1.1656
X3.7333 Y1.1715
X3.7274 Y1.1773
X3.7215 Y1.183
X3.7157 Y1.1885
X3.7099 Y1.1938
X3.7041 Y1.1988
X3.6983 Y1.2036
X3.6926 Y1.2082
X3.687 Y1.2124
X3.6814 Y1.2164
X3.676 Y1.22
X3.6706 Y1.2233
X3.6653 Y1.2263
X3.6601 Y1.2291
X3.6549 Y1.2317
X3.6498 Y1.234
X3.6448 Y1.2361
X3.6398 Y1.238
X3.6348 Y1.2398
X3.6299 Y1.2413
X3.6251 Y1.2428
X3.6203 Y1.2441
X3.6156 Y1.2454
X3.6109 Y1.2465
X3.6062 Y1.2475
X3.6016 Y1.2485
X3.5971 Y1.2495
X3.5926 Y1.2504
X3.5881 Y1.2513
X3.588 Y1.2514
X3.5837 Y1.2523
X3.5836
X3.5793 Y1.2532
X3.5791 Y1.2533
X3.575 Y1.2542
X3.5747 Y1.2543
X3.5707 Y1.2553
X3.5703 Y1.2554
X3.5664 Y1.2565
X3.5659 Y1.2566
X3.5622 Y1.2578
X3.5617 Y1.2579
X3.558 Y1.2592
X3.5576 Y1.2593
X3.554 Y1.2606
X3.5535 Y1.2608
X3.55 Y1.2622
X3.5495 Y1.2624
X3.546 Y1.2638
X3.5456 Y1.264
X3.5422 Y1.2656
X3.5418 Y1.2657
X3.5384 Y1.2674
X3.538 Y1.2675
X3.5347 Y1.2692
X3.5343 Y1.2694
X3.531 Y1.2712
X3.5307 Y1.2714
X3.5275 Y1.2732
X3.5271 Y1.2734
X3.524 Y1.2752
X3.5237 Y1.2754
X3.5206 Y1.2773
X3.5203 Y1.2775
X3.5172 Y1.2795
X3.5169 Y1.2797
X3.5139 Y1.2817
X3.5136 Y1.2819
X3.5106 Y1.284
X3.5104 Y1.2842
X3.5075 Y1.2863
X3.5072 Y1.2865
X3.5043 Y1.2886
X3.5041 Y1.2888
X3.5013 Y1.291
X3.5011 Y1.2912
X3.4983 Y1.2934
X3.4981 Y1.2935
X3.4953 Y1.2958
X3.4951 Y1.296
X3.4924 Y1.2982
X3.4922 Y1.2984
X3.4895 Y1.3007
X3.4894 Y1.3008
X3.4867 Y1.3032
X3.4866 Y1.3033
X3.4839 Y1.3057
X3.4838 Y1.3058
X3.4812 Y1.3082
X3.4811 Y1.3083
X3.4785 Y1.3107
X3.4784 Y1.3108
X3.4758 Y1.3132
X3.4732 Y1.3157
X3.4706 Y1.3182
X3.468 Y1.3206
X3.4655 Y1.3231
X3.4629 Y1.3255
X3.4604 Y1.3279
X3.4579 Y1.3302
X3.4553 Y1.3325
X3.4528 Y1.3348
X3.4502 Y1.3371
X3.4476 Y1.3393
X3.445 Y1.3415
X3.4424 Y1.3436
X3.4397 Y1.3457
X3.437 Y1.3477
X3.4342 Y1.3497
X3.4314 Y1.3516
X3.4285 Y1.3535
X3.4256 Y1.3553
X3.4226 Y1.3571
X3.4195 Y1.3588
X3.4162 Y1.3605
X3.4129 Y1.3622
X3.4095 Y1.3638
X3.406 Y1.3655
X3.4025 Y1.3671
X3.3989 Y1.3687
X3.3952 Y1.3703
X3.3916 Y1.3719
X3.3879 Y1.3735
X3.3878
X3.3842 Y1.3752
X3.384
X3.3804 Y1.3768
X3.3803 Y1.3769
X3.3767 Y1.3786
X3.3765 Y1.3787
X3.373 Y1.3804
X3.3727 Y1.3805
X3.3693 Y1.3823
X3.3689 Y1.3824
X3.3655 Y1.3842
X3.3651 Y1.3844
X3.3619 Y1.3863
X3.3614 Y1.3866
X3.3582 Y1.3885
X3.3577 Y1.3888
X3.3546 Y1.3908
X3.354 Y1.3912
X3.3511 Y1.3933
X3.3504 Y1.3937
X3.3476 Y1.3959
X3.3469 Y1.3964
X3.3442 Y1.3987
X3.3435 Y1.3993
X3.3409 Y1.4018
X3.3402 Y1.4025
X3.3377 Y1.405
X3.337 Y1.4058
X3.3347 Y1.4084
X3.3339 Y1.4093
X3.3318 Y1.4122
X3.3312 Y1.413
X3.3291 Y1.4161
X3.3285 Y1.4169
X3.3265 Y1.4202
X3.3262 Y1.4209
X3.3242 Y1.4244
X3.3239 Y1.4249
X3.322 Y1.4287
X3.3218 Y1.4292
X3.3199 Y1.4331
X3.3197 Y1.4335
X3.3179 Y1.4377
X3.3178 Y1.438
X3.316 Y1.4424
X3.3159 Y1.4426
X3.314 Y1.4472
Y1.4474
X3.3121 Y1.4521
Y1.4523
X3.3102 Y1.4572
Y1.4573
X3.3083 Y1.4625
X3.3082
X3.3063 Y1.4679
X3.3042 Y1.4734
X3.3021 Y1.4791
X3.2999 Y1.4849
X3.2976 Y1.491
X3.2951 Y1.4972
X3.2925 Y1.5035
X3.2898 Y1.51
X3.2869 Y1.5167
X3.2838 Y1.5236
X3.2805 Y1.5306
X3.277 Y1.5378
X3.2733 Y1.5452
X3.2693 Y1.5527
X3.2652 Y1.5603
X3.2608 Y1.568
X3.2562 Y1.5758
X3.2514 Y1.5836
X3.2464 Y1.5914
X3.2412 Y1.5991
X3.2358 Y1.6068
X3.2303 Y1.6144
X3.2245 Y1.6219
X3.2186 Y1.6293
X3.2125 Y1.6365
X3.2063 Y1.6434
X3.1999 Y1.6502
X3.1934 Y1.6567
X3.1868 Y1.6629
X3.18 Y1.6687
X3.1731 Y1.6743
X3.1662 Y1.6795
X3.1591 Y1.6843
X3.1519 Y1.6886
X3.1447 Y1.6926
X3.1374 Y1.6961
X3.13 Y1.6991
X3.1226 Y1.7016
X3.1151 Y1.7037
X3.1075 Y1.7053
X3.0998 Y1.7065
X3.092 Y1.7072
X3.0841 Y1.7075
X3.0761 Y1.7074
X3.0679 Y1.7068
X3.0596 Y1.7057
X3.0512 Y1.7042
X3.0426 Y1.7023
X3.0338 Y1.6999
X3.0249 Y1.6971
X3.0158 Y1.6939
X3.0066 Y1.6902
X2.9973 Y1.686
X2.9878 Y1.6814
X2.9782 Y1.6764
X2.9684 Y1.671
X2.9585 Y1.6651
X2.9485 Y1.6589
X2.9383 Y1.6522
X2.928 Y1.6451
X2.9176 Y1.6376
X2.9071 Y1.6297
X2.8964 Y1.6214
X2.8857 Y1.6129
X2.875 Y1.6041
X2.8642 Y1.595
X2.8534 Y1.5858
X2.8427 Y1.5763
X2.8321 Y1.5667
X2.8215 Y1.5571
X2.811 Y1.5473
X2.8007 Y1.5375
X2.7906 Y1.5277
X2.7806 Y1.5179
X2.7708 Y1.5082
X2.7612 Y1.4986
X2.7519 Y1.4891
X2.7429 Y1.4798
X2.7342 Y1.4707
X2.7258 Y1.4618
X2.7177 Y1.4532
X2.71 Y1.4448
X2.7028 Y1.4368
X2.6959 Y1.4292
X2.6895 Y1.422
X2.6835 Y1.4151
X2.678 Y1.4086
X2.6728 Y1.4024
X2.6681 Y1.3965
X2.6638 Y1.3909
X2.6598 Y1.3855
X2.6561 Y1.3802
X2.6528 Y1.3752
X2.6498 Y1.3703
X2.6471 Y1.3656
X2.6447 Y1.3609
X2.6425 Y1.3563
X2.6405 Y1.3517
X2.6388 Y1.347
X2.6372 Y1.3424
X2.6358 Y1.3376
X2.6345 Y1.3326
X2.6334 Y1.3275
X2.6324 Y1.3222
X2.6315 Y1.3166
X2.6308 Y1.3107
X2.6301 Y1.3045
X2.6296 Y1.298
X2.6291 Y1.2911
X2.6286 Y1.2838
X2.6282 Y1.2762
X2.6278 Y1.2683
X2.6275 Y1.2601
X2.6271 Y1.2517
X2.6268 Y1.2431
X2.6264 Y1.2343
X2.6261 Y1.2253
X2.6257 Y1.2162
X2.6253 Y1.2071
X2.6252 Y1.207
X2.6248 Y1.1978
Y1.1977
X2.6242 Y1.1885
Y1.1884
X2.6236 Y1.1791
Y1.179
X2.6229 Y1.1698
Y1.1696
X2.6221 Y1.1605
Y1.1602
X2.6213 Y1.1512
X2.6212 Y1.1509
X2.6202 Y1.1419
Y1.1416
X2.6191 Y1.1328
Y1.1325
X2.6178 Y1.1237
Y1.1234
X2.6164 Y1.1148
X2.6163 Y1.1144
X2.6148 Y1.106
X2.6147 Y1.1056
X2.6131 Y1.0975
X2.6129 Y1.097
X2.6111 Y1.089
X2.611 Y1.0885
X2.6089 Y1.0809
X2.6088 Y1.0803
X2.6066 Y1.0729
X2.6064 Y1.0723
X2.604 Y1.0652
X2.6038 Y1.0646
X2.6013 Y1.0578
X2.601 Y1.0572
X2.5984 Y1.0507
X2.5981 Y1.05
X2.5953 Y1.0438
X2.595 Y1.0432
X2.5921 Y1.0373
X2.5917 Y1.0366
X2.5886 Y1.031
X2.5883 Y1.0303
X2.5851 Y1.0251
X2.5846 Y1.0244
X2.5814 Y1.0195
X2.5809 Y1.0187
X2.5776 Y1.0142
X2.577 Y1.0135
X2.5736 Y1.0093
X2.573 Y1.0085
X2.5695 Y1.0048
X2.5688 Y1.004
X2.5653 Y1.0006
X2.5645 Y0.9998
X2.561 Y0.9967
X2.56 Y0.9959
X2.5565 Y0.9933
X2.5553 Y0.9925
X2.5518 Y0.9902
X2.5505 Y0.9894
X2.5469 Y0.9875
X2.5454 Y0.9868
X2.5418 Y0.9852
X2.5402 Y0.9846
X2.5366 Y0.9835
X2.5349 Y0.983
X2.5313 Y0.9822
X2.5295 Y0.9819
X2.5259 Y0.9815
X2.5239 Y0.9813
X2.5203
X2.5184
X2.5148 Y0.9817
X2.513 Y0.9819
X2.5093 Y0.9826
X2.5075 Y0.983
X2.5038 Y0.9841
X2.5022 Y0.9847
X2.4983 Y0.9862
X2.4968 Y0.9868
X2.4928 Y0.9888
X2.4916 Y0.9895
X2.4875 Y0.9919
X2.4863 Y0.9927
X2.4821 Y0.9956
X2.4811 Y0.9964
X2.4768 Y0.9998
X2.4759 Y1.0005
X2.4715 Y1.0046
X2.4708 Y1.0052
X2.4662 Y1.0098
X2.4656 Y1.0104
X2.461 Y1.0155
X2.4605 Y1.016
X2.4557 Y1.0216
X2.4553 Y1.0222
X2.4504 Y1.0283
X2.4501 Y1.0288
X2.4451 Y1.0355
X2.4448 Y1.0359
X2.4397 Y1.0432
X2.4394 Y1.0436
X2.4343 Y1.0515
X2.434 Y1.0518
X2.4288 Y1.0602
X2.4286 Y1.0606
X2.4232 Y1.0695
X2.423 Y1.0698
X2.4175 Y1.0794
X2.4174 Y1.0797
X2.4118 Y1.0898
X2.4116 Y1.0901
X2.406 Y1.1008
X2.4059 Y1.101
X2.4001 Y1.1123
X2.4 Y1.1125
X2.3941 Y1.1244
X2.394 Y1.1246
X2.3881 Y1.137
X2.388 Y1.1373
X2.3819 Y1.1503
X2.3818 Y1.1505
X2.3757 Y1.1641
X2.3756 Y1.1643
X2.3694 Y1.1785
Y1.1786
X2.363 Y1.1933
Y1.1934
X2.3566 Y1.2085
X2.3565
X2.35 Y1.224
Y1.2241
X2.3434 Y1.2399
X2.3368 Y1.256
X2.3301 Y1.2723
X2.3233 Y1.2887
X2.3165 Y1.3052
X2.3097 Y1.3218
X2.3028 Y1.3383
X2.2959 Y1.3548
X2.2889 Y1.3711
X2.282 Y1.3872
X2.275 Y1.4031
X2.2681 Y1.4187
X2.2611 Y1.4339
X2.2542 Y1.4487
X2.2473 Y1.463
X2.2404 Y1.4768
X2.2335 Y1.49
X2.2267 Y1.5026
X2.22 Y1.5144
X2.2133 Y1.5255
X2.2067 Y1.5359
X2.2002 Y1.5456
X2.1937 Y1.5548
X2.1872 Y1.5633
X2.1808 Y1.5714
X2.1745 Y1.579
X2.1681 Y1.5863
X2.1618 Y1.5931
X2.1555 Y1.5997
X2.1492 Y1.606
X2.1429 Y1.6122
X2.1366 Y1.6181
X2.1303 Y1.624
X2.124 Y1.6298
X2.1177 Y1.6356
X2.1113 Y1.6414
Y1.6415
X2.105 Y1.6474
X2.1049 Y1.6475
X2.0986 Y1.6534
X2.0984 Y1.6536
X2.0922 Y1.6596
X2.092 Y1.6598
X2.0858 Y1.666
X2.0855 Y1.6663
X2.0793 Y1.6727
X2.079 Y1.673
X2.0729 Y1.6797
X2.0726 Y1.6801
X2.0665 Y1.6871
X2.0661 Y1.6875
X2.06 Y1.6949
X2.0598 Y1.6952
X2.0536 Y1.703
X2.0534 Y1.7032
X2.0472 Y1.7113
X2.047 Y1.7115
X2.0407 Y1.7199
X2.0406 Y1.72
X2.0342 Y1.7286
Y1.7287
X2.0277 Y1.7375
X2.021 Y1.7465
X2.0143 Y1.7555
X2.0074 Y1.7646
X2.0003 Y1.7736
X1.9931 Y1.7826
X1.9857 Y1.7914
X1.9781 Y1.8001
X1.9702 Y1.8086
X1.9621 Y1.8169
X1.9538 Y1.8248
X1.9452 Y1.8325
X1.9364 Y1.8398
X1.9272 Y1.8466
X1.9178 Y1.8531
X1.908 Y1.8591
X1.8978 Y1.8645
X1.8873 Y1.8695
X1.8764 Y1.8738
X1.865 Y1.8776
X1.8532 Y1.8808
X1.841 Y1.8835
X1.8283 Y1.8858
X1.8152 Y1.8876
X1.8018 Y1.889
X1.788 Y1.89
X1.7739 Y1.8907
X1.7595 Y1.8912
X1.7448 Y1.8914
X1.7299 Y1.8915
X1.7147 Y1.8914
X1.6993 Y1.8912
X1.6838 Y1.8909
X1.6682 Y1.8907
X1.6681
X1.6524 Y1.8905
X1.6522
X1.6365 Y1.8904
X1.6363
X1.6205
X1.6202
X1.6044 Y1.8907
X1.6041
X1.5883 Y1.8912
X1.5879
X1.5721 Y1.892
X1.5717
X1.556 Y1.8931
X1.5555
X1.5398 Y1.8946
X1.5393 Y1.8947
X1.5237 Y1.8966
X1.5231 Y1.8967
X1.5076 Y1.899
X1.5071 Y1.8991
X1.4916 Y1.9019
X1.4911 Y1.902
X1.4758 Y1.9053
X1.4753 Y1.9054
X1.4601 Y1.9091
X1.4596 Y1.9092
X1.4446 Y1.9132
X1.4441 Y1.9134
X1.4292 Y1.9178
X1.4288 Y1.9179
X1.414 Y1.9227
X1.4136 Y1.9228
X1.3991 Y1.9279
X1.3987 Y1.928
X1.3843 Y1.9334
X1.3839 Y1.9335
X1.3698 Y1.9391
X1.3694 Y1.9393
X1.3555 Y1.9452
X1.3551 Y1.9453
X1.3415 Y1.9514
X1.3411 Y1.9516
X1.3277 Y1.9579
X1.3274 Y1.958
X1.3143 Y1.9645
X1.3139 Y1.9647
X1.3011 Y1.9713
X1.3008 Y1.9715
X1.2883 Y1.9783
X1.288 Y1.9785
X1.2757 Y1.9854
X1.2754 Y1.9855
X1.2636 Y1.9925
X1.2633 Y1.9927
X1.2518 Y1.9998
X1.2515 Y2.
X1.2404 Y2.0071
X1.2401 Y2.0073
X1.2293 Y2.0144
X1.229 Y2.0146
X1.2187 Y2.0218
X1.2184 Y2.022
X1.2085 Y2.0291
X1.2082 Y2.0293
X1.1987 Y2.0364
X1.1984 Y2.0366
X1.1894 Y2.0436
X1.1891 Y2.0438
X1.1805 Y2.0508
X1.1802 Y2.051
X1.172 Y2.0579
X1.1717 Y2.0581
X1.1639 Y2.0649
X1.1637 Y2.0651
X1.1562 Y2.0717
X1.156 Y2.0719
X1.1488 Y2.0785
X1.1486 Y2.0787
X1.1418 Y2.0851
X1.1417 Y2.0853
X1.1352 Y2.0915
X1.135 Y2.0917
X1.1288 Y2.0978
X1.1287 Y2.0979
X1.1228 Y2.1039
X1.1227 Y2.104
X1.1171 Y2.1098
X1.117
X1.1116 Y2.1154
X1.1064 Y2.1208
X1.1013 Y2.1259
X1.0966 Y2.1307
X1.0919 Y2.1352
X1.0875 Y2.1393
X1.0832 Y2.1432
X1.0791 Y2.1467
X1.0751 Y2.1498
X1.0712 Y2.1526
X1.0675 Y2.155
X1.0638 Y2.157
X1.0601 Y2.1588
X1.0582 Y2.1596
X1.0563 Y2.1603
X1.0543 Y2.1608
X1.0524 Y2.1613
X1.0505 Y2.1616
X1.0487 Y2.1618
X1.0468 Y2.162
X1.045
X1.0433 Y2.1619
X1.0416 Y2.1617
X1.0399 Y2.1614
X1.0383 Y2.161
X1.0368 Y2.1605
X1.0353 Y2.16
X1.0338 Y2.1593
X1.0323 Y2.1585
X1.0309 Y2.1575
X1.0295 Y2.1565
X1.0282 Y2.1554
X1.0268 Y2.1542
X1.0256 Y2.1528
X1.0244 Y2.1513
X1.0231 Y2.1497
X1.0217 Y2.1475
G2 X0.9873 Y2.1578 I-0.0157 J0.0103
G1 X0.989 Y2.5178
G2 X1.0181 Y2.5334 I0.0187 J-0.0001
G1 X1.0224 Y2.5305
X1.0267 Y2.5279
X1.031 Y2.5254
X1.0355 Y2.5229
X1.0401 Y2.5205
X1.0447 Y2.5183
X1.0494 Y2.5161
X1.0541 Y2.5141
X1.0588 Y2.5122
X1.0635 Y2.5105
X1.0681 Y2.5089
X1.0728 Y2.5076
X1.0774 Y2.5064
X1.082 Y2.5053
X1.0865 Y2.5045
X1.0908 Y2.5039
X1.0951 Y2.5034
X1.0993 Y2.5032
X1.1033
X1.1072 Y2.5034
X1.111 Y2.5038
X1.1145 Y2.5044
X1.1179 Y2.5052
X1.1211 Y2.5062
X1.1242 Y2.5074
X1.1271 Y2.5089
X1.1298 Y2.5105
X1.1323 Y2.5124
X1.1346 Y2.5145
X1.1368 Y2.5169
X1.1388 Y2.5194
X1.1407 Y2.5222
X1.1423 Y2.5253
X1.1438 Y2.5286
X1.1451 Y2.5321
X1.1462 Y2.536
X1.1471 Y2.5401
X1.1478 Y2.5445
X1.1483 Y2.5493
X1.1485 Y2.5543
Y2.5595
X1.1482 Y2.5651
X1.1477 Y2.5709
X1.1469 Y2.5769
X1.1458 Y2.5832
X1.1444 Y2.5897
X1.1427 Y2.5965
X1.1408 Y2.6034
X1.1386 Y2.6106
X1.136 Y2.6179
X1.1333 Y2.6255
X1.1302 Y2.6333
X1.127 Y2.6412
X1.1235 Y2.6492
X1.1198 Y2.6573
X1.1159 Y2.6656
X1.1119 Y2.6739
X1.1078 Y2.6822
X1.1035 Y2.6906
X1.0991 Y2.699
X1.0946 Y2.7074
X1.09 Y2.7158
X1.0854 Y2.7241
X1.0808 Y2.7324
X1.0761 Y2.7406
X1.0714 Y2.7487
X1.0668 Y2.7568
X1.0622 Y2.7647
X1.0576 Y2.7724
X1.0531 Y2.78
X1.0487 Y2.7875
X1.0444 Y2.7947
X1.0402 Y2.8018
X1.0362 Y2.8086
X1.0361 Y2.8087
X1.0323 Y2.8153
X1.0322 Y2.8154
X1.0285 Y2.8218
X1.0284 Y2.8219
X1.0249 Y2.8281
X1.0248 Y2.8282
X1.0214 Y2.8342
X1.0213 Y2.8343
X1.0181 Y2.8401
X1.018 Y2.8403
X1.015 Y2.8459
X1.0149 Y2.8461
X1.0121 Y2.8515
X1.012 Y2.8518
X1.0094 Y2.857
X1.0092 Y2.8573
X1.0069 Y2.8623
X1.0067 Y2.8627
X1.0046 Y2.8674
X1.0044 Y2.8679
X1.0025 Y2.8724
X1.0023 Y2.8729
X1.0006 Y2.8773
X1.0004 Y2.8779
X0.999 Y2.8821
X0.9988 Y2.8827
X0.9976 Y2.8867
X0.9974 Y2.8875
X0.9964 Y2.8913
X0.9962 Y2.8922
X0.9955 Y2.8958
X0.9953 Y2.8968
X0.9948 Y2.9003
X0.9947 Y2.9015
X0.9944 Y2.9047
Y2.9061
Y2.9092
Y2.9106
X0.9946 Y2.9136
X0.9948 Y2.9153
X0.9953 Y2.918
X0.9957 Y2.9198
X0.9964 Y2.9224
X0.9969 Y2.9241
X0.9979 Y2.9267
X0.9985 Y2.9281
X0.9997 Y2.9307
X1.0004 Y2.932
X1.0019 Y2.9345
X1.0026 Y2.9356
X1.0043 Y2.9381
X1.0049 Y2.939
X1.0068 Y2.9416
X1.0074 Y2.9423
X1.0096 Y2.9449
X1.0102 Y2.9455
X1.0125 Y2.9481
X1.013 Y2.9486
X1.0156 Y2.9512
X1.0161 Y2.9517
X1.0188 Y2.9542
X1.0192 Y2.9546
X1.0221 Y2.9572
X1.0224 Y2.9574
X1.0254 Y2.9599
X1.0256 Y2.9601
X1.0287 Y2.9626
X1.0288 Y2.9628
X1.032 Y2.9653
X1.0352 Y2.9678
X1.0384 Y2.9703
X1.0414 Y2.9728
X1.0444 Y2.9752
X1.0472 Y2.9776
X1.0499 Y2.98
X1.0524 Y2.9824
X1.0547 Y2.9848
X1.0568 Y2.9871
X1.0587 Y2.9894
X1.0604 Y2.9917
X1.0617 Y2.9939
X1.0629 Y2.996
X1.0638 Y2.9981
X1.0645 Y3.0002
X1.065 Y3.0024
X1.0654 Y3.0046
X1.0656 Y3.0069
X1.0657 Y3.0093
X1.0656 Y3.0117
X1.0654 Y3.0141
X1.0649 Y3.0167
X1.0643 Y3.0193
X1.0636 Y3.0221
X1.0626 Y3.025
X1.0615 Y3.028
X1.0602 Y3.031
X1.0587 Y3.0342
X1.0571 Y3.0375
X1.0553 Y3.0409
X1.0534 Y3.0443
X1.0513 Y3.0479
X1.0491 Y3.0515
X1.0468 Y3.0552
X1.0443 Y3.059
X1.0418 Y3.0629
X1.0392 Y3.0668
X1.0365 Y3.0708
X1.0338 Y3.0749
X1.0309 Y3.079
X1.0281 Y3.0833
X1.0252 Y3.0875
Y3.0876
X1.0223 Y3.0918
Y3.0919
X1.0194 Y3.0962
Y3.0963
X1.0166 Y3.1006
X1.0165 Y3.1008
X1.0137 Y3.1051
X1.0136 Y3.1053
X1.0109 Y3.1096
X1.0108 Y3.1098
X1.0081 Y3.1142
X1.008 Y3.1144
X1.0054 Y3.1188
X1.0052 Y3.119
X1.0027 Y3.1234
X1.0026 Y3.1237
X1.0002 Y3.1281
X1. Y3.1284
X0.9977 Y3.1328
X0.9975 Y3.1332
X0.9954 Y3.1376
X0.9952 Y3.138
X0.9932 Y3.1424
X0.9929 Y3.1429
X0.9911 Y3.1473
X0.9909 Y3.1478
X0.9892 Y3.1522
X0.9889 Y3.1528
X0.9874 Y3.1572
X0.9872 Y3.1578
X0.9858 Y3.1622
X0.9856 Y3.163
X0.9845 Y3.1673
X0.9843 Y3.1681
X0.9834 Y3.1724
X0.9832 Y3.1732
X0.9825 Y3.1775
X0.9823 Y3.1783
X0.9818 Y3.1826
X0.9817 Y3.1835
X0.9814 Y3.1877
Y3.1886
X0.9813 Y3.1927
Y3.1937
X0.9814 Y3.1977
Y3.1988
X0.9817 Y3.2027
X0.9818 Y3.2038
X0.9824 Y3.2076
X0.9825 Y3.2086
X0.9833 Y3.2123
X0.9835 Y3.2134
X0.9844 Y3.217
X0.9847 Y3.2181
X0.9859 Y3.2216
X0.9863 Y3.2228
X0.9876 Y3.2261
X0.9882 Y3.2274
X0.9897 Y3.2305
X0.9905 Y3.2318
X0.9922 Y3.2349
X0.9931 Y3.2362
X0.9951 Y3.239
X0.9961 Y3.2403
X0.9984 Y3.243
X0.9995 Y3.2442
X1.0021 Y3.2467
X1.0033 Y3.2478
X1.0061 Y3.2501
X1.0074 Y3.2511
X1.0105 Y3.2533
X1.0118 Y3.2541
X1.0152 Y3.2561
X1.0165 Y3.2568
X1.0203 Y3.2585
X1.0215 Y3.2591
X1.0256 Y3.2606
X1.0268 Y3.261
X1.0311 Y3.2624
X1.0323 Y3.2627
X1.037 Y3.2638
X1.0381 Y3.2641
X1.0432 Y3.265
X1.0442 Y3.2651
X1.0497 Y3.2658
X1.0505
X1.0564 Y3.2663
X1.057
X1.0632 Y3.2666
X1.0638
X1.0702
X1.0707
X1.0774
X1.0778
X1.0847 Y3.2664
X1.085 Y3.2663
X1.0921 Y3.266
X1.0923
X1.0996 Y3.2656
X1.0998
X1.1072 Y3.2652
X1.1147 Y3.2647
X1.1221 Y3.2642
X1.1295 Y3.2638
X1.1369 Y3.2635
X1.1442 Y3.2633
X1.1513 Y3.2632
X1.1583 Y3.2633
X1.1651 Y3.2637
X1.1717 Y3.2642
X1.178 Y3.265
X1.1841 Y3.2661
X1.1898 Y3.2674
X1.1952 Y3.269
X1.2003 Y3.271
X1.2049 Y3.2732
X1.2093 Y3.2757
X1.2133 Y3.2786
X1.217 Y3.2817
X1.2205 Y3.2852
X1.2238 Y3.289
X1.2268 Y3.2931
X1.2295 Y3.2974
X1.2321 Y3.302
X1.2343 Y3.3069
X1.2363 Y3.3121
X1.2381 Y3.3175
X1.2396 Y3.3231
X1.2409 Y3.329
X1.2419 Y3.3351
X1.2427 Y3.3414
X1.2432 Y3.3479
X1.2435 Y3.3545
X1.2436 Y3.3612
X1.2434 Y3.3681
X1.243 Y3.375
X1.2424 Y3.3821
X1.2415 Y3.3892
X1.2405 Y3.3963
X1.2392 Y3.4034
X1.2378 Y3.4106
X1.2362 Y3.4178
X1.2344 Y3.425
X1.2325 Y3.4322
X1.2303 Y3.4396
X1.2281 Y3.4469
X1.2256 Y3.4544
X1.223 Y3.4619
X1.2203 Y3.4695
X1.2175 Y3.4772
X1.2145 Y3.485
X1.2114 Y3.4929
X1.2082 Y3.5009
X1.205 Y3.509
X1.2016 Y3.5173
X1.1981 Y3.5257
X1.1946 Y3.5342
X1.191 Y3.5428
X1.1874 Y3.5516
X1.1837 Y3.5606
X1.18 Y3.5697
X1.1799 Y3.5698
X1.1762 Y3.579
Y3.5791
X1.1725 Y3.5885
X1.1724 Y3.5886
X1.1687 Y3.5982
Y3.5983
X1.1649 Y3.608
Y3.6081
X1.1612 Y3.6179
Y3.618
X1.1575 Y3.6279
Y3.628
X1.1538 Y3.638
Y3.6381
X1.1502 Y3.6482
Y3.6483
X1.1466 Y3.6584
Y3.6586
X1.1431 Y3.6687
Y3.6688
X1.1397 Y3.679
X1.1396 Y3.6791
X1.1363 Y3.6893
Y3.6894
X1.133 Y3.6996
Y3.6997
X1.1299 Y3.7099
X1.1298 Y3.71
X1.1268 Y3.7201
X1.1267 Y3.7202
X1.1238 Y3.7302
Y3.7304
X1.121 Y3.7403
X1.1209 Y3.7405
X1.1183 Y3.7503
X1.1182 Y3.7505
X1.1157 Y3.7601
X1.1156 Y3.7604
X1.1133 Y3.7699
X1.1132 Y3.7701
X1.111 Y3.7795
X1.1109 Y3.7797
X1.1089 Y3.7889
X1.1088 Y3.7892
X1.1069 Y3.7982
Y3.7985
X1.1052 Y3.8073
X1.1051 Y3.8076
X1.1036 Y3.8161
Y3.8165
X1.1022 Y3.8248
Y3.8252
X1.1011 Y3.8333
X1.101 Y3.8336
X1.1001 Y3.8414
Y3.8418
X1.0994 Y3.8494
X1.0993 Y3.8498
X1.0988 Y3.8571
Y3.8576
X1.0984 Y3.8646
Y3.8651
X1.0982 Y3.872
Y3.8725
Y3.8791
Y3.8796
X1.0984 Y3.886
Y3.8865
X1.0988 Y3.8927
Y3.8933
X1.0994 Y3.8993
Y3.8998
X1.1001 Y3.9056
X1.1002 Y3.9062
X1.101 Y3.9118
X1.1011 Y3.9124
X1.1021 Y3.9179
X1.1022 Y3.9185
X1.1034 Y3.9237
X1.1035 Y3.9244
X1.1048 Y3.9294
X1.105 Y3.9301
X1.1064 Y3.935
X1.1066 Y3.9356
X1.1082 Y3.9404
X1.1084 Y3.941
X1.1101 Y3.9456
X1.1103 Y3.9463
X1.1121 Y3.9507
X1.1124 Y3.9513
X1.1143 Y3.9557
X1.1146 Y3.9563
X1.1167 Y3.9605
X1.117 Y3.9611
X1.1192 Y3.9652
X1.1195 Y3.9657
X1.1218 Y3.9697
X1.1221 Y3.9702
X1.1245 Y3.9741
X1.1249 Y3.9747
X1.1274 Y3.9785
X1.1277 Y3.9789
X1.1304 Y3.9826
X1.1307 Y3.9831
X1.1335 Y3.9867
X1.1337 Y3.9871
X1.1366 Y3.9907
X1.137 Y3.9911
X1.1399 Y3.9946
X1.1401 Y3.9948
X1.1431 Y3.9982
X1.1433 Y3.9984
X1.1464 Y4.0018
X1.1465 Y4.002
X1.1497 Y4.0054
X1.1499 Y4.0056
X1.153 Y4.0089
X1.1531 Y4.009
X1.1563 Y4.0122
X1.1565 Y4.0124
X1.1596 Y4.0156
X1.1628 Y4.0188
X1.163 Y4.0189
X1.1661 Y4.022
X1.1692 Y4.0251
X1.1693 Y4.0252
X1.1724 Y4.0283
X1.1754 Y4.0313
X1.1783 Y4.0343
X1.1812 Y4.0373
X1.1839 Y4.0403
X1.1865 Y4.0432
X1.189 Y4.0462
X1.1914 Y4.0491
X1.1936 Y4.052
X1.1956 Y4.0548
X1.1975 Y4.0577
X1.1992 Y4.0605
X1.2007 Y4.0633
X1.2021 Y4.0662
X1.2034 Y4.069
X1.2045 Y4.0719
X1.2055 Y4.0749
X1.2064 Y4.0779
X1.2072 Y4.081
X1.2078 Y4.0841
X1.2084 Y4.0873
X1.2088 Y4.0905
X1.2091 Y4.0939
X1.2093 Y4.0973
Y4.1009
Y4.1045
X1.2091 Y4.1082
X1.2089 Y4.112
X1.2085 Y4.116
X1.2079 Y4.12
X1.2073 Y4.1241
X1.2066 Y4.1284
X1.2057 Y4.1327
X1.2047 Y4.1372
X1.2037 Y4.1418
X1.2025 Y4.1465
X1.2012 Y4.1514
X1.1999 Y4.1564
X1.1986 Y4.1615
X1.1973 Y4.1666
X1.1959 Y4.1718
Y4.1719
X1.1946 Y4.177
Y4.1772
X1.1933 Y4.1823
Y4.1825
X1.1921 Y4.1876
X1.192 Y4.1878
X1.1909 Y4.193
X1.1908 Y4.1932
X1.1898 Y4.1983
X1.1897 Y4.1986
X1.1888 Y4.2037
X1.1887 Y4.2041
X1.1879 Y4.2091
X1.1878 Y4.2095
X1.1871 Y4.2145
Y4.215
X1.1865 Y4.2198
Y4.2204
X1.1861 Y4.2252
X1.186 Y4.2259
X1.1858 Y4.2306
Y4.2314
Y4.236
Y4.2369
X1.186 Y4.2413
X1.1861 Y4.2423
X1.1865 Y4.2467
X1.1867 Y4.2478
X1.1873 Y4.252
X1.1876 Y4.2532
X1.1885 Y4.2573
X1.1888 Y4.2586
X1.19 Y4.2625
X1.1905 Y4.2639
X1.192 Y4.2677
X1.1925 Y4.269
X1.1943 Y4.2727
X1.1949 Y4.2739
X1.1969 Y4.2775
X1.1976 Y4.2787
X1.2 Y4.2822
X1.2006 Y4.2831
X1.2032 Y4.2866
X1.2041 Y4.2877
X1.207 Y4.291
X1.2077 Y4.2918
X1.2108 Y4.2951
X1.2116 Y4.2958
X1.2151 Y4.299
X1.2159 Y4.2997
X1.2196 Y4.3027
X1.2203 Y4.3032
X1.2243 Y4.3062
X1.2251 Y4.3067
X1.2293 Y4.3095
X1.23 Y4.3099
X1.2345 Y4.3126
X1.2352 Y4.313
X1.2399 Y4.3155
X1.2407 Y4.3159
X1.2456 Y4.3182
X1.2464 Y4.3185
X1.2515 Y4.3207
X1.2522 Y4.321
X1.2576 Y4.323
X1.2583 Y4.3232
X1.2638 Y4.3251
X1.2646 Y4.3253
X1.2704 Y4.327
X1.271 Y4.3271
X1.277 Y4.3286
X1.2777 Y4.3288
X1.284 Y4.3301
X1.2846 Y4.3302
X1.291 Y4.3313
X1.2917 Y4.3314
X1.2983 Y4.3323
X1.2989 Y4.3324
X1.3057 Y4.3331
X1.3064 Y4.3332
X1.3134 Y4.3336
X1.3139 Y4.3337
X1.3211 Y4.3339
X1.3216
X1.329 Y4.334
X1.3295
X1.3371 Y4.3339
X1.3373
X1.3451 Y4.3337
X1.3454 Y4.3336
X1.3534 Y4.3333
X1.3535 Y4.3332
X1.3616 Y4.3328
X1.3618
X1.3701 Y4.3322
X1.3785 Y4.3316
X1.387 Y4.3309
X1.3871
X1.3957 Y4.3303
X1.4044 Y4.3297
X1.4132 Y4.3291
X1.422 Y4.3286
X1.4309 Y4.3282
X1.4399 Y4.328
X1.4489 Y4.3278
X1.458 Y4.3279
X1.4671 Y4.3281
X1.4762 Y4.3286
X1.4853 Y4.3292
X1.4945 Y4.3302
X1.5038 Y4.3314
X1.5129 Y4.3329
X1.5221 Y4.3347
X1.5314 Y4.337
X1.5407 Y4.3394
X1.55 Y4.3423
X1.5594 Y4.3454
X1.5689 Y4.3489
X1.5785 Y4.3525
X1.5882 Y4.3565
X1.598 Y4.3607
X1.6079 Y4.3651
X1.618 Y4.3697
X1.6282 Y4.3745
X1.6385 Y4.3794
X1.649 Y4.3845
X1.6596 Y4.3897
X1.6704 Y4.395
X1.6705
X1.6815 Y4.4004
X1.6927 Y4.4058
X1.6928
X1.7041 Y4.4112
X1.7042 Y4.4113
X1.7157 Y4.4167
X1.7159 Y4.4168
X1.7276 Y4.4222
X1.7278
X1.7397 Y4.4276
X1.74 Y4.4277
X1.7521 Y4.433
X1.7523
X1.7647 Y4.4383
X1.765 Y4.4384
X1.7776 Y4.4435
X1.7779 Y4.4436
X1.7908 Y4.4486
X1.7911 Y4.4487
X1.8042 Y4.4536
X1.8045 Y4.4537
X1.8179 Y4.4584
X1.8181 Y4.4585
X1.8318 Y4.4631
X1.8321 Y4.4632
X1.846 Y4.4677
X1.8463 Y4.4678
X1.8604 Y4.4721
X1.8606 Y4.4722
X1.875 Y4.4764
X1.8752 Y4.4765
X1.8898 Y4.4805
X1.89
X1.9047 Y4.4844
X1.905 Y4.4845
X1.9199 Y4.4882
X1.9202
X1.9353 Y4.4917
X1.9355
X1.9508 Y4.4951
X1.951
X1.9665 Y4.4982
X1.9668 Y4.4983
X1.9823 Y4.5012
X1.9826
X1.9983 Y4.5039
X1.9985
X2.0143 Y4.5064
X2.0147
X2.0306 Y4.5087
X2.0309
X2.0469 Y4.5107
X2.0472
X2.0634 Y4.5125
X2.0637
X2.0799 Y4.514
X2.0802
X2.0965 Y4.5152
X2.0968 Y4.5153
X2.1132 Y4.5162
X2.1135 Y4.5163
X2.13 Y4.5169
X2.1303
X2.1468 Y4.5174
X2.1471
X2.1636 Y4.5175
X2.164
X2.1805 Y4.5173
X2.1809
X2.1975 Y4.5169
X2.1978
X2.2144 Y4.5162
X2.2147
X2.2314 Y4.5152
X2.2316
X2.2483 Y4.514
X2.2486
X2.2653 Y4.5126
X2.2655
X2.2822 Y4.5109
X2.2825
X2.2992 Y4.509
X2.2994
X2.3161 Y4.5069
X2.3163 Y4.5068
X2.333 Y4.5046
X2.3332 Y4.5045
X2.3498 Y4.502
X2.35
X2.3666 Y4.4993
X2.3668
X2.3834 Y4.4965
X2.3835 Y4.4964
X2.4 Y4.4934
X2.4003
X2.4167 Y4.4902
X2.4169
X2.4332 Y4.4869
X2.4334
X2.4497 Y4.4834
X2.4499
X2.4662 Y4.4798
X2.4663 Y4.4797
X2.4824 Y4.476
X2.4826
X2.4986 Y4.4722
X2.4988 Y4.4721
X2.5147 Y4.4682
X2.5149
X2.5307 Y4.4642
X2.5309 Y4.4641
X2.5466 Y4.46
X2.5467
X2.5623 Y4.4558
X2.5624
X2.5779 Y4.4515
X2.5781
X2.5935 Y4.4471
X2.6088 Y4.4428
X2.6089
X2.6241 Y4.4384
X2.6391 Y4.434
X2.6392
X2.6542 Y4.4296
X2.669 Y4.4252
X2.6837 Y4.4209
X2.6983 Y4.4166
X2.7128 Y4.4124
X2.7272 Y4.4082
X2.7414 Y4.4042
X2.7555 Y4.4002
X2.7695 Y4.3964
X2.7834 Y4.3928
X2.7972 Y4.3892
X2.8108 Y4.3858
X2.8244 Y4.3826
X2.8378 Y4.3796
X2.8511 Y4.3768
X2.8643 Y4.3742
X2.8773 Y4.3719
X2.8903 Y4.3698
X2.9032 Y4.3679
X2.9159 Y4.3662
X2.9286 Y4.3648
X2.9412 Y4.3635
X2.9537 Y4.3624
X2.9661 Y4.3615
X2.9784 Y4.3606
X2.9906 Y4.3599
X3.0027 Y4.3592
X3.0146 Y4.3585
X3.0265 Y4.3579
X3.0383 Y4.3573
X3.0499 Y4.3567
X3.05
X3.0615 Y4.356
X3.0616
X3.0729 Y4.3553
X3.0731
X3.0843 Y4.3545
X3.0844
X3.0954 Y4.3536
X3.0957 Y4.3535
X3.1066 Y4.3525
X3.1069 Y4.3524
X3.1176 Y4.3512
X3.1179
X3.1284 Y4.3498
X3.1289 Y4.3497
X3.1392 Y4.3481
X3.1396
X3.1498 Y4.3463
X3.1503 Y4.3462
X3.1604 Y4.3441
X3.161 Y4.344
X3.1709 Y4.3416
X3.1714 Y4.3415
X3.1811 Y4.3388
X3.1817 Y4.3387
X3.1913 Y4.3358
X3.1917 Y4.3356
X3.2012 Y4.3325
X3.2017 Y4.3323
X3.2111 Y4.3289
X3.2114 Y4.3288
X3.2207 Y4.3252
X3.2211 Y4.3251
X3.2303 Y4.3213
X3.2306 Y4.3212
X3.2397 Y4.3173
X3.24 Y4.3171
X3.249 Y4.3131
X3.2492 Y4.313
X3.2581 Y4.3089
X3.2582 Y4.3088
X3.2671 Y4.3046
X3.2672
X3.276 Y4.3004
X3.2761 Y4.3003
X3.2849 Y4.2961
X3.2936 Y4.2919
X3.3022 Y4.2877
X3.3107 Y4.2837
X3.3192 Y4.2797
X3.3275 Y4.2759
X3.3358 Y4.2723
X3.344 Y4.2688
X3.3522 Y4.2656
X3.3603 Y4.2626
X3.3683 Y4.26
X3.3763 Y4.2576
X3.3842 Y4.2555
X3.3921 Y4.2537
X3.4 Y4.2522
X3.4078 Y4.2511
X3.4157 Y4.2502
X3.4234 Y4.2496
X3.4312 Y4.2493
X3.439
X3.4468 Y4.2495
X3.4546 Y4.2499
X3.4623 Y4.2506
X3.47 Y4.2514
X3.4777 Y4.2525
X3.4854 Y4.2537
X3.493 Y4.2551
X3.5005 Y4.2567
X3.5081 Y4.2584
X3.5156 Y4.2602
X3.5231 Y4.2622
X3.5305 Y4.2642
X3.5378 Y4.2664
X3.5452 Y4.2687
X3.5524 Y4.271
X3.5596 Y4.2733
X3.5667 Y4.2757
X3.5738 Y4.2781
X3.5808 Y4.2805
X3.5877 Y4.283
X3.5947 Y4.2854
X3.6017 Y4.2878
X3.6018 Y4.2879
X3.6087 Y4.2902
X3.6088 Y4.2903
X3.6158 Y4.2926
X3.616 Y4.2927
X3.623 Y4.2949
X3.6231
X3.6302 Y4.2972
X3.6304
X3.6376 Y4.2994
X3.6379 Y4.2995
X3.6452 Y4.3015
X3.6455
X3.6528 Y4.3035
X3.6531
X3.6607 Y4.3054
X3.6611 Y4.3055
X3.6688 Y4.3072
X3.6692
X3.6771 Y4.3088
X3.6775 Y4.3089
X3.6856 Y4.3103
X3.686 Y4.3104
X3.6944 Y4.3117
X3.6949 Y4.3118
X3.7035 Y4.3129
X3.7038
X3.7127 Y4.3139
X3.7132 Y4.314
X3.7224 Y4.3147
X3.7228 Y4.3148
X3.7324 Y4.3154
X3.7327
X3.7426 Y4.3158
X3.743
X3.7533 Y4.316
X3.7537
X3.7643
X3.7647
X3.7757 Y4.3158
X3.7761 Y4.3157
X3.7875 Y4.3153
X3.7878
X3.7996 Y4.3146
X3.7999
X3.8121 Y4.3137
X3.8123
X3.8248 Y4.3127
X3.825 Y4.3126
X3.8378 Y4.3114
X3.838
X3.8511 Y4.3101
X3.8512
X3.8646 Y4.3086
X3.8648
X3.8784 Y4.307
X3.8785
X3.8923 Y4.3053
X3.8924
X3.9064 Y4.3035
X3.9065
X3.9207 Y4.3016
X3.9351 Y4.2997
X3.9352
X3.9497 Y4.2978
X3.9643 Y4.2958
X3.9791 Y4.2938
X3.9939 Y4.2918
X4.0087 Y4.2899
X4.0235 Y4.2879
X4.0383 Y4.286
X4.0531 Y4.2842
X4.0678 Y4.2825
X4.0824 Y4.2809
X4.0969 Y4.2794
X4.1114 Y4.2779
X4.1257 Y4.2766
X4.1399 Y4.2754
X4.1539 Y4.2743
X4.1679 Y4.2732
X4.1816 Y4.2722
X4.1953 Y4.2713
X4.2088 Y4.2704
X4.2221 Y4.2695
X4.2352 Y4.2687
X4.2483 Y4.2678
X4.261 Y4.2669
X4.2736 Y4.2661
X4.2738
X4.2861 Y4.2651
X4.2982 Y4.2642
X4.2984
X4.3103 Y4.2631
X4.3104
X4.322 Y4.262
X4.3221
X4.3336 Y4.2609
X4.3338 Y4.2608
X4.3449 Y4.2596
X4.3452 Y4.2595
X4.3561 Y4.2582
X4.3563 Y4.2581
X4.3669 Y4.2566
X4.3672
X4.3775 Y4.255
X4.3779
X4.3879 Y4.2532
X4.3882 Y4.2531
X4.398 Y4.2512
X4.3984
X4.4079 Y4.2491
X4.4083 Y4.249
X4.4175 Y4.2468
X4.4179 Y4.2467
X4.427 Y4.2444
X4.4274 Y4.2443
X4.4362 Y4.2417
X4.4365
X4.4452 Y4.2391
X4.4455 Y4.239
X4.454 Y4.2363
X4.4542 Y4.2362
X4.4627 Y4.2334
X4.4629 Y4.2333
X4.4713 Y4.2305
X4.4714 Y4.2304
X4.4797 Y4.2275
X4.4799 Y4.2274
X4.4881 Y4.2244
X4.4964 Y4.2215
X4.4965 Y4.2214
X4.5048 Y4.2184
X4.5131 Y4.2154
X4.5214 Y4.2124
X4.5298 Y4.2094
X4.5383 Y4.2065
X4.5468 Y4.2037
X4.5556 Y4.201
X4.5645 Y4.1983
X4.5735 Y4.1957
X4.5829 Y4.1932
X4.5924 Y4.1909
X4.6022 Y4.1887
X4.6124 Y4.1866
X4.6229 Y4.1847
X4.6337 Y4.183
X4.6448 Y4.1814
X4.6561 Y4.1799
X4.6675 Y4.1786
X4.6792 Y4.1775
X4.691 Y4.1765
X4.7027 Y4.1756
X4.7146 Y4.1749
X4.7265 Y4.1743
X4.7382 Y4.1739
X4.7499 Y4.1735
X4.7615 Y4.1733
X4.7729 Y4.1732
X4.7841 Y4.1733
X4.7951 Y4.1734
X4.8057 Y4.1737
X4.8161 Y4.174
X4.8261 Y4.1745
X4.8357 Y4.175
X4.8448 Y4.1757
X4.8535 Y4.1764
X4.8616 Y4.1772
X4.8691 Y4.1781
X4.876 Y4.1791
X4.8825 Y4.1801
X4.8883 Y4.1811
X4.8935 Y4.1823
X4.8983 Y4.1835
X4.9026 Y4.1847
X4.9065 Y4.186
X4.91 Y4.1873
X4.9132 Y4.1886
X4.916 Y4.1899
X4.9187 Y4.1913
X4.9211 Y4.1927
X4.9232 Y4.194
X4.9252 Y4.1954
X4.9271 Y4.1968
X4.9289 Y4.1982
X4.9307 Y4.1997
X4.9326 Y4.2014
X4.9346 Y4.203
X4.9364 Y4.2046
X4.9366 Y4.2048
X4.9385 Y4.2064
X4.9388 Y4.2067
X4.9407 Y4.2082
X4.9412 Y4.2086
X4.9432 Y4.2101
X4.9437 Y4.2105
X4.9457 Y4.2119
X4.9464 Y4.2124
X4.9486 Y4.2138
X4.9493 Y4.2142
X4.9517 Y4.2156
X4.9524 Y4.216
X4.955 Y4.2174
X4.9555 Y4.2176
X4.9582 Y4.219
X4.9589 Y4.2193
X4.9619 Y4.2206
X4.9627 Y4.2209
X4.9659 Y4.2221
X4.9665 Y4.2223
X4.9699 Y4.2235
X4.9705 Y4.2237
X4.9742 Y4.2248
X4.9748 Y4.225
X4.9788 Y4.2261
X4.9794 Y4.2262
X4.9835 Y4.2272
X4.9843 Y4.2274
X4.9887 Y4.2282
X4.9892 Y4.2283
X4.9939 Y4.2291
X4.9944 Y4.2292
X4.9994 Y4.2299
X4.9999 Y4.23
X5.0053 Y4.2306
X5.0059
X5.0115 Y4.2311
X5.012
X5.0179 Y4.2314
X5.0183
X5.0245 Y4.2316
X5.025
X5.0315 Y4.2317
X5.032
X5.0389 Y4.2315
X5.0393
X5.0465 Y4.2313
X5.047 Y4.2312
X5.0546 Y4.2308
X5.0549 Y4.2307
X5.0629 Y4.2301
X5.0633
X5.0716 Y4.2292
X5.0719
X5.0806 Y4.2282
X5.081
X5.0902 Y4.2269
X5.0904
X5.0998 Y4.2255
X5.1001 Y4.2254
X5.1099 Y4.2238
X5.1102
X5.1203 Y4.222
X5.1205 Y4.2219
X5.131 Y4.2199
X5.1312
X5.1419 Y4.2177
X5.1421
X5.1531 Y4.2153
X5.1534 Y4.2152
X5.1646 Y4.2127
X5.1647
X5.1762 Y4.21
X5.1764 Y4.2099
X5.188 Y4.2071
X5.1881 Y4.207
X5.2 Y4.204
X5.2002
X5.2122 Y4.2008
X5.2123
X5.2244 Y4.1975
X5.2246 Y4.1974
X5.2369 Y4.1939
X5.237
X5.2493 Y4.1903
X5.2495
X5.2619 Y4.1866
X5.262 Y4.1865
X5.2745 Y4.1827
X5.2746 Y4.1826
X5.2871 Y4.1787
X5.2873 Y4.1786
X5.2998 Y4.1746
X5.2999 Y4.1745
X5.3124 Y4.1703
X5.3126
X5.325 Y4.166
X5.3252
X5.3376 Y4.1616
X5.3377 Y4.1615
X5.3501 Y4.157
X5.3503
X5.3625 Y4.1524
X5.3627 Y4.1523
X5.3748 Y4.1476
X5.3749
X5.3869 Y4.1429
X5.3871 Y4.1428
X5.399 Y4.138
X5.3992 Y4.1379
X5.411 Y4.133
X5.4111 Y4.1329
X5.4227 Y4.128
X5.4228 Y4.1279
X5.4343 Y4.1229
X5.4345 Y4.1228
X5.4458 Y4.1177
X5.446 Y4.1176
X5.457 Y4.1124
X5.4572 Y4.1123
X5.4681 Y4.107
X5.4683 Y4.1069
X5.479 Y4.1016
X5.4792 Y4.1015
X5.4897 Y4.0961
X5.4899 Y4.096
X5.5001 Y4.0906
X5.5004 Y4.0904
X5.5104 Y4.0849
X5.5107 Y4.0848
X5.5204 Y4.0792
X5.5207 Y4.0791
X5.5303 Y4.0734
X5.5305 Y4.0733
X5.5398 Y4.0676
X5.5401 Y4.0675
X5.5491 Y4.0617
X5.5494 Y4.0616
X5.5581 Y4.0558
X5.5584 Y4.0556
X5.5669 Y4.0498
X5.5672 Y4.0495
X5.5754 Y4.0437
X5.5756 Y4.0435
X5.5835 Y4.0376
X5.5839 Y4.0373
X5.5914 Y4.0314
X5.5918 Y4.0311
X5.599 Y4.0251
X5.5993 Y4.0248
X5.6062 Y4.0188
X5.6066 Y4.0184
X5.6132 Y4.0124
X5.6136 Y4.012
X5.6197 Y4.0059
X5.62 Y4.0056
X5.626 Y3.9996
X5.6264 Y3.9991
X5.6319 Y3.993
X5.6323 Y3.9926
X5.6375 Y3.9864
X5.6379 Y3.9861
X5.6428 Y3.98
X5.6431 Y3.9795
X5.6477 Y3.9734
X5.648 Y3.973
X5.6523 Y3.967
X5.6526 Y3.9665
X5.6565 Y3.9606
X5.6569 Y3.9601
X5.6605 Y3.9542
X5.6608 Y3.9538
X5.6641 Y3.948
X5.6644 Y3.9474
X5.6675 Y3.9417
X5.6678 Y3.9411
X5.6705 Y3.9355
X5.6707 Y3.935
X5.6732 Y3.9296
X5.6734 Y3.929
X5.6756 Y3.9237
X5.6758 Y3.9231
X5.6777 Y3.9179
X5.678 Y3.9171
X5.6796 Y3.9122
X5.6797 Y3.9115
X5.6811 Y3.9068
X5.6813 Y3.906
X5.6824 Y3.9014
X5.6825 Y3.9005
X5.6833 Y3.8961
X5.6835 Y3.8951
X5.684 Y3.8909
X5.6841 Y3.89
X5.6844 Y3.8861
Y3.8849
X5.6845 Y3.8813
X5.6844 Y3.8798
X5.6842 Y3.8764
X5.684 Y3.8749
X5.6835 Y3.8718
X5.6833 Y3.8706
X5.6827 Y3.8678
X5.6823 Y3.8662
X5.6815 Y3.8636
X5.6809 Y3.862
X5.6799 Y3.8595
X5.6793 Y3.8582
X5.6781 Y3.8559
X5.6775 Y3.8547
X5.6762 Y3.8524
X5.6753 Y3.8512
X5.6738 Y3.849
X5.6729 Y3.8478
X5.6712 Y3.8457
X5.6704 Y3.8448
X5.6684 Y3.8427
X5.6679 Y3.8422
X5.6658 Y3.8402
X5.6652 Y3.8396
X5.663 Y3.8376
X5.6625 Y3.8372
X5.6602 Y3.8353
X5.6597 Y3.8349
X5.6572 Y3.833
X5.6569 Y3.8328
X5.6544 Y3.8309
X5.6541 Y3.8307
X5.6514 Y3.8287
X5.6512 Y3.8286
X5.6485 Y3.8267
X5.6457 Y3.8248
X5.6456 Y3.8247
X5.6428 Y3.8228
X5.64 Y3.8208
X5.6372 Y3.8188
X5.6345 Y3.8169
X5.6318 Y3.8148
X5.6292 Y3.8127
X5.6267 Y3.8106
X5.6243 Y3.8085
X5.622 Y3.8063
X5.6197 Y3.804
X5.6175 Y3.8016
X5.6152 Y3.7991
X5.613 Y3.7966
X5.6108 Y3.7941
X5.6085 Y3.7915
X5.6064 Y3.789
X5.6043 Y3.7865
X5.6041 Y3.7863
X5.602 Y3.7839
X5.5999 Y3.7816
X5.5996 Y3.7812
X5.5975 Y3.779
X5.5973 Y3.7788
X5.5953 Y3.7767
X5.595 Y3.7763
X5.5929 Y3.7743
X5.5925 Y3.7739
X5.5905 Y3.772
X5.59 Y3.7716
X5.588 Y3.7698
X5.5875 Y3.7693
X5.5854 Y3.7677
X5.5845 Y3.767
X5.5824 Y3.7655
X5.5817 Y3.7649
X5.5795 Y3.7636
X5.5786 Y3.763
X5.5764 Y3.7617
X5.5753 Y3.7612
X5.5731 Y3.7601
X5.5718 Y3.7595
X5.5695 Y3.7586
X5.5681 Y3.7581
X5.5657 Y3.7574
X5.5645 Y3.7571
X5.5624 Y3.7566
X5.5613 Y3.7564
X5.559 Y3.756
X5.5581 Y3.7559
X5.5557 Y3.7556
X5.5549 Y3.7555
X5.5523 Y3.7553
X5.5516
X5.5489 Y3.7552
X5.5482
X5.5454
X5.5448
X5.5418 Y3.7553
X5.5414
X5.5383 Y3.7555
X5.538
X5.5348 Y3.7557
X5.5345
X5.5312 Y3.756
X5.531
X5.5276 Y3.7564
X5.5275
X5.524 Y3.7567
X5.5203 Y3.7571
X5.5166 Y3.7574
X5.5129 Y3.7578
X5.5091 Y3.7581
X5.5053 Y3.7584
X5.5015 Y3.7587
X5.4976 Y3.7589
X5.4937 Y3.759
X5.4897
X5.4857
X5.4817 Y3.7589
X5.4777 Y3.7587
X5.4736 Y3.7583
X5.4695 Y3.7579
X5.4654 Y3.7573
X5.4613 Y3.7565
X5.4564 Y3.7555
X5.4515 Y3.7542
X5.4466 Y3.7527
X5.4417 Y3.7511
X5.4368 Y3.7493
X5.4319 Y3.7473
X5.427 Y3.7451
X5.4221 Y3.7428
X5.4174 Y3.7404
X5.4128 Y3.7379
X5.4082 Y3.7352
X5.4039 Y3.7325
X5.3996 Y3.7297
X5.3956 Y3.7269
X5.3918 Y3.7239
X5.3881 Y3.7209
X5.3847 Y3.7179
X5.3815 Y3.7149
X5.3786 Y3.7118
X5.3759 Y3.7088
X5.3735 Y3.7058
X5.3714 Y3.7028
X5.3695 Y3.6999
X5.368 Y3.6971
X5.367 Y3.695
X5.3662 Y3.6928
X5.3656 Y3.6907
X5.3652 Y3.6887
X5.3649 Y3.6867
X5.3648 Y3.6847
Y3.6828
X5.365 Y3.6808
X5.3654 Y3.6788
X5.3658 Y3.6768
X5.3664 Y3.6748
X5.3671 Y3.6728
X5.368 Y3.6707
X5.369 Y3.6686
X5.3701 Y3.6666
X5.3714 Y3.6644
X5.3728 Y3.6622
X5.3743 Y3.66
X5.3761 Y3.6577
X5.3779 Y3.6554
X5.3798 Y3.6531
X5.3818 Y3.6508
X5.3839 Y3.6484
X5.3862 Y3.6459
X5.3884 Y3.6435
X5.3956 Y3.636
Y3.6359
X5.3984 Y3.633
X5.4013 Y3.63
X5.4042 Y3.627
X5.4043 Y3.6269
X5.4072 Y3.6239
X5.4073 Y3.6238
X5.4102 Y3.6206
X5.4132 Y3.6175
Y3.6174
X5.4162 Y3.6142
X5.4163 Y3.614
X5.4193 Y3.6107
X5.4194 Y3.6106
X5.4224 Y3.6073
X5.4226 Y3.6071
X5.4256 Y3.6036
X5.4257 Y3.6035
X5.4288 Y3.5999
X5.429 Y3.5997
X5.432 Y3.596
X5.4322 Y3.5958
X5.4353 Y3.592
X5.4354 Y3.5919
X5.4385 Y3.5879
X5.4386 Y3.5878
X5.4418 Y3.5837
X5.442 Y3.5835
X5.4451 Y3.5793
X5.4453 Y3.579
X5.4485 Y3.5747
X5.4486 Y3.5745
X5.4518 Y3.57
X5.452 Y3.5697
X5.4551 Y3.565
X5.4553 Y3.5648
X5.4585 Y3.56
X5.4587 Y3.5597
X5.4619 Y3.5546
X5.462 Y3.5544
X5.4653 Y3.5492
X5.4655 Y3.5489
X5.4687 Y3.5434
X5.4689 Y3.5432
X5.4722 Y3.5375
X5.4723 Y3.5373
X5.4756 Y3.5314
X5.4757 Y3.5311
X5.479 Y3.525
X5.4791 Y3.5248
X5.4824 Y3.5185
X5.4825 Y3.5182
X5.4857 Y3.5118
X5.4859 Y3.5115
X5.4891 Y3.5049
Y3.5047
X5.4923 Y3.4979
X5.4924 Y3.4977
X5.4954 Y3.4908
X5.4955 Y3.4905
X5.4985 Y3.4836
X5.4986 Y3.4833
X5.5014 Y3.4763
X5.5015 Y3.476
X5.5042 Y3.469
X5.5043 Y3.4687
X5.5068 Y3.4616
X5.5069 Y3.4614
X5.5093 Y3.4544
X5.5095 Y3.4539
X5.5117 Y3.447
X5.5118 Y3.4465
X5.5138 Y3.4396
X5.5139 Y3.4393
X5.5157 Y3.4324
X5.5158 Y3.432
X5.5175 Y3.4252
X5.5176 Y3.4246
X5.519 Y3.418
X5.5191 Y3.4175
X5.5203 Y3.411
X5.5204 Y3.4103
X5.5213 Y3.404
X5.5214 Y3.4034
X5.5221 Y3.3973
Y3.3965
X5.5225 Y3.3906
X5.5226 Y3.3896
Y3.3839
Y3.3829
X5.5224 Y3.3774
X5.5223 Y3.3764
X5.5218 Y3.3713
X5.5216 Y3.37
X5.5208 Y3.3652
X5.5205 Y3.3637
X5.5194 Y3.3592
X5.519 Y3.358
X5.5176 Y3.3538
X5.5171 Y3.3523
X5.5154 Y3.3484
X5.5146 Y3.3468
X5.5127 Y3.3433
X5.5118 Y3.3418
X5.5097 Y3.3385
X5.5084 Y3.3368
X5.5059 Y3.3339
X5.5047 Y3.3326
X5.502 Y3.33
X5.5004 Y3.3286
X5.4975 Y3.3263
X5.4958 Y3.3251
X5.4926 Y3.3231
X5.4908 Y3.3222
X5.4873 Y3.3205
X5.4855 Y3.3197
X5.4816 Y3.3183
X5.4798 Y3.3178
X5.4756 Y3.3168
X5.4738 Y3.3164
X5.4692 Y3.3158
X5.4675 Y3.3156
X5.4625 Y3.3154
X5.461
X5.4556 Y3.3155
X5.4542 Y3.3156
X5.4485 Y3.3163
X5.4472 Y3.3165
X5.4412 Y3.3176
X5.44 Y3.3178
X5.4335 Y3.3194
X5.4325 Y3.3198
X5.4256 Y3.3219
X5.4247 Y3.3222
X5.4175 Y3.325
X5.4166 Y3.3253
X5.4091 Y3.3286
X5.4083 Y3.329
X5.4003 Y3.3329
X5.3996 Y3.3333
X5.3913 Y3.3378
X5.3907 Y3.3382
X5.382 Y3.3434
X5.3815 Y3.3438
X5.3725 Y3.3496
X5.372 Y3.35
X5.3628 Y3.3564
X5.3623 Y3.3567
X5.3529 Y3.3637
X5.3525 Y3.364
X5.3429 Y3.3715
X5.3425 Y3.3718
X5.3328 Y3.3798
X5.3325 Y3.3801
X5.3227 Y3.3886
X5.3224 Y3.3889
X5.3126 Y3.3977
X5.3123 Y3.398
X5.3026 Y3.4072
X5.3023 Y3.4075
X5.2926 Y3.4171
X5.2923 Y3.4174
X5.2828 Y3.4273
X5.2825 Y3.4276
X5.2731 Y3.4377
X5.2728 Y3.438
X5.2636 Y3.4484
X5.2633 Y3.4487
X5.2543 Y3.4592
X5.254 Y3.4596
X5.2454 Y3.4703
X5.2451 Y3.4706
X5.2368 Y3.4814
X5.2365 Y3.4818
X5.2285 Y3.4927
X5.2282 Y3.4931
X5.2207 Y3.504
X5.2204 Y3.5045
X5.2133 Y3.5154
X5.213 Y3.5159
X5.2065 Y3.5267
X5.2061 Y3.5274
X5.2001 Y3.5381
X5.1998 Y3.5388
X5.1944 Y3.5495
X5.194 Y3.5502
X5.1893 Y3.5608
X5.189 Y3.5616
X5.1849 Y3.5719
X5.1846 Y3.5729
X5.1812 Y3.583
X5.1809 Y3.5841
X5.1782 Y3.594
X5.178 Y3.595
X5.1759 Y3.6047
X5.1757 Y3.6057
X5.1742 Y3.6153
X5.174 Y3.6162
X5.173 Y3.6256
X5.1729 Y3.6265
X5.1724 Y3.6358
Y3.6367
X5.1723 Y3.6458
Y3.6466
X5.1726 Y3.6555
Y3.6563
X5.1733 Y3.6651
Y3.6657
X5.1743 Y3.6743
X5.1744 Y3.6749
X5.1756 Y3.6833
X5.1757 Y3.6839
X5.1771 Y3.6921
X5.1772 Y3.6925
X5.1788 Y3.7006
X5.1789 Y3.701
X5.1807 Y3.709
Y3.7092
X5.1826 Y3.717
Y3.7172
X5.1845 Y3.7248
Y3.7249
X5.1864 Y3.7323
X5.1883 Y3.7396
X5.1899 Y3.7466
X5.1915 Y3.7534
X5.1929 Y3.7598
X5.194 Y3.766
X5.1949 Y3.7719
X5.1954 Y3.7775
X5.1957 Y3.7828
X5.1956 Y3.7877
X5.1952 Y3.7923
X5.1946 Y3.7967
X5.1936 Y3.801
X5.1925 Y3.805
X5.1912 Y3.8087
X5.1896 Y3.8123
X5.1879 Y3.8157
X5.186 Y3.8188
X5.1839 Y3.8218
X5.1818 Y3.8245
X5.1794 Y3.8271
X5.177 Y3.8294
X5.1744 Y3.8316
X5.1718 Y3.8335
X5.1691 Y3.8352
X5.1664 Y3.8368
X5.1636 Y3.8381
X5.1609 Y3.8392
X5.1582 Y3.8401
X5.1555 Y3.8408
X5.1528 Y3.8413
X5.1503 Y3.8416
X5.1478
X5.1454 Y3.8415
X5.1429 Y3.8413
X5.1405 Y3.8408
X5.138 Y3.8402
X5.1355 Y3.8395
X5.133 Y3.8387
X5.1306 Y3.8377
X5.1281 Y3.8366
X5.1256 Y3.8354
X5.1231 Y3.8341
X5.1205 Y3.8326
X5.1179 Y3.8311
X5.1154 Y3.8295
X5.1128 Y3.8279
X5.11 Y3.8262
X5.1073 Y3.8245
X5.1046 Y3.8228
X5.1044 Y3.8226
X5.1018 Y3.821
X5.1016 Y3.8209
X5.099 Y3.8193
X5.0986 Y3.8191
X5.096 Y3.8176
X5.0954 Y3.8173
X5.0927 Y3.8159
X5.0923 Y3.8156
X5.0897 Y3.8143
X5.0889 Y3.814
X5.0862 Y3.8128
X5.0855 Y3.8125
X5.0828 Y3.8114
X5.0822 Y3.8112
X5.0794 Y3.8102
X5.0787 Y3.81
X5.0759 Y3.8091
X5.0752 Y3.8089
X5.0723 Y3.8082
X5.0717 Y3.808
X5.0687 Y3.8073
X5.0681 Y3.8072
X5.0652 Y3.8066
X5.0646 Y3.8065
X5.0615 Y3.806
X5.0609 Y3.8059
X5.0578 Y3.8055
X5.0573 Y3.8054
X5.0542 Y3.8051
X5.0537 Y3.805
X5.0505 Y3.8048
X5.05 Y3.8047
X5.0468 Y3.8046
X5.0463
X5.0431 Y3.8045
X5.0426
X5.0393 Y3.8044
X5.0389
X5.0355 Y3.8045
X5.0352
X5.0318 Y3.8046
X5.0314 Y3.8047
X5.028 Y3.8049
X5.0277
X5.0243 Y3.8052
X5.0239
X5.0205 Y3.8056
X5.0202
X5.0168 Y3.806
X5.0164
X5.013 Y3.8065
X5.0127 Y3.8066
X5.0092 Y3.8071
X5.0089 Y3.8072
X5.0054 Y3.8078
X5.0051
X5.0017 Y3.8085
X5.0014
X4.9979 Y3.8093
X4.9977
X4.9942 Y3.8101
X4.994
X4.9905 Y3.811
X4.9904
X4.9869 Y3.8118
X4.9868 Y3.8119
X4.9833 Y3.8127
X4.9798 Y3.8136
X4.9764 Y3.8144
X4.973 Y3.8151
X4.9697 Y3.8159
X4.9665 Y3.8165
X4.9633 Y3.817
X4.9602 Y3.8174
X4.9572 Y3.8177
X4.9542 Y3.8179
X4.9513
X4.9484 Y3.8178
X4.9457 Y3.8175
X4.9431 Y3.8171
X4.9405 Y3.8165
X4.9381 Y3.8157
X4.9357 Y3.8148
X4.9333 Y3.8137
X4.9311 Y3.8124
X4.9288 Y3.8108
X4.9265 Y3.8089
X4.9241 Y3.8067
X4.9217 Y3.8041
X4.9193 Y3.8012
X4.9168 Y3.798
X4.9142 Y3.7945
X4.9116 Y3.7907
X4.909 Y3.7868
X4.9063 Y3.7826
X4.9036 Y3.7783
X4.9008 Y3.7739
X4.8951 Y3.7649
X4.895 Y3.7647
X4.8921 Y3.7603
X4.892 Y3.7602
X4.8891 Y3.7558
X4.8889 Y3.7555
X4.8859 Y3.7512
X4.8857 Y3.7509
X4.8827 Y3.7467
X4.8824 Y3.7463
X4.8793 Y3.7422
X4.879 Y3.7417
X4.8758 Y3.7378
X4.8754 Y3.7373
X4.8721 Y3.7335
X4.8717 Y3.7329
X4.8683 Y3.7293
X4.8677 Y3.7287
X4.8642 Y3.7252
X4.8636 Y3.7246
X4.8601 Y3.7215
X4.8592 Y3.7207
X4.8556 Y3.7178
X4.8546 Y3.7171
X4.8508 Y3.7145
X4.8498 Y3.7138
X4.8459 Y3.7114
X4.8448 Y3.7108
X4.8407 Y3.7086
X4.8396 Y3.7081
X4.8353 Y3.7062
X4.8342 Y3.7058
X4.8296 Y3.7041
X4.8287 Y3.7038
X4.824 Y3.7023
X4.823 Y3.7021
X4.818 Y3.7008
X4.8172 Y3.7006
X4.8121 Y3.6996
X4.8113 Y3.6994
X4.806 Y3.6985
X4.8053 Y3.6984
X4.7997 Y3.6977
X4.7991 Y3.6976
X4.7934 Y3.6971
X4.7928 Y3.697
X4.7868 Y3.6966
X4.7864
X4.7802 Y3.6963
X4.7798
X4.7735 Y3.6962
X4.7731
X4.7666
X4.7662
X4.7595 Y3.6963
X4.7592
X4.7523 Y3.6965
X4.7521
X4.745 Y3.6968
X4.7448
X4.7375 Y3.6972
X4.7374
X4.7299 Y3.6977
X4.7298
X4.7222 Y3.6982
X4.7221
X4.7142 Y3.6988
X4.7062 Y3.6994
X4.698 Y3.7
X4.6897 Y3.7007
X4.6812 Y3.7013
X4.6727 Y3.702
X4.664 Y3.7026
X4.6553 Y3.7031
X4.6465 Y3.7036
X4.6377 Y3.704
X4.6288 Y3.7043
X4.62 Y3.7045
X4.6111
X4.6023 Y3.7044
X4.5935 Y3.7041
X4.5849 Y3.7035
X4.5763 Y3.7028
X4.5678 Y3.7018
X4.5595 Y3.7006
X4.5513 Y3.6991
X4.5433 Y3.6974
X4.5355 Y3.6954
X4.5278 Y3.693
X4.5204 Y3.6904
X4.5133 Y3.6874
X4.5063 Y3.6841
X4.4996 Y3.6805
X4.4932 Y3.6764
X4.4871 Y3.672
X4.4812 Y3.6673
X4.4756 Y3.6621
X4.4702 Y3.6566
X4.465 Y3.6508
X4.4602 Y3.6448
X4.4556 Y3.6385
X4.4513 Y3.632
X4.4473 Y3.6253
X4.4436 Y3.6185
X4.4402 Y3.6115
X4.437 Y3.6044
X4.4343 Y3.5973
X4.4318 Y3.5901
X4.4296 Y3.5829
X4.4278 Y3.5757
X4.4263 Y3.5687
X4.4251 Y3.5617
X4.4243 Y3.5548
X4.4238 Y3.5481
X4.4236 Y3.5415
X4.4238 Y3.5352
X4.4242 Y3.5291
X4.425 Y3.5235
X4.4261 Y3.5181
X4.4274 Y3.5129
X4.4291 Y3.5082
X4.431 Y3.5037
X4.4332 Y3.4994
X4.4356 Y3.4953
X4.4383 Y3.4915
X4.4412 Y3.4879
X4.4443 Y3.4845
X4.4477 Y3.4813
X4.4513 Y3.4783
X4.4551 Y3.4754
X4.4591 Y3.4726
X4.4634 Y3.4701
X4.4679 Y3.4677
X4.4725 Y3.4654
X4.4774 Y3.4633
X4.4824 Y3.4613
X4.4875 Y3.4595
X4.4928 Y3.4578
X4.4982 Y3.4563
X4.5037 Y3.4549
X4.5093 Y3.4536
X4.5149 Y3.4524
X4.5206 Y3.4513
X4.5264 Y3.4503
X4.5323 Y3.4494
X4.5382 Y3.4485
X4.5441 Y3.4477
X4.5502 Y3.4469
X4.5563 Y3.4461
X4.5625 Y3.4453
X4.5687 Y3.4444
X4.5688
X4.5751 Y3.4435
X4.5753
X4.5815 Y3.4425
X4.5817
X4.5879 Y3.4415
X4.5882 Y3.4414
X4.5945 Y3.4403
X4.5948 Y3.4402
X4.6011 Y3.4389
X4.6015
X4.6078 Y3.4375
X4.6083 Y3.4374
X4.6146 Y3.4358
X4.615 Y3.4357
X4.6214 Y3.434
X4.6219 Y3.4338
X4.6283 Y3.4319
X4.6288 Y3.4318
X4.6353 Y3.4296
X4.6359 Y3.4294
X4.6424 Y3.427
X4.6429 Y3.4268
X4.6494 Y3.4242
X4.65 Y3.424
X4.6566 Y3.4211
X4.6572 Y3.4208
X4.6638 Y3.4177
X4.6644 Y3.4174
X4.671 Y3.4139
X4.6717 Y3.4136
X4.6783 Y3.4098
X4.6789 Y3.4095
X4.6856 Y3.4054
X4.6861 Y3.4051
X4.6929 Y3.4006
X4.6935 Y3.4002
X4.7003 Y3.3954
X4.7007 Y3.3951
X4.7075 Y3.39
X4.708 Y3.3896
X4.7148 Y3.3842
X4.7152 Y3.3838
X4.722 Y3.378
X4.7224 Y3.3777
X4.7291 Y3.3715
X4.7295 Y3.3711
X4.7362 Y3.3647
X4.7366 Y3.3643
X4.7431 Y3.3575
X4.7435 Y3.3571
X4.7499 Y3.3499
X4.7503 Y3.3495
X4.7566 Y3.3421
X4.757 Y3.3416
X4.7632 Y3.3338
X4.7635 Y3.3334
X4.7696 Y3.3253
X4.77 Y3.3248
X4.7758 Y3.3163
X4.7762 Y3.3158
X4.7819 Y3.307
X4.7821 Y3.3065
X4.7877 Y3.2974
X4.788 Y3.2969
X4.7933 Y3.2874
X4.7935 Y3.2869
X4.7986 Y3.2771
X4.7989 Y3.2765
X4.8037 Y3.2664
X4.804 Y3.2658
X4.8085 Y3.2554
X4.8088 Y3.2548
X4.8131 Y3.244
X4.8133 Y3.2434
X4.8173 Y3.2323
X4.8175 Y3.2316
X4.8212 Y3.2201
X4.8213 Y3.2196
X4.8247 Y3.2077
X4.8249 Y3.2072
X4.8279 Y3.195
X4.8281 Y3.1945
X4.8308 Y3.182
X4.8309 Y3.1815
X4.8334 Y3.1689
X4.8335 Y3.1684
X4.8356 Y3.1555
X4.8357 Y3.155
X4.8374 Y3.1419
X4.8375 Y3.1415
X4.839 Y3.1284
Y3.1279
X4.8402 Y3.1147
Y3.1143
X4.8411 Y3.1011
Y3.1007
X4.8417 Y3.0875
Y3.087
X4.8419 Y3.0739
Y3.0735
Y3.0605
Y3.0601
X4.8416 Y3.0473
Y3.0468
X4.8409 Y3.0342
Y3.0338
X4.84 Y3.0214
Y3.0209
X4.8388 Y3.0088
Y3.0083
X4.8373 Y2.9965
X4.8372 Y2.996
X4.8355 Y2.9846
X4.8354 Y2.9842
X4.8334 Y2.9732
X4.8333 Y2.9725
X4.831 Y2.9621
X4.8309 Y2.9614
X4.8283 Y2.9515
X4.8281 Y2.9507
X4.8253 Y2.9413
X4.8251 Y2.9405
X4.822 Y2.9317
X4.8217 Y2.9308
X4.8184 Y2.9227
X4.8179 Y2.9217
X4.8144 Y2.9142
X4.8139 Y2.9132
X4.8101 Y2.9063
X4.8096 Y2.9054
X4.8056 Y2.8991
X4.8049 Y2.898
X4.8008 Y2.8923
X4.8001 Y2.8914
X4.7958 Y2.8861
X4.795 Y2.8852
X4.7905 Y2.8803
X4.7897 Y2.8795
X4.7851 Y2.8751
X4.7843 Y2.8744
X4.7796 Y2.8703
X4.7787 Y2.8696
X4.7738 Y2.8658
X4.7731 Y2.8653
X4.768 Y2.8618
X4.7674 Y2.8613
X4.7623 Y2.8581
X4.7617 Y2.8577
X4.7565 Y2.8547
X4.7559 Y2.8544
X4.7507 Y2.8516
X4.7503 Y2.8514
X4.745 Y2.8487
X4.7447 Y2.8486
X4.7394 Y2.846
X4.7392 Y2.8459
X4.7338 Y2.8433
X4.7285 Y2.8408
X4.7232 Y2.8384
X4.7182 Y2.836
X4.7133 Y2.8335
X4.7086 Y2.831
X4.7041 Y2.8285
X4.6998 Y2.8258
X4.6957 Y2.8231
X4.692 Y2.8202
X4.6884 Y2.8171
X4.6851 Y2.8139
X4.682 Y2.8105
X4.6792 Y2.807
X4.6767 Y2.8033
X4.6743 Y2.7994
X4.6722 Y2.7953
X4.6704 Y2.7911
X4.6688 Y2.7865
X4.6674 Y2.7817
X4.6663 Y2.7768
X4.6655 Y2.7717
X4.665 Y2.7663
X4.6648 Y2.7607
Y2.7548
X4.6652 Y2.7487
X4.6659 Y2.7423
X4.667 Y2.7357
X4.6684 Y2.7289
X4.6702 Y2.7219
X4.6723 Y2.7146
X4.6748 Y2.7072
X4.6777 Y2.6995
X4.6811 Y2.6916
X4.6847 Y2.6834
X4.6888 Y2.675
X4.6931 Y2.6664
X4.6977 Y2.6576
X4.7025 Y2.6488
X4.7075 Y2.6397
X4.7125 Y2.6305
X4.7177 Y2.6213
Y2.6212
X4.7228 Y2.6119
X4.728 Y2.6027
Y2.6026
X4.733 Y2.5933
X4.7331 Y2.5932
X4.738 Y2.584
X4.7381 Y2.5838
X4.7429 Y2.5747
Y2.5746
X4.7475 Y2.5656
X4.7477 Y2.5652
X4.752 Y2.5564
X4.7521 Y2.5561
X4.7561 Y2.5474
X4.7563 Y2.547
X4.76 Y2.5384
X4.7602 Y2.5379
X4.7635 Y2.5296
X4.7637 Y2.529
X4.7667 Y2.521
X4.7669 Y2.5203
X4.7694 Y2.5124
X4.7696 Y2.5115
X4.7716 Y2.504
X4.7719 Y2.5029
X4.7733 Y2.4957
X4.7735 Y2.4944
X4.7744 Y2.4875
X4.7745 Y2.4862
X4.7748 Y2.4805
Y2.4792
X4.7747 Y2.4737
Y2.4726
X4.7743 Y2.4673
X4.7742 Y2.4661
X4.7735 Y2.4611
X4.7732 Y2.4598
X4.7722 Y2.455
X4.7719 Y2.4536
X4.7705 Y2.449
X4.7701 Y2.4478
X4.7685 Y2.4434
X4.7681 Y2.4422
X4.7662 Y2.438
X4.7656 Y2.4368
X4.7635 Y2.4328
X4.7628 Y2.4316
X4.7605 Y2.4278
X4.7597 Y2.4267
X4.7571 Y2.4232
X4.7563 Y2.4222
X4.7535 Y2.4188
X4.7527 Y2.4179
X4.7497 Y2.4148
X4.7487 Y2.4138
X4.7455 Y2.411
X4.7445 Y2.4102
X4.7412 Y2.4076
X4.7402 Y2.4068
X4.7367 Y2.4044
X4.7356 Y2.4038
X4.732 Y2.4017
X4.7309 Y2.401
X4.7271 Y2.3992
X4.726 Y2.3986
X4.7221 Y2.397
X4.721 Y2.3966
X4.717 Y2.3952
X4.7158 Y2.3948
X4.7117 Y2.3937
X4.7105 Y2.3934
X4.7064 Y2.3926
X4.7052 Y2.3924
X4.701 Y2.3918
X4.6998 Y2.3917
X4.6956 Y2.3914
X4.6944 Y2.3913
X4.6901
X4.6889
X4.6845 Y2.3915
X4.6833 Y2.3916
X4.679 Y2.3921
X4.6779 Y2.3923
X4.6736 Y2.3931
X4.6723 Y2.3934
X4.6673 Y2.3947
X4.6659 Y2.3951
X4.6611 Y2.3967
X4.6598 Y2.3972
X4.6551 Y2.3993
X4.6539 Y2.3998
X4.6492 Y2.4022
X4.6481 Y2.4028
X4.6434 Y2.4056
X4.6424 Y2.4062
X4.6378 Y2.4094
X4.637 Y2.41
X4.6325 Y2.4135
X4.6318 Y2.414
X4.6273 Y2.4178
X4.6267 Y2.4184
X4.6222 Y2.4225
X4.6217 Y2.423
X4.6173 Y2.4275
X4.6168 Y2.4279
X4.6125 Y2.4326
X4.6121 Y2.4331
X4.6077 Y2.4381
X4.6074 Y2.4384
X4.6031 Y2.4436
X4.6028 Y2.444
X4.5985 Y2.4495
X4.5984 Y2.4497
X4.594 Y2.4554
X4.5938 Y2.4557
X4.5895 Y2.4616
X4.5893 Y2.4618
X4.585 Y2.4679
X4.5849 Y2.4681
X4.5806 Y2.4744
X4.5805 Y2.4745
X4.5762 Y2.481
X4.5761
X4.5718 Y2.4876
X4.5717 Y2.4877
X4.5691 Y2.4918
X4.5683 Y2.4926
X4.5671 Y2.4931
X4.5659
X4.5648 Y2.4927
X4.5622 Y2.491
X4.5612 Y2.4903 Z0.0327
X4.5603 Y2.4898 Z0.0334
X4.5597 Y2.4894 Z0.0344
X4.5595 Y2.4893 Z0.0356
G0 Z0.2625
X4.5629 Y2.484
G1 Z0.1019 F1.8
Z0.0194
X4.5631 Y2.4842 Z0.0182 F14.2
X4.5637 Y2.4845 Z0.0172
X4.5646 Y2.4851 Z0.0165
X4.5656 Y2.4857 Z0.0163
X4.5682 Y2.4874
X4.5691 Y2.4883
X4.5695 Y2.4894
X4.5696 Y2.4906
X4.5691 Y2.4918
X4.5674 Y2.4944
X4.5673 Y2.4945
X4.563 Y2.5012
Y2.5013
X4.5585 Y2.5082
X4.5541 Y2.5152
X4.5496 Y2.5221
Y2.5222
X4.5452 Y2.5291
X4.5408 Y2.536
X4.5363 Y2.5428
X4.5319 Y2.5495
X4.5275 Y2.5561
X4.5231 Y2.5625
X4.5187 Y2.5688
X4.5144 Y2.5749
X4.5101 Y2.5808
X4.5058 Y2.5864
X4.5016 Y2.5918
X4.4975 Y2.5969
X4.4933 Y2.6017
X4.4894 Y2.6063
X4.4855 Y2.6104
X4.4818 Y2.6141
X4.4783 Y2.6173
X4.4749 Y2.6201
X4.4717 Y2.6223
X4.4688 Y2.624
X4.466 Y2.6252
X4.4635 Y2.6261
X4.4611 Y2.6265
X4.4594 Y2.6266
X4.4578 Y2.6265
X4.4563 Y2.6262
X4.4547 Y2.6257
X4.4531 Y2.6249
X4.4514 Y2.6238
X4.4496 Y2.6224
X4.4476 Y2.6206
X4.4456 Y2.6184
X4.4434 Y2.6159
X4.4412 Y2.6131
X4.439 Y2.61
X4.4367 Y2.6066
X4.4344 Y2.6031
X4.432 Y2.5993
X4.4296 Y2.5954
X4.4272 Y2.5912
X4.4246 Y2.5868
X4.4222 Y2.5824
X4.4221
X4.4195 Y2.5778
X4.4168 Y2.5731
X4.4167 Y2.5729
X4.414 Y2.5682
X4.4112 Y2.5633
X4.4111 Y2.5632
X4.4082 Y2.5583
X4.4081 Y2.5582
X4.4052 Y2.5533
X4.4051 Y2.5531
X4.402 Y2.5483
X4.4019 Y2.548
X4.3987 Y2.5431
X4.3986 Y2.5429
X4.3953 Y2.538
X4.3951 Y2.5377
X4.3912 Y2.532
X4.391 Y2.5317
X4.3868 Y2.526
Y2.5259
X4.3825 Y2.5202
Y2.5201
X4.3782 Y2.5144
X4.3781 Y2.5143
X4.3738 Y2.5085
X4.3696 Y2.5028
X4.3653 Y2.497
X4.3612 Y2.4912
X4.3573 Y2.4855
X4.3536 Y2.4798
X4.35 Y2.474
X4.3468 Y2.4683
X4.3439 Y2.4625
X4.3413 Y2.4566
X4.339 Y2.4507
X4.3372 Y2.4449
X4.3357 Y2.4389
X4.3347 Y2.433
X4.3341 Y2.4271
X4.334 Y2.4211
X4.3345 Y2.415
X4.3354 Y2.4087
X4.337 Y2.4024
X4.3392 Y2.3957
X4.3421 Y2.3888
X4.3458 Y2.3816
X4.35 Y2.3742
X4.3549 Y2.3666
X4.3604 Y2.3588
X4.3662 Y2.3507
X4.3726 Y2.3425
X4.3794 Y2.334
X4.3864 Y2.3254
X4.3938 Y2.3167
X4.4014 Y2.3077
X4.4091 Y2.2987
X4.417 Y2.2895
Y2.2894
X4.4248 Y2.2801
X4.4249 Y2.28
X4.4327 Y2.2706
X4.4329 Y2.2705
X4.4406 Y2.261
X4.4407 Y2.2608
X4.4484 Y2.2513
X4.4486 Y2.251
X4.456 Y2.2413
X4.4562 Y2.241
X4.4634 Y2.2313
X4.4636 Y2.2309
X4.4705 Y2.2211
X4.4708 Y2.2207
X4.4774 Y2.2108
X4.4777 Y2.2103
X4.4838 Y2.2003
X4.4842 Y2.1997
X4.4899 Y2.1897
X4.4903 Y2.189
X4.4955 Y2.1788
X4.4958 Y2.1781
X4.5005 Y2.1679
X4.5008 Y2.1671
X4.505 Y2.1569
X4.5053 Y2.1561
X4.509 Y2.1458
X4.5093 Y2.145
X4.5125 Y2.1346
X4.5127 Y2.1338
X4.5154 Y2.1233
X4.5156 Y2.1225
X4.5178 Y2.112
X4.518 Y2.1112
X4.5198 Y2.1007
X4.5199 Y2.0999
X4.5212 Y2.0894
X4.5213 Y2.0886
X4.5222 Y2.078
Y2.0772
X4.5227 Y2.0666
Y2.0658
Y2.0552
Y2.0545
X4.5223 Y2.0438
X4.5222 Y2.0431
X4.5215 Y2.0325
X4.5214 Y2.0318
X4.5202 Y2.0211
X4.5201 Y2.0205
X4.5185 Y2.0098
X4.5184 Y2.0092
X4.5164 Y1.9986
X4.5163 Y1.998
X4.5139 Y1.9874
X4.5137 Y1.9868
X4.511 Y1.9763
X4.5109 Y1.9756
X4.5077 Y1.9651
X4.5076 Y1.9646
X4.5042 Y1.9542
X4.504 Y1.9536
X4.5002 Y1.9432
X4.5 Y1.9427
X4.4959 Y1.9324
X4.4957 Y1.9319
X4.4913 Y1.9216
X4.491 Y1.9211
X4.4863 Y1.9109
X4.4861 Y1.9105
X4.4811 Y1.9004
X4.4808 Y1.8999
X4.4755 Y1.89
X4.4752 Y1.8895
X4.4696 Y1.8797
X4.4693 Y1.8792
X4.4634 Y1.8697
X4.4631 Y1.8692
X4.4569 Y1.8598
X4.4566 Y1.8593
X4.4501 Y1.8501
X4.4497 Y1.8496
X4.443 Y1.8407
X4.4426 Y1.8402
X4.4355 Y1.8314
X4.4351 Y1.8309
X4.4277 Y1.8224
X4.4273 Y1.8219
X4.4196 Y1.8136
X4.4192 Y1.8132
X4.4112 Y1.8051
X4.4107 Y1.8046
X4.4024 Y1.7968
X4.402 Y1.7964
X4.3934 Y1.7889
X4.3929 Y1.7885
X4.384 Y1.7812
X4.3835 Y1.7808
X4.3743 Y1.7739
X4.3737 Y1.7735
X4.3642 Y1.7668
X4.3636 Y1.7664
X4.3538 Y1.7601
X4.3533 Y1.7597
X4.3432 Y1.7537
X4.3426 Y1.7533
X4.3321 Y1.7476
X4.3315 Y1.7473
X4.3208 Y1.742
X4.3202 Y1.7417
X4.3092 Y1.7367
X4.3085 Y1.7364
X4.2972 Y1.7318
X4.2965 Y1.7315
X4.2849 Y1.7273
X4.2842 Y1.727
X4.2723 Y1.7232
X4.2716 Y1.723
X4.2594 Y1.7195
X4.2588 Y1.7193
X4.2462 Y1.7161
X4.2456 Y1.716
X4.2327 Y1.7132
X4.2322 Y1.7131
X4.2191 Y1.7106
X4.2187 Y1.7105
X4.2054 Y1.7083
X4.205 Y1.7082
X4.1915 Y1.7062
X4.1912 Y1.7061
X4.1776 Y1.7043
X4.1774
X4.1637 Y1.7027
X4.1635
X4.1497 Y1.7012
X4.1496
X4.1358 Y1.6998
X4.1357
X4.1219 Y1.6984
X4.1081 Y1.6971
X4.0945 Y1.6959
X4.0811 Y1.6945
X4.0678 Y1.6932
X4.0547 Y1.6917
X4.042 Y1.6901
X4.0296 Y1.6883
X4.0175 Y1.6864
X4.0058 Y1.6842
X3.9946 Y1.6818
X3.9838 Y1.6791
X3.9735 Y1.6761
X3.9638 Y1.6728
X3.9547 Y1.6692
X3.9461 Y1.6652
X3.9381 Y1.6609
X3.9307 Y1.6563
X3.9238 Y1.6515
X3.9174 Y1.6464
X3.9116 Y1.641
X3.9063 Y1.6354
X3.9015 Y1.6295
X3.8972 Y1.6235
X3.8934 Y1.6173
X3.8901 Y1.6109
X3.8874 Y1.6044
X3.885 Y1.5977
X3.8832 Y1.5909
X3.8819 Y1.5839
X3.881 Y1.5769
X3.8807 Y1.5697
X3.8808 Y1.5625
X3.8815 Y1.5552
X3.8826 Y1.5479
X3.8843 Y1.5405
X3.8865 Y1.5331
X3.8892 Y1.5257
X3.8924 Y1.5183
X3.8962 Y1.5108
X3.9004 Y1.5033
X3.9051 Y1.4957
X3.9102 Y1.4881
X3.9156 Y1.4804
X3.9214 Y1.4727
X3.9275 Y1.465
X3.9339 Y1.4573
X3.9405 Y1.4495
X3.9474 Y1.4417
X3.9543 Y1.4339
X3.9615 Y1.426
X3.9686 Y1.418
X3.9759 Y1.4101
Y1.41
X3.9831 Y1.4021
X3.9904 Y1.394
X3.9905 Y1.3939
X3.9976 Y1.3858
X3.9977 Y1.3857
X4.0046 Y1.3777
X4.0048 Y1.3774
X4.0116 Y1.3693
X4.0118 Y1.3691
X4.0184 Y1.361
X4.0187 Y1.3606
X4.025 Y1.3524
X4.0252 Y1.3521
X4.0313 Y1.3438
X4.0317 Y1.3434
X4.0374 Y1.3351
X4.0378 Y1.3345
X4.0432 Y1.3261
X4.0435 Y1.3257
X4.0486 Y1.3173
X4.049 Y1.3167
X4.0538 Y1.3081
X4.054 Y1.3077
X4.0585 Y1.2992
X4.0588 Y1.2985
X4.0629 Y1.2899
X4.0631 Y1.2894
X4.0669 Y1.2808
X4.0672 Y1.2803
X4.0706 Y1.2717
X4.0709 Y1.271
X4.074 Y1.2624
X4.0741 Y1.2618
X4.0769 Y1.2533
X4.0771 Y1.2526
X4.0795 Y1.2441
X4.0797 Y1.2434
X4.0817 Y1.2349
X4.0819 Y1.2342
X4.0836 Y1.2258
X4.0837 Y1.2251
X4.085 Y1.2168
X4.0852 Y1.216
X4.0861 Y1.2077
X4.0862 Y1.2069
X4.0868 Y1.1987
X4.0869 Y1.1979
X4.0871 Y1.1899
Y1.1891
X4.087 Y1.1811
X4.0869 Y1.1802
X4.0864 Y1.1724
X4.0863 Y1.1715
X4.0855 Y1.1639
X4.0853 Y1.1629
X4.0841 Y1.1554
X4.0839 Y1.1545
X4.0823 Y1.1472
X4.082 Y1.1462
X4.08 Y1.1391
X4.0797 Y1.138
X4.0773 Y1.1311
X4.0769 Y1.13
X4.0741 Y1.1233
X4.0736 Y1.1223
X4.0704 Y1.1158
X4.0699 Y1.1149
X4.0664 Y1.1086
X4.0658 Y1.1076
X4.0619 Y1.1015
X4.0613 Y1.1007
X4.0571 Y1.0948
X4.0565 Y1.094
X4.0519 Y1.0882
X4.0513 Y1.0875
X4.0464 Y1.082
X4.0458 Y1.0814
X4.0407 Y1.0761
X4.0401 Y1.0755
X4.0347 Y1.0704
X4.0341 Y1.0699
X4.0286 Y1.065
X4.028 Y1.0645
X4.0222 Y1.0598
X4.0216 Y1.0594
X4.0157 Y1.055
X4.0151 Y1.0546
X4.0091 Y1.0504
X4.0086 Y1.0501
X4.0024 Y1.0461
X4.0019 Y1.0458
X3.9956 Y1.0421
X3.9951 Y1.0418
X3.9889 Y1.0383
X3.9883 Y1.038
X3.9821 Y1.0349
X3.9815 Y1.0346
X3.9752 Y1.0317
X3.9747 Y1.0314
X3.9685 Y1.0288
X3.9679 Y1.0285
X3.9618 Y1.0262
X3.9612 Y1.0259
X3.9551 Y1.0239
X3.9545 Y1.0237
X3.9486 Y1.0219
X3.9479 Y1.0217
X3.9422 Y1.0202
X3.9414 Y1.02
X3.9359 Y1.0188
X3.9351 Y1.0186
X3.9298 Y1.0177
X3.9288 Y1.0176
X3.9238 Y1.017
X3.9228 Y1.0169
X3.9181 Y1.0166
X3.917 Y1.0165
X3.9124
X3.9113
X3.907 Y1.0168
X3.9058 Y1.0169
X3.9016 Y1.0173
X3.9004 Y1.0175
X3.8964 Y1.0183
X3.8952 Y1.0185
X3.8913 Y1.0195
X3.8901 Y1.0198
X3.8862 Y1.0211
X3.8851 Y1.0215
X3.8813 Y1.023
X3.8803 Y1.0235
X3.8766 Y1.0252
X3.8756 Y1.0257
X3.8719 Y1.0277
X3.871 Y1.0282
X3.8673 Y1.0305
X3.8666 Y1.031
X3.8629 Y1.0335
X3.8622 Y1.034
X3.8585 Y1.0368
X3.858 Y1.0372
X3.8543 Y1.0402
X3.8538 Y1.0406
X3.85 Y1.0439
X3.8496 Y1.0443
X3.8458 Y1.0478
X3.8454 Y1.0481
X3.8415 Y1.0519
X3.8413 Y1.0522
X3.8373 Y1.0562
X3.8371 Y1.0565
X3.833 Y1.0607
X3.8328 Y1.0609
X3.8286 Y1.0654
X3.8285 Y1.0656
X3.8242 Y1.0703
X3.8241 Y1.0705
X3.8196 Y1.0755
X3.8195
X3.8149 Y1.0808
X3.8101 Y1.0863
X3.8052 Y1.092
X3.8001 Y1.0978
X3.795 Y1.1038
X3.7897 Y1.1098
X3.7844 Y1.1159
X3.779 Y1.1222
X3.7734 Y1.1284
X3.7678 Y1.1347
X3.7622 Y1.1409
X3.7565 Y1.1472
X3.7507 Y1.1534
X3.7449 Y1.1595
X3.7391 Y1.1656
X3.7333 Y1.1715
X3.7274 Y1.1773
X3.7215 Y1.183
X3.7157 Y1.1885
X3.7099 Y1.1938
X3.7041 Y1.1988
X3.6983 Y1.2036
X3.6926 Y1.2082
X3.687 Y1.2124
X3.6814 Y1.2164
X3.676 Y1.22
X3.6706 Y1.2233
X3.6653 Y1.2263
X3.6601 Y1.2291
X3.6549 Y1.2317
X3.6498 Y1.234
X3.6448 Y1.2361
X3.6398 Y1.238
X3.6348 Y1.2398
X3.6299 Y1.2413
X3.6251 Y1.2428
X3.6203 Y1.2441
X3.6156 Y1.2454
X3.6109 Y1.2465
X3.6062 Y1.2475
X3.6016 Y1.2485
X3.5971 Y1.2495
X3.5926 Y1.2504
X3.5881 Y1.2513
X3.588 Y1.2514
X3.5837 Y1.2523
X3.5836
X3.5793 Y1.2532
X3.5791 Y1.2533
X3.575 Y1.2542
X3.5747 Y1.2543
X3.5707 Y1.2553
X3.5703 Y1.2554
X3.5664 Y1.2565
X3.5659 Y1.2566
X3.5622 Y1.2578
X3.5617 Y1.2579
X3.558 Y1.2592
X3.5576 Y1.2593
X3.554 Y1.2606
X3.5535 Y1.2608
X3.55 Y1.2622
X3.5495 Y1.2624
X3.546 Y1.2638
X3.5456 Y1.264
X3.5422 Y1.2656
X3.5418 Y1.2657
X3.5384 Y1.2674
X3.538 Y1.2675
X3.5347 Y1.2692
X3.5343 Y1.2694
X3.531 Y1.2712
X3.5307 Y1.2714
X3.5275 Y1.2732
X3.5271 Y1.2734
X3.524 Y1.2752
X3.5237 Y1.2754
X3.5206 Y1.2773
X3.5203 Y1.2775
X3.5172 Y1.2795
X3.5169 Y1.2797
X3.5139 Y1.2817
X3.5136 Y1.2819
X3.5106 Y1.284
X3.5104 Y1.2842
X3.5075 Y1.2863
X3.5072 Y1.2865
X3.5043 Y1.2886
X3.5041 Y1.2888
X3.5013 Y1.291
X3.5011 Y1.2912
X3.4983 Y1.2934
X3.4981 Y1.2935
X3.4953 Y1.2958
X3.4951 Y1.296
X3.4924 Y1.2982
X3.4922 Y1.2984
X3.4895 Y1.3007
X3.4894 Y1.3008
X3.4867 Y1.3032
X3.4866 Y1.3033
X3.4839 Y1.3057
X3.4838 Y1.3058
X3.4812 Y1.3082
X3.4811 Y1.3083
X3.4785 Y1.3107
X3.4784 Y1.3108
X3.4758 Y1.3132
X3.4732 Y1.3157
X3.4706 Y1.3182
X3.468 Y1.3206
X3.4655 Y1.3231
X3.4629 Y1.3255
X3.4604 Y1.3279
X3.4579 Y1.3302
X3.4553 Y1.3325
X3.4528 Y1.3348
X3.4502 Y1.3371
X3.4476 Y1.3393
X3.445 Y1.3415
X3.4424 Y1.3436
X3.4397 Y1.3457
X3.437 Y1.3477
X3.4342 Y1.3497
X3.4314 Y1.3516
X3.4285 Y1.3535
X3.4256 Y1.3553
X3.4226 Y1.3571
X3.4195 Y1.3588
X3.4162 Y1.3605
X3.4129 Y1.3622
X3.4095 Y1.3638
X3.406 Y1.3655
X3.4025 Y1.3671
X3.3989 Y1.3687
X3.3952 Y1.3703
X3.3916 Y1.3719
X3.3879 Y1.3735
X3.3878
X3.3842 Y1.3752
X3.384
X3.3804 Y1.3768
X3.3803 Y1.3769
X3.3767 Y1.3786
X3.3765 Y1.3787
X3.373 Y1.3804
X3.3727 Y1.3805
X3.3693 Y1.3823
X3.3689 Y1.3824
X3.3655 Y1.3842
X3.3651 Y1.3844
X3.3619 Y1.3863
X3.3614 Y1.3866
X3.3582 Y1.3885
X3.3577 Y1.3888
X3.3546 Y1.3908
X3.354 Y1.3912
X3.3511 Y1.3933
X3.3504 Y1.3937
X3.3476 Y1.3959
X3.3469 Y1.3964
X3.3442 Y1.3987
X3.3435 Y1.3993
X3.3409 Y1.4018
X3.3402 Y1.4025
X3.3377 Y1.405
X3.337 Y1.4058
X3.3347 Y1.4084
X3.3339 Y1.4093
X3.3318 Y1.4122
X3.3312 Y1.413
X3.3291 Y1.4161
X3.3285 Y1.4169
X3.3265 Y1.4202
X3.3262 Y1.4209
X3.3242 Y1.4244
X3.3239 Y1.4249
X3.322 Y1.4287
X3.3218 Y1.4292
X3.3199 Y1.4331
X3.3197 Y1.4335
X3.3179 Y1.4377
X3.3178 Y1.438
X3.316 Y1.4424
X3.3159 Y1.4426
X3.314 Y1.4472
Y1.4474
X3.3121 Y1.4521
Y1.4523
X3.3102 Y1.4572
Y1.4573
X3.3083 Y1.4625
X3.3082
X3.3063 Y1.4679
X3.3042 Y1.4734
X3.3021 Y1.4791
X3.2999 Y1.4849
X3.2976 Y1.491
X3.2951 Y1.4972
X3.2925 Y1.5035
X3.2898 Y1.51
X3.2869 Y1.5167
X3.2838 Y1.5236
X3.2805 Y1.5306
X3.277 Y1.5378
X3.2733 Y1.5452
X3.2693 Y1.5527
X3.2652 Y1.5603
X3.2608 Y1.568
X3.2562 Y1.5758
X3.2514 Y1.5836
X3.2464 Y1.5914
X3.2412 Y1.5991
X3.2358 Y1.6068
X3.2303 Y1.6144
X3.2245 Y1.6219
X3.2186 Y1.6293
X3.2125 Y1.6365
X3.2063 Y1.6434
X3.1999 Y1.6502
X3.1934 Y1.6567
X3.1868 Y1.6629
X3.18 Y1.6687
X3.1731 Y1.6743
X3.1662 Y1.6795
X3.1591 Y1.6843
X3.1519 Y1.6886
X3.1447 Y1.6926
X3.1374 Y1.6961
X3.13 Y1.6991
X3.1226 Y1.7016
X3.1151 Y1.7037
X3.1075 Y1.7053
X3.0998 Y1.7065
X3.092 Y1.7072
X3.0841 Y1.7075
X3.0761 Y1.7074
X3.0679 Y1.7068
X3.0596 Y1.7057
X3.0512 Y1.7042
X3.0426 Y1.7023
X3.0338 Y1.6999
X3.0249 Y1.6971
X3.0158 Y1.6939
X3.0066 Y1.6902
X2.9973 Y1.686
X2.9878 Y1.6814
X2.9782 Y1.6764
X2.9684 Y1.671
X2.9585 Y1.6651
X2.9485 Y1.6589
X2.9383 Y1.6522
X2.928 Y1.6451
X2.9176 Y1.6376
X2.9071 Y1.6297
X2.8964 Y1.6214
X2.8857 Y1.6129
X2.875 Y1.6041
X2.8642 Y1.595
X2.8534 Y1.5858
X2.8427 Y1.5763
X2.8321 Y1.5667
X2.8215 Y1.5571
X2.811 Y1.5473
X2.8007 Y1.5375
X2.7906 Y1.5277
X2.7806 Y1.5179
X2.7708 Y1.5082
X2.7612 Y1.4986
X2.7519 Y1.4891
X2.7429 Y1.4798
X2.7342 Y1.4707
X2.7258 Y1.4618
X2.7177 Y1.4532
X2.71 Y1.4448
X2.7028 Y1.4368
X2.6959 Y1.4292
X2.6895 Y1.422
X2.6835 Y1.4151
X2.678 Y1.4086
X2.6728 Y1.4024
X2.6681 Y1.3965
X2.6638 Y1.3909
X2.6598 Y1.3855
X2.6561 Y1.3802
X2.6528 Y1.3752
X2.6498 Y1.3703
X2.6471 Y1.3656
X2.6447 Y1.3609
X2.6425 Y1.3563
X2.6405 Y1.3517
X2.6388 Y1.347
X2.6372 Y1.3424
X2.6358 Y1.3376
X2.6345 Y1.3326
X2.6334 Y1.3275
X2.6324 Y1.3222
X2.6315 Y1.3166
X2.6308 Y1.3107
X2.6301 Y1.3045
X2.6296 Y1.298
X2.6291 Y1.2911
X2.6286 Y1.2838
X2.6282 Y1.2762
X2.6278 Y1.2683
X2.6275 Y1.2601
X2.6271 Y1.2517
X2.6268 Y1.2431
X2.6264 Y1.2343
X2.6261 Y1.2253
X2.6257 Y1.2162
X2.6253 Y1.2071
X2.6252 Y1.207
X2.6248 Y1.1978
Y1.1977
X2.6242 Y1.1885
Y1.1884
X2.6236 Y1.1791
Y1.179
X2.6229 Y1.1698
Y1.1696
X2.6221 Y1.1605
Y1.1602
X2.6213 Y1.1512
X2.6212 Y1.1509
X2.6202 Y1.1419
Y1.1416
X2.6191 Y1.1328
Y1.1325
X2.6178 Y1.1237
Y1.1234
X2.6164 Y1.1148
X2.6163 Y1.1144
X2.6148 Y1.106
X2.6147 Y1.1056
X2.6131 Y1.0975
X2.6129 Y1.097
X2.6111 Y1.089
X2.611 Y1.0885
X2.6089 Y1.0809
X2.6088 Y1.0803
X2.6066 Y1.0729
X2.6064 Y1.0723
X2.604 Y1.0652
X2.6038 Y1.0646
X2.6013 Y1.0578
X2.601 Y1.0572
X2.5984 Y1.0507
X2.5981 Y1.05
X2.5953 Y1.0438
X2.595 Y1.0432
X2.5921 Y1.0373
X2.5917 Y1.0366
X2.5886 Y1.031
X2.5883 Y1.0303
X2.5851 Y1.0251
X2.5846 Y1.0244
X2.5814 Y1.0195
X2.5809 Y1.0187
X2.5776 Y1.0142
X2.577 Y1.0135
X2.5736 Y1.0093
X2.573 Y1.0085
X2.5695 Y1.0048
X2.5688 Y1.004
X2.5653 Y1.0006
X2.5645 Y0.9998
X2.561 Y0.9967
X2.56 Y0.9959
X2.5565 Y0.9933
X2.5553 Y0.9925
X2.5518 Y0.9902
X2.5505 Y0.9894
X2.5469 Y0.9875
X2.5454 Y0.9868
X2.5418 Y0.9852
X2.5402 Y0.9846
X2.5366 Y0.9835
X2.5349 Y0.983
X2.5313 Y0.9822
X2.5295 Y0.9819
X2.5259 Y0.9815
X2.5239 Y0.9813
X2.5203
X2.5184
X2.5148 Y0.9817
X2.513 Y0.9819
X2.5093 Y0.9826
X2.5075 Y0.983
X2.5038 Y0.9841
X2.5022 Y0.9847
X2.4983 Y0.9862
X2.4968 Y0.9868
X2.4928 Y0.9888
X2.4916 Y0.9895
X2.4875 Y0.9919
X2.4863 Y0.9927
X2.4821 Y0.9956
X2.4811 Y0.9964
X2.4768 Y0.9998
X2.4759 Y1.0005
X2.4715 Y1.0046
X2.4708 Y1.0052
X2.4662 Y1.0098
X2.4656 Y1.0104
X2.461 Y1.0155
X2.4605 Y1.016
X2.4557 Y1.0216
X2.4553 Y1.0222
X2.4504 Y1.0283
X2.4501 Y1.0288
X2.4451 Y1.0355
X2.4448 Y1.0359
X2.4397 Y1.0432
X2.4394 Y1.0436
X2.4343 Y1.0515
X2.434 Y1.0518
X2.4288 Y1.0602
X2.4286 Y1.0606
X2.4232 Y1.0695
X2.423 Y1.0698
X2.4175 Y1.0794
X2.4174 Y1.0797
X2.4118 Y1.0898
X2.4116 Y1.0901
X2.406 Y1.1008
X2.4059 Y1.101
X2.4001 Y1.1123
X2.4 Y1.1125
X2.3941 Y1.1244
X2.394 Y1.1246
X2.3881 Y1.137
X2.388 Y1.1373
X2.3819 Y1.1503
X2.3818 Y1.1505
X2.3757 Y1.1641
X2.3756 Y1.1643
X2.3694 Y1.1785
Y1.1786
X2.363 Y1.1933
Y1.1934
X2.3566 Y1.2085
X2.3565
X2.35 Y1.224
Y1.2241
X2.3434 Y1.2399
X2.3368 Y1.256
X2.3301 Y1.2723
X2.3233 Y1.2887
X2.3165 Y1.3052
X2.3097 Y1.3218
X2.3028 Y1.3383
X2.2959 Y1.3548
X2.2889 Y1.3711
X2.282 Y1.3872
X2.275 Y1.4031
X2.2681 Y1.4187
X2.2611 Y1.4339
X2.2542 Y1.4487
X2.2473 Y1.463
X2.2404 Y1.4768
X2.2335 Y1.49
X2.2267 Y1.5026
X2.22 Y1.5144
X2.2133 Y1.5255
X2.2067 Y1.5359
X2.2002 Y1.5456
X2.1937 Y1.5548
X2.1872 Y1.5633
X2.1808 Y1.5714
X2.1745 Y1.579
X2.1681 Y1.5863
X2.1618 Y1.5931
X2.1555 Y1.5997
X2.1492 Y1.606
X2.1429 Y1.6122
X2.1366 Y1.6181
X2.1303 Y1.624
X2.124 Y1.6298
X2.1177 Y1.6356
X2.1113 Y1.6414
Y1.6415
X2.105 Y1.6474
X2.1049 Y1.6475
X2.0986 Y1.6534
X2.0984 Y1.6536
X2.0922 Y1.6596
X2.092 Y1.6598
X2.0858 Y1.666
X2.0855 Y1.6663
X2.0793 Y1.6727
X2.079 Y1.673
X2.0729 Y1.6797
X2.0726 Y1.6801
X2.0665 Y1.6871
X2.0661 Y1.6875
X2.06 Y1.6949
X2.0598 Y1.6952
X2.0536 Y1.703
X2.0534 Y1.7032
X2.0472 Y1.7113
X2.047 Y1.7115
X2.0407 Y1.7199
X2.0406 Y1.72
X2.0342 Y1.7286
Y1.7287
X2.0277 Y1.7375
X2.021 Y1.7465
X2.0143 Y1.7555
X2.0074 Y1.7646
X2.0003 Y1.7736
X1.9931 Y1.7826
X1.9857 Y1.7914
X1.9781 Y1.8001
X1.9702 Y1.8086
X1.9621 Y1.8169
X1.9538 Y1.8248
X1.9452 Y1.8325
X1.9364 Y1.8398
X1.9272 Y1.8466
X1.9178 Y1.8531
X1.908 Y1.8591
X1.8978 Y1.8645
X1.8873 Y1.8695
X1.8764 Y1.8738
X1.865 Y1.8776
X1.8532 Y1.8808
X1.841 Y1.8835
X1.8283 Y1.8858
X1.8152 Y1.8876
X1.8018 Y1.889
X1.788 Y1.89
X1.7739 Y1.8907
X1.7595 Y1.8912
X1.7448 Y1.8914
X1.7299 Y1.8915
X1.7147 Y1.8914
X1.6993 Y1.8912
X1.6838 Y1.8909
X1.6682 Y1.8907
X1.6681
X1.6524 Y1.8905
X1.6522
X1.6365 Y1.8904
X1.6363
X1.6205
X1.6202
X1.6044 Y1.8907
X1.6041
X1.5883 Y1.8912
X1.5879
X1.5721 Y1.892
X1.5717
X1.556 Y1.8931
X1.5555
X1.5398 Y1.8946
X1.5393 Y1.8947
X1.5237 Y1.8966
X1.5231 Y1.8967
X1.5076 Y1.899
X1.5071 Y1.8991
X1.4916 Y1.9019
X1.4911 Y1.902
X1.4758 Y1.9053
X1.4753 Y1.9054
X1.4601 Y1.9091
X1.4596 Y1.9092
X1.4446 Y1.9132
X1.4441 Y1.9134
X1.4292 Y1.9178
X1.4288 Y1.9179
X1.414 Y1.9227
X1.4136 Y1.9228
X1.3991 Y1.9279
X1.3987 Y1.928
X1.3843 Y1.9334
X1.3839 Y1.9335
X1.3698 Y1.9391
X1.3694 Y1.9393
X1.3555 Y1.9452
X1.3551 Y1.9453
X1.3415 Y1.9514
X1.3411 Y1.9516
X1.3277 Y1.9579
X1.3274 Y1.958
X1.3143 Y1.9645
X1.3139 Y1.9647
X1.3011 Y1.9713
X1.3008 Y1.9715
X1.2883 Y1.9783
X1.288 Y1.9785
X1.2757 Y1.9854
X1.2754 Y1.9855
X1.2636 Y1.9925
X1.2633 Y1.9927
X1.2518 Y1.9998
X1.2515 Y2.
X1.2404 Y2.0071
X1.2401 Y2.0073
X1.2293 Y2.0144
X1.229 Y2.0146
X1.2187 Y2.0218
X1.2184 Y2.022
X1.2085 Y2.0291
X1.2082 Y2.0293
X1.1987 Y2.0364
X1.1984 Y2.0366
X1.1894 Y2.0436
X1.1891 Y2.0438
X1.1805 Y2.0508
X1.1802 Y2.051
X1.172 Y2.0579
X1.1717 Y2.0581
X1.1639 Y2.0649
X1.1637 Y2.0651
X1.1562 Y2.0717
X1.156 Y2.0719
X1.1488 Y2.0785
X1.1486 Y2.0787
X1.1418 Y2.0851
X1.1417 Y2.0853
X1.1352 Y2.0915
X1.135 Y2.0917
X1.1288 Y2.0978
X1.1287 Y2.0979
X1.1228 Y2.1039
X1.1227 Y2.104
X1.1171 Y2.1098
X1.117
X1.1116 Y2.1154
X1.1064 Y2.1208
X1.1013 Y2.1259
X1.0966 Y2.1307
X1.0919 Y2.1352
X1.0875 Y2.1393
X1.0832 Y2.1432
X1.0791 Y2.1467
X1.0751 Y2.1498
X1.0712 Y2.1526
X1.0675 Y2.155
X1.0638 Y2.157
X1.0601 Y2.1588
X1.0582 Y2.1596
X1.0563 Y2.1603
X1.0543 Y2.1608
X1.0524 Y2.1613
X1.0505 Y2.1616
X1.0487 Y2.1618
X1.0468 Y2.162
X1.045
X1.0433 Y2.1619
X1.0416 Y2.1617
X1.0399 Y2.1614
X1.0383 Y2.161
X1.0368 Y2.1605
X1.0353 Y2.16
X1.0338 Y2.1593
X1.0323 Y2.1585
X1.0309 Y2.1575
X1.0295 Y2.1565
X1.0282 Y2.1554
X1.0268 Y2.1542
X1.0256 Y2.1528
X1.0244 Y2.1513
X1.0231 Y2.1497
X1.0217 Y2.1475
G2 X0.9873 Y2.1578 I-0.0157 J0.0103
G1 X0.989 Y2.5178
G2 X1.0181 Y2.5334 I0.0187 J-0.0001
G1 X1.0224 Y2.5305
X1.0267 Y2.5279
X1.031 Y2.5254
X1.0355 Y2.5229
X1.0401 Y2.5205
X1.0447 Y2.5183
X1.0494 Y2.5161
X1.0541 Y2.5141
X1.0588 Y2.5122
X1.0635 Y2.5105
X1.0681 Y2.5089
X1.0728 Y2.5076
X1.0774 Y2.5064
X1.082 Y2.5053
X1.0865 Y2.5045
X1.0908 Y2.5039
X1.0951 Y2.5034
X1.0993 Y2.5032
X1.1033
X1.1072 Y2.5034
X1.111 Y2.5038
X1.1145 Y2.5044
X1.1179 Y2.5052
X1.1211 Y2.5062
X1.1242 Y2.5074
X1.1271 Y2.5089
X1.1298 Y2.5105
X1.1323 Y2.5124
X1.1346 Y2.5145
X1.1368 Y2.5169
X1.1388 Y2.5194
X1.1407 Y2.5222
X1.1423 Y2.5253
X1.1438 Y2.5286
X1.1451 Y2.5321
X1.1462 Y2.536
X1.1471 Y2.5401
X1.1478 Y2.5445
X1.1483 Y2.5493
X1.1485 Y2.5543
Y2.5595
X1.1482 Y2.5651
X1.1477 Y2.5709
X1.1469 Y2.5769
X1.1458 Y2.5832
X1.1444 Y2.5897
X1.1427 Y2.5965
X1.1408 Y2.6034
X1.1386 Y2.6106
X1.136 Y2.6179
X1.1333 Y2.6255
X1.1302 Y2.6333
X1.127 Y2.6412
X1.1235 Y2.6492
X1.1198 Y2.6573
X1.1159 Y2.6656
X1.1119 Y2.6739
X1.1078 Y2.6822
X1.1035 Y2.6906
X1.0991 Y2.699
X1.0946 Y2.7074
X1.09 Y2.7158
X1.0854 Y2.7241
X1.0808 Y2.7324
X1.0761 Y2.7406
X1.0714 Y2.7487
X1.0668 Y2.7568
X1.0622 Y2.7647
X1.0576 Y2.7724
X1.0531 Y2.78
X1.0487 Y2.7875
X1.0444 Y2.7947
X1.0402 Y2.8018
X1.0362 Y2.8086
X1.0361 Y2.8087
X1.0323 Y2.8153
X1.0322 Y2.8154
X1.0285 Y2.8218
X1.0284 Y2.8219
X1.0249 Y2.8281
X1.0248 Y2.8282
X1.0214 Y2.8342
X1.0213 Y2.8343
X1.0181 Y2.8401
X1.018 Y2.8403
X1.015 Y2.8459
X1.0149 Y2.8461
X1.0121 Y2.8515
X1.012 Y2.8518
X1.0094 Y2.857
X1.0092 Y2.8573
X1.0069 Y2.8623
X1.0067 Y2.8627
X1.0046 Y2.8674
X1.0044 Y2.8679
X1.0025 Y2.8724
X1.0023 Y2.8729
X1.0006 Y2.8773
X1.0004 Y2.8779
X0.999 Y2.8821
X0.9988 Y2.8827
X0.9976 Y2.8867
X0.9974 Y2.8875
X0.9964 Y2.8913
X0.9962 Y2.8922
X0.9955 Y2.8958
X0.9953 Y2.8968
X0.9948 Y2.9003
X0.9947 Y2.9015
X0.9944 Y2.9047
Y2.9061
Y2.9092
Y2.9106
X0.9946 Y2.9136
X0.9948 Y2.9153
X0.9953 Y2.918
X0.9957 Y2.9198
X0.9964 Y2.9224
X0.9969 Y2.9241
X0.9979 Y2.9267
X0.9985 Y2.9281
X0.9997 Y2.9307
X1.0004 Y2.932
X1.0019 Y2.9345
X1.0026 Y2.9356
X1.0043 Y2.9381
X1.0049 Y2.939
X1.0068 Y2.9416
X1.0074 Y2.9423
X1.0096 Y2.9449
X1.0102 Y2.9455
X1.0125 Y2.9481
X1.013 Y2.9486
X1.0156 Y2.9512
X1.0161 Y2.9517
X1.0188 Y2.9542
X1.0192 Y2.9546
X1.0221 Y2.9572
X1.0224 Y2.9574
X1.0254 Y2.9599
X1.0256 Y2.9601
X1.0287 Y2.9626
X1.0288 Y2.9628
X1.032 Y2.9653
X1.0352 Y2.9678
X1.0384 Y2.9703
X1.0414 Y2.9728
X1.0444 Y2.9752
X1.0472 Y2.9776
X1.0499 Y2.98
X1.0524 Y2.9824
X1.0547 Y2.9848
X1.0568 Y2.9871
X1.0587 Y2.9894
X1.0604 Y2.9917
X1.0617 Y2.9939
X1.0629 Y2.996
X1.0638 Y2.9981
X1.0645 Y3.0002
X1.065 Y3.0024
X1.0654 Y3.0046
X1.0656 Y3.0069
X1.0657 Y3.0093
X1.0656 Y3.0117
X1.0654 Y3.0141
X1.0649 Y3.0167
X1.0643 Y3.0193
X1.0636 Y3.0221
X1.0626 Y3.025
X1.0615 Y3.028
X1.0602 Y3.031
X1.0587 Y3.0342
X1.0571 Y3.0375
X1.0553 Y3.0409
X1.0534 Y3.0443
X1.0513 Y3.0479
X1.0491 Y3.0515
X1.0468 Y3.0552
X1.0443 Y3.059
X1.0418 Y3.0629
X1.0392 Y3.0668
X1.0365 Y3.0708
X1.0338 Y3.0749
X1.0309 Y3.079
X1.0281 Y3.0833
X1.0252 Y3.0875
Y3.0876
X1.0223 Y3.0918
Y3.0919
X1.0194 Y3.0962
Y3.0963
X1.0166 Y3.1006
X1.0165 Y3.1008
X1.0137 Y3.1051
X1.0136 Y3.1053
X1.0109 Y3.1096
X1.0108 Y3.1098
X1.0081 Y3.1142
X1.008 Y3.1144
X1.0054 Y3.1188
X1.0052 Y3.119
X1.0027 Y3.1234
X1.0026 Y3.1237
X1.0002 Y3.1281
X1. Y3.1284
X0.9977 Y3.1328
X0.9975 Y3.1332
X0.9954 Y3.1376
X0.9952 Y3.138
X0.9932 Y3.1424
X0.9929 Y3.1429
X0.9911 Y3.1473
X0.9909 Y3.1478
X0.9892 Y3.1522
X0.9889 Y3.1528
X0.9874 Y3.1572
X0.9872 Y3.1578
X0.9858 Y3.1622
X0.9856 Y3.163
X0.9845 Y3.1673
X0.9843 Y3.1681
X0.9834 Y3.1724
X0.9832 Y3.1732
X0.9825 Y3.1775
X0.9823 Y3.1783
X0.9818 Y3.1826
X0.9817 Y3.1835
X0.9814 Y3.1877
Y3.1886
X0.9813 Y3.1927
Y3.1937
X0.9814 Y3.1977
Y3.1988
X0.9817 Y3.2027
X0.9818 Y3.2038
X0.9824 Y3.2076
X0.9825 Y3.2086
X0.9833 Y3.2123
X0.9835 Y3.2134
X0.9844 Y3.217
X0.9847 Y3.2181
X0.9859 Y3.2216
X0.9863 Y3.2228
X0.9876 Y3.2261
X0.9882 Y3.2274
X0.9897 Y3.2305
X0.9905 Y3.2318
X0.9922 Y3.2349
X0.9931 Y3.2362
X0.9951 Y3.239
X0.9961 Y3.2403
X0.9984 Y3.243
X0.9995 Y3.2442
X1.0021 Y3.2467
X1.0033 Y3.2478
X1.0061 Y3.2501
X1.0074 Y3.2511
X1.0105 Y3.2533
X1.0118 Y3.2541
X1.0152 Y3.2561
X1.0165 Y3.2568
X1.0203 Y3.2585
X1.0215 Y3.2591
X1.0256 Y3.2606
X1.0268 Y3.261
X1.0311 Y3.2624
X1.0323 Y3.2627
X1.037 Y3.2638
X1.0381 Y3.2641
X1.0432 Y3.265
X1.0442 Y3.2651
X1.0497 Y3.2658
X1.0505
X1.0564 Y3.2663
X1.057
X1.0632 Y3.2666
X1.0638
X1.0702
X1.0707
X1.0774
X1.0778
X1.0847 Y3.2664
X1.085 Y3.2663
X1.0921 Y3.266
X1.0923
X1.0996 Y3.2656
X1.0998
X1.1072 Y3.2652
X1.1147 Y3.2647
X1.1221 Y3.2642
X1.1295 Y3.2638
X1.1369 Y3.2635
X1.1442 Y3.2633
X1.1513 Y3.2632
X1.1583 Y3.2633
X1.1651 Y3.2637
X1.1717 Y3.2642
X1.178 Y3.265
X1.1841 Y3.2661
X1.1898 Y3.2674
X1.1952 Y3.269
X1.2003 Y3.271
X1.2049 Y3.2732
X1.2093 Y3.2757
X1.2133 Y3.2786
X1.217 Y3.2817
X1.2205 Y3.2852
X1.2238 Y3.289
X1.2268 Y3.2931
X1.2295 Y3.2974
X1.2321 Y3.302
X1.2343 Y3.3069
X1.2363 Y3.3121
X1.2381 Y3.3175
X1.2396 Y3.3231
X1.2409 Y3.329
X1.2419 Y3.3351
X1.2427 Y3.3414
X1.2432 Y3.3479
X1.2435 Y3.3545
X1.2436 Y3.3612
X1.2434 Y3.3681
X1.243 Y3.375
X1.2424 Y3.3821
X1.2415 Y3.3892
X1.2405 Y3.3963
X1.2392 Y3.4034
X1.2378 Y3.4106
X1.2362 Y3.4178
X1.2344 Y3.425
X1.2325 Y3.4322
X1.2303 Y3.4396
X1.2281 Y3.4469
X1.2256 Y3.4544
X1.223 Y3.4619
X1.2203 Y3.4695
X1.2175 Y3.4772
X1.2145 Y3.485
X1.2114 Y3.4929
X1.2082 Y3.5009
X1.205 Y3.509
X1.2016 Y3.5173
X1.1981 Y3.5257
X1.1946 Y3.5342
X1.191 Y3.5428
X1.1874 Y3.5516
X1.1837 Y3.5606
X1.18 Y3.5697
X1.1799 Y3.5698
X1.1762 Y3.579
Y3.5791
X1.1725 Y3.5885
X1.1724 Y3.5886
X1.1687 Y3.5982
Y3.5983
X1.1649 Y3.608
Y3.6081
X1.1612 Y3.6179
Y3.618
X1.1575 Y3.6279
Y3.628
X1.1538 Y3.638
Y3.6381
X1.1502 Y3.6482
Y3.6483
X1.1466 Y3.6584
Y3.6586
X1.1431 Y3.6687
Y3.6688
X1.1397 Y3.679
X1.1396 Y3.6791
X1.1363 Y3.6893
Y3.6894
X1.133 Y3.6996
Y3.6997
X1.1299 Y3.7099
X1.1298 Y3.71
X1.1268 Y3.7201
X1.1267 Y3.7202
X1.1238 Y3.7302
Y3.7304
X1.121 Y3.7403
X1.1209 Y3.7405
X1.1183 Y3.7503
X1.1182 Y3.7505
X1.1157 Y3.7601
X1.1156 Y3.7604
X1.1133 Y3.7699
X1.1132 Y3.7701
X1.111 Y3.7795
X1.1109 Y3.7797
X1.1089 Y3.7889
X1.1088 Y3.7892
X1.1069 Y3.7982
Y3.7985
X1.1052 Y3.8073
X1.1051 Y3.8076
X1.1036 Y3.8161
Y3.8165
X1.1022 Y3.8248
Y3.8252
X1.1011 Y3.8333
X1.101 Y3.8336
X1.1001 Y3.8414
Y3.8418
X1.0994 Y3.8494
X1.0993 Y3.8498
X1.0988 Y3.8571
Y3.8576
X1.0984 Y3.8646
Y3.8651
X1.0982 Y3.872
Y3.8725
Y3.8791
Y3.8796
X1.0984 Y3.886
Y3.8865
X1.0988 Y3.8927
Y3.8933
X1.0994 Y3.8993
Y3.8998
X1.1001 Y3.9056
X1.1002 Y3.9062
X1.101 Y3.9118
X1.1011 Y3.9124
X1.1021 Y3.9179
X1.1022 Y3.9185
X1.1034 Y3.9237
X1.1035 Y3.9244
X1.1048 Y3.9294
X1.105 Y3.9301
X1.1064 Y3.935
X1.1066 Y3.9356
X1.1082 Y3.9404
X1.1084 Y3.941
X1.1101 Y3.9456
X1.1103 Y3.9463
X1.1121 Y3.9507
X1.1124 Y3.9513
X1.1143 Y3.9557
X1.1146 Y3.9563
X1.1167 Y3.9605
X1.117 Y3.9611
X1.1192 Y3.9652
X1.1195 Y3.9657
X1.1218 Y3.9697
X1.1221 Y3.9702
X1.1245 Y3.9741
X1.1249 Y3.9747
X1.1274 Y3.9785
X1.1277 Y3.9789
X1.1304 Y3.9826
X1.1307 Y3.9831
X1.1335 Y3.9867
X1.1337 Y3.9871
X1.1366 Y3.9907
X1.137 Y3.9911
X1.1399 Y3.9946
X1.1401 Y3.9948
X1.1431 Y3.9982
X1.1433 Y3.9984
X1.1464 Y4.0018
X1.1465 Y4.002
X1.1497 Y4.0054
X1.1499 Y4.0056
X1.153 Y4.0089
X1.1531 Y4.009
X1.1563 Y4.0122
X1.1565 Y4.0124
X1.1596 Y4.0156
X1.1628 Y4.0188
X1.163 Y4.0189
X1.1661 Y4.022
X1.1692 Y4.0251
X1.1693 Y4.0252
X1.1724 Y4.0283
X1.1754 Y4.0313
X1.1783 Y4.0343
X1.1812 Y4.0373
X1.1839 Y4.0403
X1.1865 Y4.0432
X1.189 Y4.0462
X1.1914 Y4.0491
X1.1936 Y4.052
X1.1956 Y4.0548
X1.1975 Y4.0577
X1.1992 Y4.0605
X1.2007 Y4.0633
X1.2021 Y4.0662
X1.2034 Y4.069
X1.2045 Y4.0719
X1.2055 Y4.0749
X1.2064 Y4.0779
X1.2072 Y4.081
X1.2078 Y4.0841
X1.2084 Y4.0873
X1.2088 Y4.0905
X1.2091 Y4.0939
X1.2093 Y4.0973
Y4.1009
Y4.1045
X1.2091 Y4.1082
X1.2089 Y4.112
X1.2085 Y4.116
X1.2079 Y4.12
X1.2073 Y4.1241
X1.2066 Y4.1284
X1.2057 Y4.1327
X1.2047 Y4.1372
X1.2037 Y4.1418
X1.2025 Y4.1465
X1.2012 Y4.1514
X1.1999 Y4.1564
X1.1986 Y4.1615
X1.1973 Y4.1666
X1.1959 Y4.1718
Y4.1719
X1.1946 Y4.177
Y4.1772
X1.1933 Y4.1823
Y4.1825
X1.1921 Y4.1876
X1.192 Y4.1878
X1.1909 Y4.193
X1.1908 Y4.1932
X1.1898 Y4.1983
X1.1897 Y4.1986
X1.1888 Y4.2037
X1.1887 Y4.2041
X1.1879 Y4.2091
X1.1878 Y4.2095
X1.1871 Y4.2145
Y4.215
X1.1865 Y4.2198
Y4.2204
X1.1861 Y4.2252
X1.186 Y4.2259
X1.1858 Y4.2306
Y4.2314
Y4.236
Y4.2369
X1.186 Y4.2413
X1.1861 Y4.2423
X1.1865 Y4.2467
X1.1867 Y4.2478
X1.1873 Y4.252
X1.1876 Y4.2532
X1.1885 Y4.2573
X1.1888 Y4.2586
X1.19 Y4.2625
X1.1905 Y4.2639
X1.192 Y4.2677
X1.1925 Y4.269
X1.1943 Y4.2727
X1.1949 Y4.2739
X1.1969 Y4.2775
X1.1976 Y4.2787
X1.2 Y4.2822
X1.2006 Y4.2831
X1.2032 Y4.2866
X1.2041 Y4.2877
X1.207 Y4.291
X1.2077 Y4.2918
X1.2108 Y4.2951
X1.2116 Y4.2958
X1.2151 Y4.299
X1.2159 Y4.2997
X1.2196 Y4.3027
X1.2203 Y4.3032
X1.2243 Y4.3062
X1.2251 Y4.3067
X1.2293 Y4.3095
X1.23 Y4.3099
X1.2345 Y4.3126
X1.2352 Y4.313
X1.2399 Y4.3155
X1.2407 Y4.3159
X1.2456 Y4.3182
X1.2464 Y4.3185
X1.2515 Y4.3207
X1.2522 Y4.321
X1.2576 Y4.323
X1.2583 Y4.3232
X1.2638 Y4.3251
X1.2646 Y4.3253
X1.2704 Y4.327
X1.271 Y4.3271
X1.277 Y4.3286
X1.2777 Y4.3288
X1.284 Y4.3301
X1.2846 Y4.3302
X1.291 Y4.3313
X1.2917 Y4.3314
X1.2983 Y4.3323
X1.2989 Y4.3324
X1.3057 Y4.3331
X1.3064 Y4.3332
X1.3134 Y4.3336
X1.3139 Y4.3337
X1.3211 Y4.3339
X1.3216
X1.329 Y4.334
X1.3295
X1.3371 Y4.3339
X1.3373
X1.3451 Y4.3337
X1.3454 Y4.3336
X1.3534 Y4.3333
X1.3535 Y4.3332
X1.3616 Y4.3328
X1.3618
X1.3701 Y4.3322
X1.3785 Y4.3316
X1.387 Y4.3309
X1.3871
X1.3957 Y4.3303
X1.4044 Y4.3297
X1.4132 Y4.3291
X1.422 Y4.3286
X1.4309 Y4.3282
X1.4399 Y4.328
X1.4489 Y4.3278
X1.458 Y4.3279
X1.4671 Y4.3281
X1.4762 Y4.3286
X1.4853 Y4.3292
X1.4945 Y4.3302
X1.5038 Y4.3314
X1.5129 Y4.3329
X1.5221 Y4.3347
X1.5314 Y4.337
X1.5407 Y4.3394
X1.55 Y4.3423
X1.5594 Y4.3454
X1.5689 Y4.3489
X1.5785 Y4.3525
X1.5882 Y4.3565
X1.598 Y4.3607
X1.6079 Y4.3651
X1.618 Y4.3697
X1.6282 Y4.3745
X1.6385 Y4.3794
X1.649 Y4.3845
X1.6596 Y4.3897
X1.6704 Y4.395
X1.6705
X1.6815 Y4.4004
X1.6927 Y4.4058
X1.6928
X1.7041 Y4.4112
X1.7042 Y4.4113
X1.7157 Y4.4167
X1.7159 Y4.4168
X1.7276 Y4.4222
X1.7278
X1.7397 Y4.4276
X1.74 Y4.4277
X1.7521 Y4.433
X1.7523
X1.7647 Y4.4383
X1.765 Y4.4384
X1.7776 Y4.4435
X1.7779 Y4.4436
X1.7908 Y4.4486
X1.7911 Y4.4487
X1.8042 Y4.4536
X1.8045 Y4.4537
X1.8179 Y4.4584
X1.8181 Y4.4585
X1.8318 Y4.4631
X1.8321 Y4.4632
X1.846 Y4.4677
X1.8463 Y4.4678
X1.8604 Y4.4721
X1.8606 Y4.4722
X1.875 Y4.4764
X1.8752 Y4.4765
X1.8898 Y4.4805
X1.89
X1.9047 Y4.4844
X1.905 Y4.4845
X1.9199 Y4.4882
X1.9202
X1.9353 Y4.4917
X1.9355
X1.9508 Y4.4951
X1.951
X1.9665 Y4.4982
X1.9668 Y4.4983
X1.9823 Y4.5012
X1.9826
X1.9983 Y4.5039
X1.9985
X2.0143 Y4.5064
X2.0147
X2.0306 Y4.5087
X2.0309
X2.0469 Y4.5107
X2.0472
X2.0634 Y4.5125
X2.0637
X2.0799 Y4.514
X2.0802
X2.0965 Y4.5152
X2.0968 Y4.5153
X2.1132 Y4.5162
X2.1135 Y4.5163
X2.13 Y4.5169
X2.1303
X2.1468 Y4.5174
X2.1471
X2.1636 Y4.5175
X2.164
X2.1805 Y4.5173
X2.1809
X2.1975 Y4.5169
X2.1978
X2.2144 Y4.5162
X2.2147
X2.2314 Y4.5152
X2.2316
X2.2483 Y4.514
X2.2486
X2.2653 Y4.5126
X2.2655
X2.2822 Y4.5109
X2.2825
X2.2992 Y4.509
X2.2994
X2.3161 Y4.5069
X2.3163 Y4.5068
X2.333 Y4.5046
X2.3332 Y4.5045
X2.3498 Y4.502
X2.35
X2.3666 Y4.4993
X2.3668
X2.3834 Y4.4965
X2.3835 Y4.4964
X2.4 Y4.4934
X2.4003
X2.4167 Y4.4902
X2.4169
X2.4332 Y4.4869
X2.4334
X2.4497 Y4.4834
X2.4499
X2.4662 Y4.4798
X2.4663 Y4.4797
X2.4824 Y4.476
X2.4826
X2.4986 Y4.4722
X2.4988 Y4.4721
X2.5147 Y4.4682
X2.5149
X2.5307 Y4.4642
X2.5309 Y4.4641
X2.5466 Y4.46
X2.5467
X2.5623 Y4.4558
X2.5624
X2.5779 Y4.4515
X2.5781
X2.5935 Y4.4471
X2.6088 Y4.4428
X2.6089
X2.6241 Y4.4384
X2.6391 Y4.434
X2.6392
X2.6542 Y4.4296
X2.669 Y4.4252
X2.6837 Y4.4209
X2.6983 Y4.4166
X2.7128 Y4.4124
X2.7272 Y4.4082
X2.7414 Y4.4042
X2.7555 Y4.4002
X2.7695 Y4.3964
X2.7834 Y4.3928
X2.7972 Y4.3892
X2.8108 Y4.3858
X2.8244 Y4.3826
X2.8378 Y4.3796
X2.8511 Y4.3768
X2.8643 Y4.3742
X2.8773 Y4.3719
X2.8903 Y4.3698
X2.9032 Y4.3679
X2.9159 Y4.3662
X2.9286 Y4.3648
X2.9412 Y4.3635
X2.9537 Y4.3624
X2.9661 Y4.3615
X2.9784 Y4.3606
X2.9906 Y4.3599
X3.0027 Y4.3592
X3.0146 Y4.3585
X3.0265 Y4.3579
X3.0383 Y4.3573
X3.0499 Y4.3567
X3.05
X3.0615 Y4.356
X3.0616
X3.0729 Y4.3553
X3.0731
X3.0843 Y4.3545
X3.0844
X3.0954 Y4.3536
X3.0957 Y4.3535
X3.1066 Y4.3525
X3.1069 Y4.3524
X3.1176 Y4.3512
X3.1179
X3.1284 Y4.3498
X3.1289 Y4.3497
X3.1392 Y4.3481
X3.1396
X3.1498 Y4.3463
X3.1503 Y4.3462
X3.1604 Y4.3441
X3.161 Y4.344
X3.1709 Y4.3416
X3.1714 Y4.3415
X3.1811 Y4.3388
X3.1817 Y4.3387
X3.1913 Y4.3358
X3.1917 Y4.3356
X3.2012 Y4.3325
X3.2017 Y4.3323
X3.2111 Y4.3289
X3.2114 Y4.3288
X3.2207 Y4.3252
X3.2211 Y4.3251
X3.2303 Y4.3213
X3.2306 Y4.3212
X3.2397 Y4.3173
X3.24 Y4.3171
X3.249 Y4.3131
X3.2492 Y4.313
X3.2581 Y4.3089
X3.2582 Y4.3088
X3.2671 Y4.3046
X3.2672
X3.276 Y4.3004
X3.2761 Y4.3003
X3.2849 Y4.2961
X3.2936 Y4.2919
X3.3022 Y4.2877
X3.3107 Y4.2837
X3.3192 Y4.2797
X3.3275 Y4.2759
X3.3358 Y4.2723
X3.344 Y4.2688
X3.3522 Y4.2656
X3.3603 Y4.2626
X3.3683 Y4.26
X3.3763 Y4.2576
X3.3842 Y4.2555
X3.3921 Y4.2537
X3.4 Y4.2522
X3.4078 Y4.2511
X3.4157 Y4.2502
X3.4234 Y4.2496
X3.4312 Y4.2493
X3.439
X3.4468 Y4.2495
X3.4546 Y4.2499
X3.4623 Y4.2506
X3.47 Y4.2514
X3.4777 Y4.2525
X3.4854 Y4.2537
X3.493 Y4.2551
X3.5005 Y4.2567
X3.5081 Y4.2584
X3.5156 Y4.2602
X3.5231 Y4.2622
X3.5305 Y4.2642
X3.5378 Y4.2664
X3.5452 Y4.2687
X3.5524 Y4.271
X3.5596 Y4.2733
X3.5667 Y4.2757
X3.5738 Y4.2781
X3.5808 Y4.2805
X3.5877 Y4.283
X3.5947 Y4.2854
X3.6017 Y4.2878
X3.6018 Y4.2879
X3.6087 Y4.2902
X3.6088 Y4.2903
X3.6158 Y4.2926
X3.616 Y4.2927
X3.623 Y4.2949
X3.6231
X3.6302 Y4.2972
X3.6304
X3.6376 Y4.2994
X3.6379 Y4.2995
X3.6452 Y4.3015
X3.6455
X3.6528 Y4.3035
X3.6531
X3.6607 Y4.3054
X3.6611 Y4.3055
X3.6688 Y4.3072
X3.6692
X3.6771 Y4.3088
X3.6775 Y4.3089
X3.6856 Y4.3103
X3.686 Y4.3104
X3.6944 Y4.3117
X3.6949 Y4.3118
X3.7035 Y4.3129
X3.7038
X3.7127 Y4.3139
X3.7132 Y4.314
X3.7224 Y4.3147
X3.7228 Y4.3148
X3.7324 Y4.3154
X3.7327
X3.7426 Y4.3158
X3.743
X3.7533 Y4.316
X3.7537
X3.7643
X3.7647
X3.7757 Y4.3158
X3.7761 Y4.3157
X3.7875 Y4.3153
X3.7878
X3.7996 Y4.3146
X3.7999
X3.8121 Y4.3137
X3.8123
X3.8248 Y4.3127
X3.825 Y4.3126
X3.8378 Y4.3114
X3.838
X3.8511 Y4.3101
X3.8512
X3.8646 Y4.3086
X3.8648
X3.8784 Y4.307
X3.8785
X3.8923 Y4.3053
X3.8924
X3.9064 Y4.3035
X3.9065
X3.9207 Y4.3016
X3.9351 Y4.2997
X3.9352
X3.9497 Y4.2978
X3.9643 Y4.2958
X3.9791 Y4.2938
X3.9939 Y4.2918
X4.0087 Y4.2899
X4.0235 Y4.2879
X4.0383 Y4.286
X4.0531 Y4.2842
X4.0678 Y4.2825
X4.0824 Y4.2809
X4.0969 Y4.2794
X4.1114 Y4.2779
X4.1257 Y4.2766
X4.1399 Y4.2754
X4.1539 Y4.2743
X4.1679 Y4.2732
X4.1816 Y4.2722
X4.1953 Y4.2713
X4.2088 Y4.2704
X4.2221 Y4.2695
X4.2352 Y4.2687
X4.2483 Y4.2678
X4.261 Y4.2669
X4.2736 Y4.2661
X4.2738
X4.2861 Y4.2651
X4.2982 Y4.2642
X4.2984
X4.3103 Y4.2631
X4.3104
X4.322 Y4.262
X4.3221
X4.3336 Y4.2609
X4.3338 Y4.2608
X4.3449 Y4.2596
X4.3452 Y4.2595
X4.3561 Y4.2582
X4.3563 Y4.2581
X4.3669 Y4.2566
X4.3672
X4.3775 Y4.255
X4.3779
X4.3879 Y4.2532
X4.3882 Y4.2531
X4.398 Y4.2512
X4.3984
X4.4079 Y4.2491
X4.4083 Y4.249
X4.4175 Y4.2468
X4.4179 Y4.2467
X4.427 Y4.2444
X4.4274 Y4.2443
X4.4362 Y4.2417
X4.4365
X4.4452 Y4.2391
X4.4455 Y4.239
X4.454 Y4.2363
X4.4542 Y4.2362
X4.4627 Y4.2334
X4.4629 Y4.2333
X4.4713 Y4.2305
X4.4714 Y4.2304
X4.4797 Y4.2275
X4.4799 Y4.2274
X4.4881 Y4.2244
X4.4964 Y4.2215
X4.4965 Y4.2214
X4.5048 Y4.2184
X4.5131 Y4.2154
X4.5214 Y4.2124
X4.5298 Y4.2094
X4.5383 Y4.2065
X4.5468 Y4.2037
X4.5556 Y4.201
X4.5645 Y4.1983
X4.5735 Y4.1957
X4.5829 Y4.1932
X4.5924 Y4.1909
X4.6022 Y4.1887
X4.6124 Y4.1866
X4.6229 Y4.1847
X4.6337 Y4.183
X4.6448 Y4.1814
X4.6561 Y4.1799
X4.6675 Y4.1786
X4.6792 Y4.1775
X4.691 Y4.1765
X4.7027 Y4.1756
X4.7146 Y4.1749
X4.7265 Y4.1743
X4.7382 Y4.1739
X4.7499 Y4.1735
X4.7615 Y4.1733
X4.7729 Y4.1732
X4.7841 Y4.1733
X4.7951 Y4.1734
X4.8057 Y4.1737
X4.8161 Y4.174
X4.8261 Y4.1745
X4.8357 Y4.175
X4.8448 Y4.1757
X4.8535 Y4.1764
X4.8616 Y4.1772
X4.8691 Y4.1781
X4.876 Y4.1791
X4.8825 Y4.1801
X4.8883 Y4.1811
X4.8935 Y4.1823
X4.8983 Y4.1835
X4.9026 Y4.1847
X4.9065 Y4.186
X4.91 Y4.1873
X4.9132 Y4.1886
X4.916 Y4.1899
X4.9187 Y4.1913
X4.9211 Y4.1927
X4.9232 Y4.194
X4.9252 Y4.1954
X4.9271 Y4.1968
X4.9289 Y4.1982
X4.9307 Y4.1997
X4.9326 Y4.2014
X4.9346 Y4.203
X4.9364 Y4.2046
X4.9366 Y4.2048
X4.9385 Y4.2064
X4.9388 Y4.2067
X4.9407 Y4.2082
X4.9412 Y4.2086
X4.9432 Y4.2101
X4.9437 Y4.2105
X4.9457 Y4.2119
X4.9464 Y4.2124
X4.9486 Y4.2138
X4.9493 Y4.2142
X4.9517 Y4.2156
X4.9524 Y4.216
X4.955 Y4.2174
X4.9555 Y4.2176
X4.9582 Y4.219
X4.9589 Y4.2193
X4.9619 Y4.2206
X4.9627 Y4.2209
X4.9659 Y4.2221
X4.9665 Y4.2223
X4.9699 Y4.2235
X4.9705 Y4.2237
X4.9742 Y4.2248
X4.9748 Y4.225
X4.9788 Y4.2261
X4.9794 Y4.2262
X4.9835 Y4.2272
X4.9843 Y4.2274
X4.9887 Y4.2282
X4.9892 Y4.2283
X4.9939 Y4.2291
X4.9944 Y4.2292
X4.9994 Y4.2299
X4.9999 Y4.23
X5.0053 Y4.2306
X5.0059
X5.0115 Y4.2311
X5.012
X5.0179 Y4.2314
X5.0183
X5.0245 Y4.2316
X5.025
X5.0315 Y4.2317
X5.032
X5.0389 Y4.2315
X5.0393
X5.0465 Y4.2313
X5.047 Y4.2312
X5.0546 Y4.2308
X5.0549 Y4.2307
X5.0629 Y4.2301
X5.0633
X5.0716 Y4.2292
X5.0719
X5.0806 Y4.2282
X5.081
X5.0902 Y4.2269
X5.0904
X5.0998 Y4.2255
X5.1001 Y4.2254
X5.1099 Y4.2238
X5.1102
X5.1203 Y4.222
X5.1205 Y4.2219
X5.131 Y4.2199
X5.1312
X5.1419 Y4.2177
X5.1421
X5.1531 Y4.2153
X5.1534 Y4.2152
X5.1646 Y4.2127
X5.1647
X5.1762 Y4.21
X5.1764 Y4.2099
X5.188 Y4.2071
X5.1881 Y4.207
X5.2 Y4.204
X5.2002
X5.2122 Y4.2008
X5.2123
X5.2244 Y4.1975
X5.2246 Y4.1974
X5.2369 Y4.1939
X5.237
X5.2493 Y4.1903
X5.2495
X5.2619 Y4.1866
X5.262 Y4.1865
X5.2745 Y4.1827
X5.2746 Y4.1826
X5.2871 Y4.1787
X5.2873 Y4.1786
X5.2998 Y4.1746
X5.2999 Y4.1745
X5.3124 Y4.1703
X5.3126
X5.325 Y4.166
X5.3252
X5.3376 Y4.1616
X5.3377 Y4.1615
X5.3501 Y4.157
X5.3503
X5.3625 Y4.1524
X5.3627 Y4.1523
X5.3748 Y4.1476
X5.3749
X5.3869 Y4.1429
X5.3871 Y4.1428
X5.399 Y4.138
X5.3992 Y4.1379
X5.411 Y4.133
X5.4111 Y4.1329
X5.4227 Y4.128
X5.4228 Y4.1279
X5.4343 Y4.1229
X5.4345 Y4.1228
X5.4458 Y4.1177
X5.446 Y4.1176
X5.457 Y4.1124
X5.4572 Y4.1123
X5.4681 Y4.107
X5.4683 Y4.1069
X5.479 Y4.1016
X5.4792 Y4.1015
X5.4897 Y4.0961
X5.4899 Y4.096
X5.5001 Y4.0906
X5.5004 Y4.0904
X5.5104 Y4.0849
X5.5107 Y4.0848
X5.5204 Y4.0792
X5.5207 Y4.0791
X5.5303 Y4.0734
X5.5305 Y4.0733
X5.5398 Y4.0676
X5.5401 Y4.0675
X5.5491 Y4.0617
X5.5494 Y4.0616
X5.5581 Y4.0558
X5.5584 Y4.0556
X5.5669 Y4.0498
X5.5672 Y4.0495
X5.5754 Y4.0437
X5.5756 Y4.0435
X5.5835 Y4.0376
X5.5839 Y4.0373
X5.5914 Y4.0314
X5.5918 Y4.0311
X5.599 Y4.0251
X5.5993 Y4.0248
X5.6062 Y4.0188
X5.6066 Y4.0184
X5.6132 Y4.0124
X5.6136 Y4.012
X5.6197 Y4.0059
X5.62 Y4.0056
X5.626 Y3.9996
X5.6264 Y3.9991
X5.6319 Y3.993
X5.6323 Y3.9926
X5.6375 Y3.9864
X5.6379 Y3.9861
X5.6428 Y3.98
X5.6431 Y3.9795
X5.6477 Y3.9734
X5.648 Y3.973
X5.6523 Y3.967
X5.6526 Y3.9665
X5.6565 Y3.9606
X5.6569 Y3.9601
X5.6605 Y3.9542
X5.6608 Y3.9538
X5.6641 Y3.948
X5.6644 Y3.9474
X5.6675 Y3.9417
X5.6678 Y3.9411
X5.6705 Y3.9355
X5.6707 Y3.935
X5.6732 Y3.9296
X5.6734 Y3.929
X5.6756 Y3.9237
X5.6758 Y3.9231
X5.6777 Y3.9179
X5.678 Y3.9171
X5.6796 Y3.9122
X5.6797 Y3.9115
X5.6811 Y3.9068
X5.6813 Y3.906
X5.6824 Y3.9014
X5.6825 Y3.9005
X5.6833 Y3.8961
X5.6835 Y3.8951
X5.684 Y3.8909
X5.6841 Y3.89
X5.6844 Y3.8861
Y3.8849
X5.6845 Y3.8813
X5.6844 Y3.8798
X5.6842 Y3.8764
X5.684 Y3.8749
X5.6835 Y3.8718
X5.6833 Y3.8706
X5.6827 Y3.8678
X5.6823 Y3.8662
X5.6815 Y3.8636
X5.6809 Y3.862
X5.6799 Y3.8595
X5.6793 Y3.8582
X5.6781 Y3.8559
X5.6775 Y3.8547
X5.6762 Y3.8524
X5.6753 Y3.8512
X5.6738 Y3.849
X5.6729 Y3.8478
X5.6712 Y3.8457
X5.6704 Y3.8448
X5.6684 Y3.8427
X5.6679 Y3.8422
X5.6658 Y3.8402
X5.6652 Y3.8396
X5.663 Y3.8376
X5.6625 Y3.8372
X5.6602 Y3.8353
X5.6597 Y3.8349
X5.6572 Y3.833
X5.6569 Y3.8328
X5.6544 Y3.8309
X5.6541 Y3.8307
X5.6514 Y3.8287
X5.6512 Y3.8286
X5.6485 Y3.8267
X5.6457 Y3.8248
X5.6456 Y3.8247
X5.6428 Y3.8228
X5.64 Y3.8208
X5.6372 Y3.8188
X5.6345 Y3.8169
X5.6318 Y3.8148
X5.6292 Y3.8127
X5.6267 Y3.8106
X5.6243 Y3.8085
X5.622 Y3.8063
X5.6197 Y3.804
X5.6175 Y3.8016
X5.6152 Y3.7991
X5.613 Y3.7966
X5.6108 Y3.7941
X5.6085 Y3.7915
X5.6064 Y3.789
X5.6043 Y3.7865
X5.6041 Y3.7863
X5.602 Y3.7839
X5.5999 Y3.7816
X5.5996 Y3.7812
X5.5975 Y3.779
X5.5973 Y3.7788
X5.5953 Y3.7767
X5.595 Y3.7763
X5.5929 Y3.7743
X5.5925 Y3.7739
X5.5905 Y3.772
X5.59 Y3.7716
X5.588 Y3.7698
X5.5875 Y3.7693
X5.5854 Y3.7677
X5.5845 Y3.767
X5.5824 Y3.7655
X5.5817 Y3.7649
X5.5795 Y3.7636
X5.5786 Y3.763
X5.5764 Y3.7617
X5.5753 Y3.7612
X5.5731 Y3.7601
X5.5718 Y3.7595
X5.5695 Y3.7586
X5.5681 Y3.7581
X5.5657 Y3.7574
X5.5645 Y3.7571
X5.5624 Y3.7566
X5.5613 Y3.7564
X5.559 Y3.756
X5.5581 Y3.7559
X5.5557 Y3.7556
X5.5549 Y3.7555
X5.5523 Y3.7553
X5.5516
X5.5489 Y3.7552
X5.5482
X5.5454
X5.5448
X5.5418 Y3.7553
X5.5414
X5.5383 Y3.7555
X5.538
X5.5348 Y3.7557
X5.5345
X5.5312 Y3.756
X5.531
X5.5276 Y3.7564
X5.5275
X5.524 Y3.7567
X5.5203 Y3.7571
X5.5166 Y3.7574
X5.5129 Y3.7578
X5.5091 Y3.7581
X5.5053 Y3.7584
X5.5015 Y3.7587
X5.4976 Y3.7589
X5.4937 Y3.759
X5.4897
X5.4857
X5.4817 Y3.7589
X5.4777 Y3.7587
X5.4736 Y3.7583
X5.4695 Y3.7579
X5.4654 Y3.7573
X5.4613 Y3.7565
X5.4564 Y3.7555
X5.4515 Y3.7542
X5.4466 Y3.7527
X5.4417 Y3.7511
X5.4368 Y3.7493
X5.4319 Y3.7473
X5.427 Y3.7451
X5.4221 Y3.7428
X5.4174 Y3.7404
X5.4128 Y3.7379
X5.4082 Y3.7352
X5.4039 Y3.7325
X5.3996 Y3.7297
X5.3956 Y3.7269
X5.3918 Y3.7239
X5.3881 Y3.7209
X5.3847 Y3.7179
X5.3815 Y3.7149
X5.3786 Y3.7118
X5.3759 Y3.7088
X5.3735 Y3.7058
X5.3714 Y3.7028
X5.3695 Y3.6999
X5.368 Y3.6971
X5.367 Y3.695
X5.3662 Y3.6928
X5.3656 Y3.6907
X5.3652 Y3.6887
X5.3649 Y3.6867
X5.3648 Y3.6847
Y3.6828
X5.365 Y3.6808
X5.3654 Y3.6788
X5.3658 Y3.6768
X5.3664 Y3.6748
X5.3671 Y3.6728
X5.368 Y3.6707
X5.369 Y3.6686
X5.3701 Y3.6666
X5.3714 Y3.6644
X5.3728 Y3.6622
X5.3743 Y3.66
X5.3761 Y3.6577
X5.3779 Y3.6554
X5.3798 Y3.6531
X5.3818 Y3.6508
X5.3839 Y3.6484
X5.3862 Y3.6459
X5.3884 Y3.6435
X5.3956 Y3.636
Y3.6359
X5.3984 Y3.633
X5.4013 Y3.63
X5.4042 Y3.627
X5.4043 Y3.6269
X5.4072 Y3.6239
X5.4073 Y3.6238
X5.4102 Y3.6206
X5.4132 Y3.6175
Y3.6174
X5.4162 Y3.6142
X5.4163 Y3.614
X5.4193 Y3.6107
X5.4194 Y3.6106
X5.4224 Y3.6073
X5.4226 Y3.6071
X5.4256 Y3.6036
X5.4257 Y3.6035
X5.4288 Y3.5999
X5.429 Y3.5997
X5.432 Y3.596
X5.4322 Y3.5958
X5.4353 Y3.592
X5.4354 Y3.5919
X5.4385 Y3.5879
X5.4386 Y3.5878
X5.4418 Y3.5837
X5.442 Y3.5835
X5.4451 Y3.5793
X5.4453 Y3.579
X5.4485 Y3.5747
X5.4486 Y3.5745
X5.4518 Y3.57
X5.452 Y3.5697
X5.4551 Y3.565
X5.4553 Y3.5648
X5.4585 Y3.56
X5.4587 Y3.5597
X5.4619 Y3.5546
X5.462 Y3.5544
X5.4653 Y3.5492
X5.4655 Y3.5489
X5.4687 Y3.5434
X5.4689 Y3.5432
X5.4722 Y3.5375
X5.4723 Y3.5373
X5.4756 Y3.5314
X5.4757 Y3.5311
X5.479 Y3.525
X5.4791 Y3.5248
X5.4824 Y3.5185
X5.4825 Y3.5182
X5.4857 Y3.5118
X5.4859 Y3.5115
X5.4891 Y3.5049
Y3.5047
X5.4923 Y3.4979
X5.4924 Y3.4977
X5.4954 Y3.4908
X5.4955 Y3.4905
X5.4985 Y3.4836
X5.4986 Y3.4833
X5.5014 Y3.4763
X5.5015 Y3.476
X5.5042 Y3.469
X5.5043 Y3.4687
X5.5068 Y3.4616
X5.5069 Y3.4614
X5.5093 Y3.4544
X5.5095 Y3.4539
X5.5117 Y3.447
X5.5118 Y3.4465
X5.5138 Y3.4396
X5.5139 Y3.4393
X5.5157 Y3.4324
X5.5158 Y3.432
X5.5175 Y3.4252
X5.5176 Y3.4246
X5.519 Y3.418
X5.5191 Y3.4175
X5.5203 Y3.411
X5.5204 Y3.4103
X5.5213 Y3.404
X5.5214 Y3.4034
X5.5221 Y3.3973
Y3.3965
X5.5225 Y3.3906
X5.5226 Y3.3896
Y3.3839
Y3.3829
X5.5224 Y3.3774
X5.5223 Y3.3764
X5.5218 Y3.3713
X5.5216 Y3.37
X5.5208 Y3.3652
X5.5205 Y3.3637
X5.5194 Y3.3592
X5.519 Y3.358
X5.5176 Y3.3538
X5.5171 Y3.3523
X5.5154 Y3.3484
X5.5146 Y3.3468
X5.5127 Y3.3433
X5.5118 Y3.3418
X5.5097 Y3.3385
X5.5084 Y3.3368
X5.5059 Y3.3339
X5.5047 Y3.3326
X5.502 Y3.33
X5.5004 Y3.3286
X5.4975 Y3.3263
X5.4958 Y3.3251
X5.4926 Y3.3231
X5.4908 Y3.3222
X5.4873 Y3.3205
X5.4855 Y3.3197
X5.4816 Y3.3183
X5.4798 Y3.3178
X5.4756 Y3.3168
X5.4738 Y3.3164
X5.4692 Y3.3158
X5.4675 Y3.3156
X5.4625 Y3.3154
X5.461
X5.4556 Y3.3155
X5.4542 Y3.3156
X5.4485 Y3.3163
X5.4472 Y3.3165
X5.4412 Y3.3176
X5.44 Y3.3178
X5.4335 Y3.3194
X5.4325 Y3.3198
X5.4256 Y3.3219
X5.4247 Y3.3222
X5.4175 Y3.325
X5.4166 Y3.3253
X5.4091 Y3.3286
X5.4083 Y3.329
X5.4003 Y3.3329
X5.3996 Y3.3333
X5.3913 Y3.3378
X5.3907 Y3.3382
X5.382 Y3.3434
X5.3815 Y3.3438
X5.3725 Y3.3496
X5.372 Y3.35
X5.3628 Y3.3564
X5.3623 Y3.3567
X5.3529 Y3.3637
X5.3525 Y3.364
X5.3429 Y3.3715
X5.3425 Y3.3718
X5.3328 Y3.3798
X5.3325 Y3.3801
X5.3227 Y3.3886
X5.3224 Y3.3889
X5.3126 Y3.3977
X5.3123 Y3.398
X5.3026 Y3.4072
X5.3023 Y3.4075
X5.2926 Y3.4171
X5.2923 Y3.4174
X5.2828 Y3.4273
X5.2825 Y3.4276
X5.2731 Y3.4377
X5.2728 Y3.438
X5.2636 Y3.4484
X5.2633 Y3.4487
X5.2543 Y3.4592
X5.254 Y3.4596
X5.2454 Y3.4703
X5.2451 Y3.4706
X5.2368 Y3.4814
X5.2365 Y3.4818
X5.2285 Y3.4927
X5.2282 Y3.4931
X5.2207 Y3.504
X5.2204 Y3.5045
X5.2133 Y3.5154
X5.213 Y3.5159
X5.2065 Y3.5267
X5.2061 Y3.5274
X5.2001 Y3.5381
X5.1998 Y3.5388
X5.1944 Y3.5495
X5.194 Y3.5502
X5.1893 Y3.5608
X5.189 Y3.5616
X5.1849 Y3.5719
X5.1846 Y3.5729
X5.1812 Y3.583
X5.1809 Y3.5841
X5.1782 Y3.594
X5.178 Y3.595
X5.1759 Y3.6047
X5.1757 Y3.6057
X5.1742 Y3.6153
X5.174 Y3.6162
X5.173 Y3.6256
X5.1729 Y3.6265
X5.1724 Y3.6358
Y3.6367
X5.1723 Y3.6458
Y3.6466
X5.1726 Y3.6555
Y3.6563
X5.1733 Y3.6651
Y3.6657
X5.1743 Y3.6743
X5.1744 Y3.6749
X5.1756 Y3.6833
X5.1757 Y3.6839
X5.1771 Y3.6921
X5.1772 Y3.6925
X5.1788 Y3.7006
X5.1789 Y3.701
X5.1807 Y3.709
Y3.7092
X5.1826 Y3.717
Y3.7172
X5.1845 Y3.7248
Y3.7249
X5.1864 Y3.7323
X5.1883 Y3.7396
X5.1899 Y3.7466
X5.1915 Y3.7534
X5.1929 Y3.7598
X5.194 Y3.766
X5.1949 Y3.7719
X5.1954 Y3.7775
X5.1957 Y3.7828
X5.1956 Y3.7877
X5.1952 Y3.7923
X5.1946 Y3.7967
X5.1936 Y3.801
X5.1925 Y3.805
X5.1912 Y3.8087
X5.1896 Y3.8123
X5.1879 Y3.8157
X5.186 Y3.8188
X5.1839 Y3.8218
X5.1818 Y3.8245
X5.1794 Y3.8271
X5.177 Y3.8294
X5.1744 Y3.8316
X5.1718 Y3.8335
X5.1691 Y3.8352
X5.1664 Y3.8368
X5.1636 Y3.8381
X5.1609 Y3.8392
X5.1582 Y3.8401
X5.1555 Y3.8408
X5.1528 Y3.8413
X5.1503 Y3.8416
X5.1478
X5.1454 Y3.8415
X5.1429 Y3.8413
X5.1405 Y3.8408
X5.138 Y3.8402
X5.1355 Y3.8395
X5.133 Y3.8387
X5.1306 Y3.8377
X5.1281 Y3.8366
X5.1256 Y3.8354
X5.1231 Y3.8341
X5.1205 Y3.8326
X5.1179 Y3.8311
X5.1154 Y3.8295
X5.1128 Y3.8279
X5.11 Y3.8262
X5.1073 Y3.8245
X5.1046 Y3.8228
X5.1044 Y3.8226
X5.1018 Y3.821
X5.1016 Y3.8209
X5.099 Y3.8193
X5.0986 Y3.8191
X5.096 Y3.8176
X5.0954 Y3.8173
X5.0927 Y3.8159
X5.0923 Y3.8156
X5.0897 Y3.8143
X5.0889 Y3.814
X5.0862 Y3.8128
X5.0855 Y3.8125
X5.0828 Y3.8114
X5.0822 Y3.8112
X5.0794 Y3.8102
X5.0787 Y3.81
X5.0759 Y3.8091
X5.0752 Y3.8089
X5.0723 Y3.8082
X5.0717 Y3.808
X5.0687 Y3.8073
X5.0681 Y3.8072
X5.0652 Y3.8066
X5.0646 Y3.8065
X5.0615 Y3.806
X5.0609 Y3.8059
X5.0578 Y3.8055
X5.0573 Y3.8054
X5.0542 Y3.8051
X5.0537 Y3.805
X5.0505 Y3.8048
X5.05 Y3.8047
X5.0468 Y3.8046
X5.0463
X5.0431 Y3.8045
X5.0426
X5.0393 Y3.8044
X5.0389
X5.0355 Y3.8045
X5.0352
X5.0318 Y3.8046
X5.0314 Y3.8047
X5.028 Y3.8049
X5.0277
X5.0243 Y3.8052
X5.0239
X5.0205 Y3.8056
X5.0202
X5.0168 Y3.806
X5.0164
X5.013 Y3.8065
X5.0127 Y3.8066
X5.0092 Y3.8071
X5.0089 Y3.8072
X5.0054 Y3.8078
X5.0051
X5.0017 Y3.8085
X5.0014
X4.9979 Y3.8093
X4.9977
X4.9942 Y3.8101
X4.994
X4.9905 Y3.811
X4.9904
X4.9869 Y3.8118
X4.9868 Y3.8119
X4.9833 Y3.8127
X4.9798 Y3.8136
X4.9764 Y3.8144
X4.973 Y3.8151
X4.9697 Y3.8159
X4.9665 Y3.8165
X4.9633 Y3.817
X4.9602 Y3.8174
X4.9572 Y3.8177
X4.9542 Y3.8179
X4.9513
X4.9484 Y3.8178
X4.9457 Y3.8175
X4.9431 Y3.8171
X4.9405 Y3.8165
X4.9381 Y3.8157
X4.9357 Y3.8148
X4.9333 Y3.8137
X4.9311 Y3.8124
X4.9288 Y3.8108
X4.9265 Y3.8089
X4.9241 Y3.8067
X4.9217 Y3.8041
X4.9193 Y3.8012
X4.9168 Y3.798
X4.9142 Y3.7945
X4.9116 Y3.7907
X4.909 Y3.7868
X4.9063 Y3.7826
X4.9036 Y3.7783
X4.9008 Y3.7739
X4.8951 Y3.7649
X4.895 Y3.7647
X4.8921 Y3.7603
X4.892 Y3.7602
X4.8891 Y3.7558
X4.8889 Y3.7555
X4.8859 Y3.7512
X4.8857 Y3.7509
X4.8827 Y3.7467
X4.8824 Y3.7463
X4.8793 Y3.7422
X4.879 Y3.7417
X4.8758 Y3.7378
X4.8754 Y3.7373
X4.8721 Y3.7335
X4.8717 Y3.7329
X4.8683 Y3.7293
X4.8677 Y3.7287
X4.8642 Y3.7252
X4.8636 Y3.7246
X4.8601 Y3.7215
X4.8592 Y3.7207
X4.8556 Y3.7178
X4.8546 Y3.7171
X4.8508 Y3.7145
X4.8498 Y3.7138
X4.8459 Y3.7114
X4.8448 Y3.7108
X4.8407 Y3.7086
X4.8396 Y3.7081
X4.8353 Y3.7062
X4.8342 Y3.7058
X4.8296 Y3.7041
X4.8287 Y3.7038
X4.824 Y3.7023
X4.823 Y3.7021
X4.818 Y3.7008
X4.8172 Y3.7006
X4.8121 Y3.6996
X4.8113 Y3.6994
X4.806 Y3.6985
X4.8053 Y3.6984
X4.7997 Y3.6977
X4.7991 Y3.6976
X4.7934 Y3.6971
X4.7928 Y3.697
X4.7868 Y3.6966
X4.7864
X4.7802 Y3.6963
X4.7798
X4.7735 Y3.6962
X4.7731
X4.7666
X4.7662
X4.7595 Y3.6963
X4.7592
X4.7523 Y3.6965
X4.7521
X4.745 Y3.6968
X4.7448
X4.7375 Y3.6972
X4.7374
X4.7299 Y3.6977
X4.7298
X4.7222 Y3.6982
X4.7221
X4.7142 Y3.6988
X4.7062 Y3.6994
X4.698 Y3.7
X4.6897 Y3.7007
X4.6812 Y3.7013
X4.6727 Y3.702
X4.664 Y3.7026
X4.6553 Y3.7031
X4.6465 Y3.7036
X4.6377 Y3.704
X4.6288 Y3.7043
X4.62 Y3.7045
X4.6111
X4.6023 Y3.7044
X4.5935 Y3.7041
X4.5849 Y3.7035
X4.5763 Y3.7028
X4.5678 Y3.7018
X4.5595 Y3.7006
X4.5513 Y3.6991
X4.5433 Y3.6974
X4.5355 Y3.6954
X4.5278 Y3.693
X4.5204 Y3.6904
X4.5133 Y3.6874
X4.5063 Y3.6841
X4.4996 Y3.6805
X4.4932 Y3.6764
X4.4871 Y3.672
X4.4812 Y3.6673
X4.4756 Y3.6621
X4.4702 Y3.6566
X4.465 Y3.6508
X4.4602 Y3.6448
X4.4556 Y3.6385
X4.4513 Y3.632
X4.4473 Y3.6253
X4.4436 Y3.6185
X4.4402 Y3.6115
X4.437 Y3.6044
X4.4343 Y3.5973
X4.4318 Y3.5901
X4.4296 Y3.5829
X4.4278 Y3.5757
X4.4263 Y3.5687
X4.4251 Y3.5617
X4.4243 Y3.5548
X4.4238 Y3.5481
X4.4236 Y3.5415
X4.4238 Y3.5352
X4.4242 Y3.5291
X4.425 Y3.5235
X4.4261 Y3.5181
X4.4274 Y3.5129
X4.4291 Y3.5082
X4.431 Y3.5037
X4.4332 Y3.4994
X4.4356 Y3.4953
X4.4383 Y3.4915
X4.4412 Y3.4879
X4.4443 Y3.4845
X4.4477 Y3.4813
X4.4513 Y3.4783
X4.4551 Y3.4754
X4.4591 Y3.4726
X4.4634 Y3.4701
X4.4679 Y3.4677
X4.4725 Y3.4654
X4.4774 Y3.4633
X4.4824 Y3.4613
X4.4875 Y3.4595
X4.4928 Y3.4578
X4.4982 Y3.4563
X4.5037 Y3.4549
X4.5093 Y3.4536
X4.5149 Y3.4524
X4.5206 Y3.4513
X4.5264 Y3.4503
X4.5323 Y3.4494
X4.5382 Y3.4485
X4.5441 Y3.4477
X4.5502 Y3.4469
X4.5563 Y3.4461
X4.5625 Y3.4453
X4.5687 Y3.4444
X4.5688
X4.5751 Y3.4435
X4.5753
X4.5815 Y3.4425
X4.5817
X4.5879 Y3.4415
X4.5882 Y3.4414
X4.5945 Y3.4403
X4.5948 Y3.4402
X4.6011 Y3.4389
X4.6015
X4.6078 Y3.4375
X4.6083 Y3.4374
X4.6146 Y3.4358
X4.615 Y3.4357
X4.6214 Y3.434
X4.6219 Y3.4338
X4.6283 Y3.4319
X4.6288 Y3.4318
X4.6353 Y3.4296
X4.6359 Y3.4294
X4.6424 Y3.427
X4.6429 Y3.4268
X4.6494 Y3.4242
X4.65 Y3.424
X4.6566 Y3.4211
X4.6572 Y3.4208
X4.6638 Y3.4177
X4.6644 Y3.4174
X4.671 Y3.4139
X4.6717 Y3.4136
X4.6783 Y3.4098
X4.6789 Y3.4095
X4.6856 Y3.4054
X4.6861 Y3.4051
X4.6929 Y3.4006
X4.6935 Y3.4002
X4.7003 Y3.3954
X4.7007 Y3.3951
X4.7075 Y3.39
X4.708 Y3.3896
X4.7148 Y3.3842
X4.7152 Y3.3838
X4.722 Y3.378
X4.7224 Y3.3777
X4.7291 Y3.3715
X4.7295 Y3.3711
X4.7362 Y3.3647
X4.7366 Y3.3643
X4.7431 Y3.3575
X4.7435 Y3.3571
X4.7499 Y3.3499
X4.7503 Y3.3495
