(1001)
(T1  D=0.0312 CR=0. - ZMIN=0. - FLAT END MILL)
G0 G90 G94 G17
G20
G53 G0 Z0.

(2D CONTOUR4)
M5
T1
S12000 M3
G4 P4.
G55
M8
G0 X3.3747 Y2.4431
Z0.6625
Z0.2625
G1 Z0.1412 F1.8
Z0.0263
X3.3746 Y2.4433 Z0.0251 F14.2
X3.3743 Y2.4439 Z0.024
X3.3739 Y2.4448 Z0.0234
X3.3734 Y2.4459 Z0.0231
X3.3721 Y2.4488
X3.3714 Y2.4498
X3.3703 Y2.4504
X3.3691 Y2.4506
X3.3679 Y2.4503
X3.3636 Y2.4483
X3.3557 Y2.4446
X3.3479 Y2.4408
X3.3403 Y2.4369
X3.3328 Y2.433
X3.3254 Y2.429
X3.3182 Y2.4249
X3.3111 Y2.4207
X3.3041 Y2.4165
X3.2973 Y2.4122
X3.2906 Y2.4079
X3.2841 Y2.4035
X3.2777 Y2.399
X3.2714 Y2.3945
X3.2653 Y2.39
X3.2594 Y2.3854
X3.2536 Y2.3808
X3.248 Y2.3762
X3.2425 Y2.3715
X3.2372 Y2.3668
X3.232 Y2.3621
X3.227 Y2.3574
X3.2222 Y2.3526
X3.2176 Y2.3478
X3.2131 Y2.3431
X3.2088 Y2.3383
X3.2047 Y2.3335
X3.2007 Y2.3287
X3.1969 Y2.3239
X3.1932 Y2.3191
X3.1897 Y2.3143
X3.1862 Y2.3095
X3.1829 Y2.3047
X3.1797 Y2.2999
X3.1766 Y2.2951
X3.1735 Y2.2902
X3.1705 Y2.2854
X3.1676 Y2.2805
X3.1647 Y2.2757
X3.1618 Y2.2708
X3.159 Y2.266
X3.1562 Y2.2611
X3.1534 Y2.2563
X3.1506 Y2.2514
X3.1505
X3.1477 Y2.2465
X3.1449 Y2.2417
X3.1448 Y2.2416
X3.142 Y2.2368
X3.1419 Y2.2367
X3.1391 Y2.232
X3.139 Y2.2318
X3.1361 Y2.2272
X3.136 Y2.227
X3.133 Y2.2223
X3.1329 Y2.2221
X3.1299 Y2.2175
X3.1297 Y2.2173
X3.1267 Y2.2127
X3.1265 Y2.2125
X3.1233 Y2.208
X3.1231 Y2.2077
X3.1199 Y2.2032
X3.1197 Y2.2029
X3.1163 Y2.1985
X3.1161 Y2.1981
X3.1126 Y2.1938
X3.1123 Y2.1934
X3.1087 Y2.1891
X3.1084 Y2.1887
X3.1046 Y2.1844
X3.1042 Y2.184
X3.1003 Y2.1798
X3.0999 Y2.1794
X3.0958 Y2.1753
X3.0954 Y2.1749
X3.0911 Y2.1708
X3.0907 Y2.1704
X3.0862 Y2.1664
X3.0857 Y2.166
X3.081 Y2.1621
X3.0805 Y2.1617
X3.0756 Y2.1578
X3.0751 Y2.1574
X3.0699 Y2.1537
X3.0693 Y2.1533
X3.0639 Y2.1496
X3.0633 Y2.1492
X3.0576 Y2.1456
X3.0571 Y2.1453
X3.051 Y2.1418
X3.0505 Y2.1415
X3.0441 Y2.138
X3.0436 Y2.1377
X3.037 Y2.1344
X3.0364 Y2.1341
X3.0294 Y2.1309
X3.0289 Y2.1306
X3.0216 Y2.1275
X3.0211 Y2.1273
X3.0133 Y2.1242
X3.0129 Y2.124
X3.0048 Y2.121
X3.0043 Y2.1209
X2.9958 Y2.118
X2.9953 Y2.1179
X2.9865 Y2.1151
X2.9861 Y2.115
X2.9769 Y2.1124
X2.9765 Y2.1123
X2.967 Y2.1098
X2.9666 Y2.1097
X2.9569 Y2.1074
X2.9565 Y2.1073
X2.9467 Y2.1052
X2.9463 Y2.1051
X2.9362 Y2.1032
X2.9358
X2.9257 Y2.1015
X2.9252 Y2.1014
X2.915 Y2.0999
X2.9146
X2.9044 Y2.0987
X2.9039 Y2.0986
X2.8937 Y2.0977
X2.8933 Y2.0976
X2.8831 Y2.0969
X2.8827
X2.8727 Y2.0964
X2.8721
X2.8623 Y2.0963
X2.8618
X2.8521 Y2.0964
X2.8515
X2.8421 Y2.0968
X2.8415
X2.8324 Y2.0975
X2.8317 Y2.0976
X2.8229 Y2.0986
X2.8221 Y2.0987
X2.8137 Y2.1
X2.8129 Y2.1001
X2.8049 Y2.1017
X2.8039 Y2.102
X2.7964 Y2.1039
X2.7953 Y2.1042
X2.7883 Y2.1065
X2.7871 Y2.1069
X2.7806 Y2.1095
X2.7792 Y2.1102
X2.7734 Y2.1131
X2.7719 Y2.114
X2.7666 Y2.1172
X2.7652 Y2.1182
X2.7605 Y2.1218
X2.7591 Y2.123
X2.7548 Y2.1269
X2.7536 Y2.1282
X2.7498 Y2.1324
X2.7487 Y2.1338
X2.7453 Y2.1384
X2.7444 Y2.1397
X2.7413 Y2.1446
X2.7406 Y2.1459
X2.7378 Y2.1512
X2.7372 Y2.1525
X2.7348 Y2.1581
X2.7344 Y2.1593
X2.7323 Y2.1653
X2.732 Y2.1663
X2.7302 Y2.1726
X2.73 Y2.1736
X2.7285 Y2.1801
X2.7284 Y2.181
X2.7271 Y2.1878
X2.727 Y2.1885
X2.7261 Y2.1956
X2.726 Y2.1962
X2.7252 Y2.2036
Y2.2041
X2.7246 Y2.2116
Y2.2121
X2.7242 Y2.2198
Y2.2202
X2.724 Y2.2281
Y2.2284
X2.7239 Y2.2365
Y2.2368
X2.724 Y2.2449
Y2.2452
X2.7241 Y2.2534
Y2.2536
X2.7243 Y2.262
Y2.2621
X2.7246 Y2.2706
X2.7249 Y2.2792
X2.7252 Y2.2877
X2.7256 Y2.2962
X2.7259 Y2.3047
X2.7262 Y2.3132
X2.7265 Y2.3216
Y2.3217
X2.7269 Y2.3299
Y2.3301
X2.7274 Y2.3382
Y2.3384
X2.7279 Y2.3464
Y2.3466
X2.7285 Y2.3545
Y2.3548
X2.7292 Y2.3625
X2.7293 Y2.3628
X2.7301 Y2.3703
X2.7302 Y2.3707
X2.7311 Y2.378
X2.7312 Y2.3784
X2.7323 Y2.3855
X2.7324 Y2.386
X2.7337 Y2.3928
X2.7338 Y2.3934
X2.7352 Y2.4
X2.7353 Y2.4006
X2.7369 Y2.4069
X2.7371 Y2.4076
X2.7389 Y2.4137
X2.7392 Y2.4144
X2.7412 Y2.4202
X2.7415 Y2.4211
X2.7437 Y2.4265
X2.7441 Y2.4275
X2.7465 Y2.4326
X2.747 Y2.4337
X2.7497 Y2.4385
X2.7503 Y2.4396
X2.7532 Y2.4441
X2.754 Y2.4453
X2.7571 Y2.4494
X2.7581 Y2.4506
X2.7615 Y2.4544
X2.7626 Y2.4556
X2.7663 Y2.459
X2.7675 Y2.4601
X2.7709 Y2.4627
X2.772 Y2.4635
X2.7756 Y2.466
X2.7767 Y2.4666
X2.7806 Y2.4689
X2.7816 Y2.4695
X2.7858 Y2.4715
X2.7868 Y2.472
X2.7912 Y2.4739
X2.7922 Y2.4743
X2.7968 Y2.476
X2.7977 Y2.4763
X2.8026 Y2.4778
X2.8034 Y2.478
X2.8086 Y2.4794
X2.8093 Y2.4795
X2.8146 Y2.4807
X2.8153 Y2.4808
X2.8208 Y2.4819
X2.8214 Y2.482
X2.8272 Y2.4828
X2.8277 Y2.4829
X2.8336 Y2.4837
X2.834
X2.8402 Y2.4843
X2.8405 Y2.4844
X2.8468 Y2.4849
X2.8471
X2.8536 Y2.4853
X2.8538
X2.8604 Y2.4857
X2.8607
X2.8673 Y2.4859
X2.8675
X2.8743 Y2.4861
X2.8745
X2.8814 Y2.4862
X2.8815
X2.8885
X2.8886
X2.8956 Y2.4863
X2.8957
X2.9028 Y2.4862
X2.9029
X2.9101
X2.9173 Y2.4861
X2.9245
X2.9317 Y2.486
X2.9389
X2.946
X2.9531 Y2.4861
X2.9601 Y2.4862
X2.967 Y2.4863
X2.9739 Y2.4866
X2.9806 Y2.4869
X2.9872 Y2.4873
X2.9936 Y2.4879
X2.9999 Y2.4885
X3.006 Y2.4893
X3.012 Y2.4902
X3.0177 Y2.4912
X3.0232 Y2.4924
X3.0284 Y2.4938
X3.0335 Y2.4953
X3.0382 Y2.4969
X3.0426 Y2.4987
X3.0467 Y2.5006
X3.0504 Y2.5028
X3.0538 Y2.5051
X3.057 Y2.5076
X3.0598 Y2.5102
X3.0623 Y2.513
X3.0645 Y2.516
X3.0663 Y2.5191
X3.0679 Y2.5224
X3.0691 Y2.5259
X3.07 Y2.5297
X3.0706 Y2.5339
X3.0708 Y2.5395
X3.0705 Y2.5455
X3.0696 Y2.552
X3.0683 Y2.559
X3.0666 Y2.5663
X3.0644 Y2.574
X3.0618 Y2.5821
X3.0589 Y2.5904
X3.0556 Y2.5989
X3.0521 Y2.6076
X3.0484 Y2.6165
X3.0444 Y2.6255
X3.0403 Y2.6345
X3.0361 Y2.6436
X3.0318 Y2.6527
X3.0275 Y2.6618
X3.0231 Y2.6708
X3.0188 Y2.6797
X3.0146 Y2.6885
X3.0145
X3.0104 Y2.6971
Y2.6972
X3.0064 Y2.7055
Y2.7057
X3.0026 Y2.7138
X3.0025 Y2.714
X2.999 Y2.7218
X2.9989 Y2.7221
X2.9957 Y2.7296
X2.9956 Y2.7299
X2.9926 Y2.7371
X2.9925 Y2.7374
X2.9899 Y2.7443
X2.9897 Y2.7446
X2.9874 Y2.7512
X2.9872 Y2.7515
X2.9851 Y2.7578
X2.985 Y2.7581
X2.9831 Y2.7641
X2.983 Y2.7645
X2.9813 Y2.7702
X2.9812 Y2.7706
X2.9797 Y2.7761
X2.9796 Y2.7764
X2.9783 Y2.7817
X2.9782 Y2.782
X2.9771 Y2.787
X2.977 Y2.7873
X2.9759 Y2.7921
Y2.7924
X2.975 Y2.797
X2.9749 Y2.7972
X2.9741 Y2.8017
X2.974 Y2.8019
X2.9732 Y2.8062
Y2.8063
X2.9725 Y2.8105
X2.9718 Y2.8145
X2.9711 Y2.8183
X2.9704 Y2.8219
X2.9697 Y2.8254
X2.969 Y2.8286
X2.9682 Y2.8318
X2.9674 Y2.8348
X2.9665 Y2.8377
X2.9655 Y2.8405
X2.9645 Y2.8433
X2.9633 Y2.846
X2.962 Y2.8486
X2.9605 Y2.8512
X2.959 Y2.8537
X2.9573 Y2.8562
X2.9555 Y2.8586
X2.9536 Y2.8609
X2.9515 Y2.8631
X2.9494 Y2.8653
X2.9472 Y2.8673
X2.9449 Y2.8693
X2.9424 Y2.8712
X2.9399 Y2.8729
X2.9373 Y2.8745
X2.9347 Y2.876
X2.9319 Y2.8774
X2.9291 Y2.8786
X2.9262 Y2.8797
X2.9233 Y2.8807
X2.9203 Y2.8815
X2.9172 Y2.8822
X2.914 Y2.8827
X2.9108 Y2.8831
X2.9075 Y2.8833
X2.9042
X2.9007 Y2.8832
X2.8971 Y2.8829
X2.8934 Y2.8825
X2.8895 Y2.882
X2.8857 Y2.8814
X2.8817 Y2.8807
X2.8777 Y2.8799
X2.8736 Y2.8791
X2.8695 Y2.8783
X2.8654 Y2.8774
X2.8612 Y2.8766
X2.8611
X2.857 Y2.8758
X2.8569 Y2.8757
X2.8528 Y2.8749
X2.8525
X2.8485 Y2.8742
X2.8482 Y2.8741
X2.8442 Y2.8735
X2.8438 Y2.8734
X2.8398 Y2.8729
X2.8393 Y2.8728
X2.8354 Y2.8724
X2.8349 Y2.8723
X2.831 Y2.8721
X2.8303 Y2.872
X2.8265 Y2.8719
X2.8257 Y2.8718
X2.822 Y2.8719
X2.8211
X2.8174 Y2.8721
X2.8164 Y2.8722
X2.8127 Y2.8725
X2.8116 Y2.8727
X2.8081 Y2.8733
X2.8069 Y2.8735
X2.8034 Y2.8744
X2.8023 Y2.8747
X2.7988 Y2.8757
X2.7977 Y2.8761
X2.7943 Y2.8774
X2.7933 Y2.8778
X2.7899 Y2.8793
X2.789 Y2.8797
X2.7856 Y2.8814
X2.7847 Y2.8818
X2.7814 Y2.8837
X2.7806 Y2.8842
X2.7773 Y2.8863
X2.7766 Y2.8867
X2.7733 Y2.889
X2.7726 Y2.8895
X2.7695 Y2.8919
X2.7688 Y2.8925
X2.7658 Y2.895
X2.7652 Y2.8956
X2.7622 Y2.8983
X2.7616 Y2.8989
X2.7588 Y2.9017
X2.7582 Y2.9023
X2.7555 Y2.9053
X2.7549 Y2.9059
X2.7523 Y2.909
X2.7518 Y2.9096
X2.7493 Y2.9129
X2.7488 Y2.9135
X2.7465 Y2.9169
X2.746 Y2.9176
X2.7438 Y2.921
X2.7433 Y2.9217
X2.7413 Y2.9252
X2.7409 Y2.926
X2.739 Y2.9296
X2.7386 Y2.9304
X2.7369 Y2.9341
X2.7365 Y2.9349
X2.735 Y2.9386
X2.7347 Y2.9395
X2.7334 Y2.9433
X2.7331 Y2.9442
X2.7319 Y2.9481
X2.7317 Y2.949
X2.7308 Y2.9529
X2.7306 Y2.9539
X2.7299 Y2.9578
X2.7297 Y2.9588
X2.7292 Y2.9628
X2.7291 Y2.9638
X2.7288 Y2.9678
Y2.9687
X2.7287 Y2.9728
Y2.9737
X2.7288 Y2.9778
X2.7289 Y2.9787
X2.7292 Y2.9829
X2.7293 Y2.9837
X2.7298 Y2.9879
X2.7299 Y2.9887
X2.7306 Y2.9929
X2.7308 Y2.9937
X2.7317 Y2.998
X2.7319 Y2.9987
X2.733 Y3.003
X2.7332 Y3.0037
X2.7344 Y3.008
X2.7347 Y3.0087
X2.7361 Y3.013
X2.7364 Y3.0136
X2.738 Y3.018
X2.7383 Y3.0186
X2.7401 Y3.0229
X2.7404 Y3.0235
X2.7424 Y3.0279
X2.7427 Y3.0284
X2.7449 Y3.0328
X2.7451 Y3.0333
X2.7475 Y3.0376
X2.7478 Y3.0381
X2.7504 Y3.0425
X2.7507 Y3.043
X2.7534 Y3.0473
X2.7537 Y3.0478
X2.7566 Y3.0521
X2.7569 Y3.0525
X2.76 Y3.0569
X2.7602 Y3.0573
X2.7635 Y3.0616
X2.7638 Y3.062
X2.7672 Y3.0663
X2.7675 Y3.0667
X2.7711 Y3.0709
X2.7714 Y3.0713
X2.7751 Y3.0756
X2.7754 Y3.0759
X2.7793 Y3.0801
X2.7796 Y3.0804
X2.7836 Y3.0846
X2.7839 Y3.0849
X2.7881 Y3.089
X2.7883 Y3.0893
X2.7926 Y3.0934
X2.7928 Y3.0937
X2.7973 Y3.0978
X2.7975 Y3.098
X2.802 Y3.1021
X2.8022 Y3.1023
X2.8069 Y3.1063
X2.8071 Y3.1065
X2.8118 Y3.1106
X2.812 Y3.1107
X2.8168 Y3.1147
X2.8169 Y3.1148
X2.8218 Y3.1188
X2.822 Y3.119
X2.827 Y3.1229
X2.8271 Y3.123
X2.8321 Y3.127
X2.8322 Y3.1271
X2.8373 Y3.131
X2.8374 Y3.1311
X2.8425 Y3.135
X2.8426
X2.8477 Y3.1389
X2.8478 Y3.139
X2.853 Y3.1428
X2.8531 Y3.1429
X2.8582 Y3.1467
X2.8583
X2.8635 Y3.1505
X2.8687 Y3.1543
X2.8739 Y3.158
X2.879 Y3.1617
X2.8841 Y3.1654
X2.8892 Y3.1691
X2.8942 Y3.1727
X2.8991 Y3.1762
X2.8992
X2.904 Y3.1797
X2.9041 Y3.1798
X2.9089 Y3.1832
X2.909
X2.9138 Y3.1865
X2.9139 Y3.1866
X2.9186 Y3.1899
X2.9188 Y3.19
X2.9235 Y3.1931
X2.9237 Y3.1932
X2.9283 Y3.1962
X2.9285 Y3.1964
X2.9331 Y3.1993
X2.9334 Y3.1995
X2.938 Y3.2022
X2.9383 Y3.2024
X2.9429 Y3.2051
X2.9433 Y3.2053
X2.9478 Y3.2078
X2.9483 Y3.208
X2.9528 Y3.2104
X2.9533 Y3.2106
X2.9579 Y3.2128
X2.9584 Y3.213
X2.963 Y3.2151
X2.9636 Y3.2153
X2.9682 Y3.2172
X2.9688 Y3.2174
X2.9734 Y3.2191
X2.9741 Y3.2193
X2.9788 Y3.2208
X2.9795 Y3.221
X2.9842 Y3.2223
X2.985 Y3.2225
X2.9897 Y3.2236
X2.9905 Y3.2238
X2.9953 Y3.2247
X2.9962 Y3.2248
X3.001 Y3.2255
X3.0019 Y3.2256
X3.0068 Y3.226
X3.0077
X3.0127 Y3.2262
X3.0136
X3.0187
X3.0196
X3.0248 Y3.2259
X3.0256 Y3.2258
X3.0309 Y3.2253
X3.0317 Y3.2252
X3.0371 Y3.2244
X3.0379 Y3.2242
X3.0433 Y3.2232
X3.044 Y3.223
X3.0495 Y3.2217
X3.0502 Y3.2216
X3.0558 Y3.22
X3.0565 Y3.2198
X3.0621 Y3.218
X3.0627 Y3.2178
X3.0684 Y3.2158
X3.069 Y3.2155
X3.0746 Y3.2132
X3.0753 Y3.2129
X3.0809 Y3.2104
X3.0815 Y3.2101
X3.0872 Y3.2073
X3.0878 Y3.207
X3.0934 Y3.204
X3.094 Y3.2037
X3.0996 Y3.2004
X3.1002 Y3.2
X3.1058 Y3.1965
X3.1063 Y3.1961
X3.1119 Y3.1923
X3.1124 Y3.192
X3.118 Y3.1879
X3.1185 Y3.1875
X3.1239 Y3.1832
X3.1244 Y3.1828
X3.1298 Y3.1783
X3.1303 Y3.1778
X3.1356 Y3.173
X3.1361 Y3.1726
X3.1413 Y3.1675
X3.1418 Y3.1671
X3.1469 Y3.1617
X3.1474 Y3.1613
X3.1524 Y3.1557
X3.1528 Y3.1552
X3.1577 Y3.1494
X3.1581 Y3.1489
X3.1629 Y3.1428
X3.1633 Y3.1423
X3.168 Y3.136
X3.1683 Y3.1355
X3.1729 Y3.129
X3.1731 Y3.1286
X3.1776 Y3.1218
X3.1779 Y3.1214
X3.1823 Y3.1145
X3.1824 Y3.1142
X3.1868 Y3.1071
X3.1869 Y3.1068
X3.1912 Y3.0996
X3.1913 Y3.0993
X3.1955 Y3.092
X3.1956 Y3.0918
X3.1997 Y3.0844
Y3.0842
X3.2038 Y3.0768
Y3.0766
X3.2078 Y3.0691
X3.2079 Y3.069
X3.2118 Y3.0615
X3.2157 Y3.054
X3.2196 Y3.0465
X3.2234 Y3.0392
X3.2272 Y3.032
X3.2309 Y3.025
X3.2346 Y3.0181
X3.2383 Y3.0115
X3.242 Y3.0051
X3.2456 Y2.9989
X3.2492 Y2.9931
X3.2528 Y2.9876
X3.2564 Y2.9824
X3.2599 Y2.9776
X3.2634 Y2.9732
X3.267 Y2.9692
X3.2705 Y2.9656
X3.274 Y2.9623
X3.2776 Y2.9594
X3.2812 Y2.9568
X3.2848 Y2.9546
X3.2885 Y2.9527
X3.2923 Y2.9511
X3.2962 Y2.9498
X3.3002 Y2.9489
X3.3044 Y2.9482
X3.3088 Y2.9478
X3.3134 Y2.9477
X3.3183 Y2.9479
X3.3235 Y2.9484
X3.329 Y2.9493
X3.3347 Y2.9505
X3.3408 Y2.9521
X3.3472 Y2.954
X3.3539 Y2.9563
X3.3609 Y2.9589
X3.3682 Y2.9619
X3.3758 Y2.9653
X3.3838 Y2.9689
X3.392 Y2.973
X3.4005 Y2.9773
X3.4092 Y2.9818
X3.418 Y2.9867
X3.427 Y2.9917
X3.4362 Y2.997
X3.4454 Y3.0024
X3.4546 Y3.008
X3.4639 Y3.0138
X3.4732 Y3.0197
X3.4824 Y3.0256
X3.4916 Y3.0317
X3.5007 Y3.0378
X3.5097 Y3.0439
X3.5185 Y3.0501
X3.5271 Y3.0562
X3.5356 Y3.0623
X3.5438 Y3.0683
X3.5517 Y3.0743
X3.5594 Y3.0801
X3.5667 Y3.0859
X3.5737 Y3.0915
X3.5803 Y3.0969
X3.5865 Y3.1022
X3.5924 Y3.1073
X3.5978 Y3.1122
X3.6029 Y3.117
X3.6077 Y3.1217
X3.6122 Y3.1262
X3.6163 Y3.1307
X3.62 Y3.135
X3.6235 Y3.1392
X3.6267 Y3.1433
X3.6295 Y3.1472
X3.6321 Y3.1511
X3.6343 Y3.1548
X3.6363 Y3.1585
X3.6381 Y3.1621
X3.6396 Y3.1655
X3.6408 Y3.1689
X3.6419 Y3.1722
X3.6427 Y3.1755
X3.6433 Y3.1787
X3.6438 Y3.1819
X3.644 Y3.1852
X3.6441 Y3.1884
X3.644 Y3.1917
X3.6438 Y3.1951
X3.6434 Y3.1984
X3.6428 Y3.2018
X3.6421 Y3.2052
X3.6412 Y3.2086
X3.6402 Y3.2119
X3.6391 Y3.2151
X3.6378 Y3.2182
X3.6365 Y3.2213
X3.635 Y3.2242
X3.6334 Y3.227
X3.6317 Y3.2297
X3.6299 Y3.2323
X3.628 Y3.2347
X3.626 Y3.2369
X3.624 Y3.239
X3.622 Y3.2409
X3.6199 Y3.2426
X3.6177 Y3.2442
X3.6155 Y3.2455
X3.6133 Y3.2467
X3.611 Y3.2477
X3.6087 Y3.2485
X3.6065 Y3.2491
X3.6042 Y3.2496
X3.6019 Y3.2499
X3.5993 Y3.25
X3.5967
X3.5939 Y3.2499
X3.591 Y3.2497
X3.5879 Y3.2493
X3.5848 Y3.249
X3.5816 Y3.2485
X3.5782 Y3.248
X3.5748 Y3.2475
X3.5713 Y3.2469
X3.5712
X3.5677 Y3.2464
X3.5675
X3.564 Y3.2459
X3.5636
X3.5601 Y3.2455
X3.5597
X3.5562 Y3.2452
X3.5556 Y3.2451
X3.552 Y3.2449
X3.5514
X3.5478 Y3.2448
X3.5471
X3.5434
X3.5427 Y3.2449
X3.539 Y3.2451
X3.5381 Y3.2452
X3.5343 Y3.2456
X3.5334 Y3.2457
X3.5296 Y3.2463
X3.5287 Y3.2464
X3.5248 Y3.2472
X3.5239 Y3.2475
X3.5199 Y3.2485
X3.519 Y3.2487
X3.5149 Y3.25
X3.5141 Y3.2503
X3.51 Y3.2518
X3.5092 Y3.2521
X3.505 Y3.2538
X3.5043 Y3.2541
X3.5 Y3.2561
X3.4994 Y3.2564
X3.4951 Y3.2586
X3.4945 Y3.2589
X3.4902 Y3.2613
X3.4896 Y3.2616
X3.4854 Y3.2642
X3.4848 Y3.2645
X3.4806 Y3.2673
X3.4801 Y3.2676
X3.4759 Y3.2705
X3.4754 Y3.2709
X3.4712 Y3.2739
X3.4708 Y3.2743
X3.4667 Y3.2775
X3.4663 Y3.2779
X3.4623 Y3.2812
X3.4618 Y3.2816
X3.458 Y3.2851
X3.4575 Y3.2855
X3.4538 Y3.2891
X3.4533 Y3.2895
X3.4498 Y3.2932
X3.4493 Y3.2937
X3.4459 Y3.2974
X3.4454 Y3.298
X3.4422 Y3.3018
X3.4418 Y3.3024
X3.4387 Y3.3063
X3.4383 Y3.3069
X3.4354 Y3.3108
X3.435 Y3.3116
X3.4324 Y3.3155
X3.4319 Y3.3163
X3.4296 Y3.3203
X3.4291 Y3.3212
X3.4271 Y3.3252
X3.4266 Y3.3262
X3.4248 Y3.3303
X3.4244 Y3.3314
X3.4229 Y3.3354
X3.4225 Y3.3365
X3.4213 Y3.3405
X3.421 Y3.3416
X3.42 Y3.3457
X3.4198 Y3.3468
X3.4191 Y3.3509
X3.4189 Y3.3521
X3.4185 Y3.3562
X3.4184 Y3.3574
X3.4182 Y3.3615
Y3.3627
Y3.3668
X3.4183 Y3.368
X3.4186 Y3.3722
X3.4187 Y3.3733
X3.4193 Y3.3775
X3.4195 Y3.3786
X3.4203 Y3.3828
X3.4206 Y3.3839
X3.4217 Y3.3881
X3.422 Y3.3892
X3.4234 Y3.3933
X3.4238 Y3.3943
X3.4254 Y3.3985
X3.4258 Y3.3995
X3.4277 Y3.4036
X3.4281 Y3.4045
X3.4303 Y3.4087
X3.4308 Y3.4095
X3.4332 Y3.4137
X3.4337 Y3.4145
X3.4364 Y3.4186
X3.4369 Y3.4193
X3.4399 Y3.4234
X3.4404 Y3.4241
X3.4437 Y3.4282
X3.4442 Y3.4288
X3.4477 Y3.4329
X3.4482 Y3.4335
X3.452 Y3.4375
X3.4525 Y3.438
X3.4566 Y3.4421
X3.4571 Y3.4425
X3.4615 Y3.4465
X3.462 Y3.447
X3.4666 Y3.4509
X3.4671 Y3.4513
X3.4721 Y3.4552
X3.4725 Y3.4556
X3.4777 Y3.4594
X3.4782 Y3.4597
X3.4836 Y3.4636
X3.484 Y3.4638
X3.4897 Y3.4676
X3.49 Y3.4678
X3.4959 Y3.4715
X3.4962 Y3.4717
X3.5022 Y3.4754
X3.5024 Y3.4755
X3.5086 Y3.4792
X3.5088 Y3.4793
X3.5151 Y3.4829
X3.5153 Y3.483
X3.5217 Y3.4866
X3.5219 Y3.4867
X3.5283 Y3.4902
X3.5284
X3.535 Y3.4937
Y3.4938
X3.5416 Y3.4973
X3.5482 Y3.5008
X3.5547 Y3.5042
X3.5611 Y3.5076
X3.5675 Y3.511
X3.5737 Y3.5144
X3.5797 Y3.5177
X3.5856 Y3.521
X3.5912 Y3.5243
X3.5966 Y3.5276
X3.6018 Y3.5308
X3.6066 Y3.5341
X3.6112 Y3.5373
X3.6154 Y3.5404
X3.6193 Y3.5436
X3.6229 Y3.5467
X3.6264 Y3.5499
X3.6297 Y3.5532
X3.6329 Y3.5565
X3.636 Y3.5599
X3.6391 Y3.5635
X3.6421 Y3.5672
X3.6452 Y3.571
X3.6484 Y3.575
X3.6517 Y3.5793
X3.6551 Y3.5837
X3.6587 Y3.5883
X3.6588 Y3.5884
X3.6625 Y3.5932
X3.6626 Y3.5933
X3.6665 Y3.5982
X3.6666 Y3.5984
X3.6708 Y3.6036
X3.671 Y3.6037
X3.6754 Y3.6092
X3.6756 Y3.6093
X3.6804 Y3.615
X3.6806 Y3.6152
X3.6857 Y3.6211
X3.6859 Y3.6213
X3.6914 Y3.6275
X3.6916 Y3.6277
X3.6976 Y3.6342
X3.6978 Y3.6344
X3.7043 Y3.6411
X3.7045 Y3.6413
X3.7114 Y3.6484
X3.7116 Y3.6486
X3.7191 Y3.656
X3.7193 Y3.6562
X3.7273 Y3.6638
X3.7275 Y3.664
X3.7361 Y3.672
X3.7363 Y3.6721
X3.7453 Y3.6803
X3.7455 Y3.6805
X3.755 Y3.6888
X3.7552 Y3.689
X3.7652 Y3.6975
X3.7654 Y3.6977
X3.7758 Y3.7063
X3.776 Y3.7064
X3.7868 Y3.7151
X3.787 Y3.7153
X3.7982 Y3.724
X3.7985 Y3.7242
X3.8101 Y3.7329
X3.8103 Y3.7331
X3.8223 Y3.7418
X3.8225 Y3.742
X3.8348 Y3.7506
X3.8351 Y3.7508
X3.8477 Y3.7593
X3.848 Y3.7595
X3.861 Y3.7678
X3.8613 Y3.768
X3.8745 Y3.7762
X3.8749 Y3.7764
X3.8884 Y3.7844
X3.8887 Y3.7846
X3.9025 Y3.7923
X3.9029 Y3.7925
X3.9168 Y3.8
X3.9173 Y3.8002
X3.9315 Y3.8073
X3.9319 Y3.8075
X3.9463 Y3.8143
X3.9468 Y3.8145
X3.9614 Y3.8209
X3.9619 Y3.8211
X3.9766 Y3.827
X3.9772 Y3.8272
X3.992 Y3.8327
X3.9926 Y3.8329
X4.0076 Y3.8378
X4.0082 Y3.838
X4.0234 Y3.8425
X4.024 Y3.8426
X4.0393 Y3.8465
X4.0398 Y3.8467
X4.0552 Y3.8501
X4.0557 Y3.8503
X4.0712 Y3.8532
X4.0717 Y3.8533
X4.0873 Y3.8559
X4.0878 Y3.856
X4.1034 Y3.8581
X4.1038 Y3.8582
X4.1195 Y3.86
X4.1199
X4.1356 Y3.8614
X4.136
X4.1518 Y3.8625
X4.1521
X4.1678 Y3.8633
X4.1682
X4.1839 Y3.8638
X4.1842
X4.1999 Y3.864
X4.2002
X4.2158
X4.2161
X4.2317 Y3.8637
X4.2319
X4.2474 Y3.8633
X4.2476
X4.2631 Y3.8626
X4.2633
X4.2786 Y3.8619
X4.2787
X4.2939 Y3.861
X4.2941
X4.3091 Y3.86
X4.3092
X4.3242 Y3.8589
X4.339 Y3.8578
X4.3537 Y3.8567
X4.368 Y3.8556
X4.3822 Y3.8544
X4.3961 Y3.8534
X4.4098 Y3.8523
X4.4233 Y3.8513
X4.4365 Y3.8503
X4.4494 Y3.8494
X4.4621 Y3.8484
X4.4622
X4.4746 Y3.8474
X4.4747
X4.4868 Y3.8464
X4.4869
X4.4988 Y3.8453
X4.5105 Y3.8442
X4.5106
X4.5219 Y3.8431
X4.5221
X4.5331 Y3.8419
X4.5332
X4.544 Y3.8407
X4.5442
X4.5546 Y3.8393
X4.5549
X4.565 Y3.8379
X4.5653
X4.5751 Y3.8364
X4.5754
X4.585 Y3.8348
X4.5853 Y3.8347
X4.5946 Y3.833
X4.5949
X4.6039 Y3.8312
X4.6043 Y3.8311
X4.613 Y3.8292
X4.6134 Y3.8291
X4.6217 Y3.827
X4.6222 Y3.8269
X4.6302 Y3.8246
X4.6307 Y3.8245
X4.6385 Y3.8221
X4.6391 Y3.8219
X4.6464 Y3.8194
X4.647 Y3.8192
X4.6541 Y3.8165
X4.6547 Y3.8162
X4.6615 Y3.8133
X4.6621 Y3.8131
X4.6685 Y3.81
X4.6692 Y3.8097
X4.6753 Y3.8066
X4.676 Y3.8062
X4.6818 Y3.803
X4.6824 Y3.8026
X4.6879 Y3.7992
X4.6885 Y3.7988
X4.6936 Y3.7953
X4.6943 Y3.7948
X4.6991 Y3.7913
X4.6998 Y3.7908
X4.7042 Y3.7871
X4.7049 Y3.7866
X4.709 Y3.7829
X4.7097 Y3.7823
X4.7136 Y3.7785
X4.7142 Y3.7779
X4.7177 Y3.7741
X4.7182 Y3.7735
X4.7215 Y3.7697
X4.7222 Y3.7687
X4.7251 Y3.7649
X4.7256 Y3.7641
X4.7281 Y3.7603
X4.7287 Y3.7594
X4.731 Y3.7556
X4.7315 Y3.7546
X4.7334 Y3.7508
X4.734 Y3.7496
X4.7356 Y3.7459
X4.736 Y3.7447
X4.7373 Y3.741
X4.7378 Y3.7396
X4.7387 Y3.736
X4.7391 Y3.7345
X4.7397 Y3.7309
X4.74 Y3.7294
X4.7403 Y3.7259
X4.7404 Y3.7244
X4.7405 Y3.721
X4.7404 Y3.7192
X4.7402 Y3.7159
X4.74 Y3.7141
X4.7395 Y3.7113
X4.7393 Y3.7103
X4.7387 Y3.7075
X4.7383 Y3.706
X4.7374 Y3.7033
X4.7369 Y3.7019
X4.7358 Y3.6992
X4.7353 Y3.6981
X4.734 Y3.6954
X4.7334 Y3.6943
X4.7319 Y3.6917
X4.7311 Y3.6904
X4.7294 Y3.6878
X4.7287 Y3.6869
X4.7268 Y3.6843
X4.7261 Y3.6835
X4.7239 Y3.681
X4.7233 Y3.6803
X4.7209 Y3.6778
X4.7202 Y3.6771
X4.7176 Y3.6747
X4.7168 Y3.674
X4.714 Y3.6717
X4.7134 Y3.6712
X4.7104 Y3.6689
X4.7097 Y3.6684
X4.7065 Y3.6662
X4.7058 Y3.6657
X4.7025 Y3.6636
X4.7018 Y3.6633
X4.6983 Y3.6613
X4.6976 Y3.6609
X4.694 Y3.659
X4.6932 Y3.6587
X4.6894 Y3.6569
X4.6887 Y3.6566
X4.6847 Y3.6549
X4.684 Y3.6547
X4.6799 Y3.6531
X4.6792 Y3.6529
X4.6748 Y3.6515
X4.6742 Y3.6513
X4.6698 Y3.65
X4.6691 Y3.6498
X4.6645 Y3.6487
X4.6638 Y3.6485
X4.659 Y3.6475
X4.6584 Y3.6474
X4.6535 Y3.6465
X4.6529 Y3.6464
X4.6479 Y3.6457
X4.6472
X4.6421 Y3.6451
X4.6414
X4.6362 Y3.6447
X4.6355
X4.6292 Y3.6445
X4.6285
X4.6221
X4.6215 Y3.6446
X4.615 Y3.6448
X4.6145
X4.6078 Y3.6452
X4.6074
X4.6007 Y3.6458
X4.6003
X4.5935 Y3.6466
X4.5932
X4.5864 Y3.6474
X4.5862
X4.5794 Y3.6483
X4.5792 Y3.6484
X4.5724 Y3.6494
X4.5722
X4.5655 Y3.6504
X4.5654
X4.5588 Y3.6515
X4.5587
X4.5522 Y3.6526
X4.5521
X4.5457 Y3.6537
X4.5396 Y3.6547
X4.5336 Y3.6557
X4.5279 Y3.6566
X4.5225 Y3.6574
X4.5176 Y3.6581
X4.5131 Y3.6586
X4.509 Y3.6589
X4.5054 Y3.659
X4.5023 Y3.6589
X4.4996 Y3.6586
X4.4975 Y3.6581
X4.4966 Y3.6578
X4.4959 Y3.6574
X4.4955 Y3.6571
X4.4953 Y3.6569
X4.4952 Y3.6567
X4.4951 Y3.656
Y3.6554
Y3.6546
X4.4954 Y3.6533
X4.4959 Y3.6515
X4.4966 Y3.6494
X4.4977 Y3.6469
X4.4988 Y3.6444
X4.5002 Y3.6418
X4.5018 Y3.6389
X4.5035 Y3.636
X4.5053 Y3.633
X4.5073 Y3.6299
X4.5095 Y3.6266
X4.5118 Y3.6234
X4.5141 Y3.6201
X4.5167 Y3.6167
X4.5193 Y3.6132
X4.522 Y3.6097
X4.5248 Y3.6062
X4.5276 Y3.6026
X4.5305 Y3.599
X4.5334 Y3.5954
X4.5364 Y3.5918
X4.5394 Y3.5882
X4.5424 Y3.5847
X4.5453 Y3.5813
X4.5484 Y3.5778
X4.5515 Y3.5743
X4.5546 Y3.571
X4.5577 Y3.5678
X4.5609 Y3.5645
X4.5641 Y3.5615
X4.5672 Y3.5585
X4.5704 Y3.5557
X4.5736 Y3.553
X4.5768 Y3.5505
X4.58 Y3.5481
X4.5832 Y3.5459
X4.5864 Y3.5438
X4.5895 Y3.542
X4.5927 Y3.5403
X4.5959 Y3.5388
X4.599 Y3.5376
X4.6021 Y3.5365
X4.6052 Y3.5356
X4.6083 Y3.535
X4.6114 Y3.5345
X4.6146 Y3.5343
X4.6177 Y3.5342
X4.6215 Y3.5344
X4.6252 Y3.535
X4.6291 Y3.5358
X4.6332 Y3.5369
X4.6374 Y3.5384
X4.6417 Y3.5401
X4.6461 Y3.5421
X4.6506 Y3.5443
X4.6552 Y3.5468
X4.6599 Y3.5495
X4.6647 Y3.5525
X4.6696 Y3.5556
X4.6747 Y3.559
X4.6798 Y3.5626
X4.685 Y3.5663
X4.6904 Y3.5702
X4.6959 Y3.5743
X4.7015 Y3.5784
X4.7072 Y3.5826
X4.7073 Y3.5827
X4.7131 Y3.587
X4.719 Y3.5914
X4.7192 Y3.5915
X4.7252 Y3.5958
X4.7254 Y3.5959
X4.7315 Y3.6003
X4.7317 Y3.6004
X4.738 Y3.6048
X4.7382 Y3.6049
X4.7446 Y3.6093
X4.7448 Y3.6094
X4.7514 Y3.6138
X4.7516 Y3.6139
X4.7583 Y3.6183
X4.7585 Y3.6184
X4.7655 Y3.6227
X4.7656 Y3.6228
X4.7727 Y3.6272
X4.773 Y3.6273
X4.7803 Y3.6317
X4.7805 Y3.6318
X4.788 Y3.6361
X4.7882 Y3.6362
X4.7959 Y3.6405
X4.7962 Y3.6407
X4.8042 Y3.645
X4.8044 Y3.6451
X4.8126 Y3.6494
X4.8128 Y3.6495
X4.8213 Y3.6538
X4.8215 Y3.6539
X4.8303 Y3.6582
X4.8305 Y3.6583
X4.8396 Y3.6626
X4.8398 Y3.6627
X4.8491 Y3.6669
X4.8494 Y3.667
X4.8591 Y3.6713
X4.8592 Y3.6714
X4.8692 Y3.6756
X4.8694 Y3.6757
X4.8797 Y3.6799
X4.88 Y3.68
X4.8906 Y3.6842
X4.8908 Y3.6843
X4.9019 Y3.6885
X4.9021 Y3.6886
X4.9135 Y3.6927
X4.9137 Y3.6928
X4.9255 Y3.697
X4.9257 Y3.6971
X4.9379 Y3.7012
X4.9381 Y3.7013
X4.9507 Y3.7054
X4.9509 Y3.7055
X4.9639 Y3.7096
X4.9641 Y3.7097
X4.9777 Y3.7138
X4.9778
X4.9917 Y3.7179
X4.9918 Y3.718
X5.0061 Y3.722
X5.0062 Y3.7221
X5.0208 Y3.7261
X5.0209
X5.0358 Y3.7301
X5.0359 Y3.7302
X5.051 Y3.7341
X5.0511
X5.0664 Y3.738
X5.0666
X5.0821 Y3.7419
X5.0822
X5.0978 Y3.7457
X5.0979
X5.1137 Y3.7494
X5.1295 Y3.7531
X5.1296
X5.1454 Y3.7566
X5.1455 Y3.7567
X5.1613 Y3.7601
X5.1614
X5.1771 Y3.7635
X5.1772
X5.1929 Y3.7668
X5.2085 Y3.77
X5.2239 Y3.7731
X5.224
X5.2391 Y3.776
X5.2392
X5.2541 Y3.7789
X5.2687 Y3.7816
X5.2688
X5.2831 Y3.7842
X5.2832
X5.2971 Y3.7866
X5.2972
X5.3107 Y3.7889
X5.3108
X5.3238 Y3.791
X5.324
X5.3366 Y3.793
X5.3367
X5.3487 Y3.7948
X5.3489 Y3.7949
X5.3605 Y3.7965
X5.3606 Y3.7966
X5.3719 Y3.7981
X5.372
X5.3827 Y3.7995
X5.3828
X5.3932 Y3.8008
X5.3933
X5.4031 Y3.802
X5.4033
X5.4127 Y3.8031
X5.4128
X5.4219 Y3.804
X5.422
X5.4306 Y3.8049
X5.4307
X5.439 Y3.8056
X5.4391
X5.4469 Y3.8063
X5.4471
X5.4545 Y3.8069
X5.4546
X5.4617 Y3.8074
X5.4618
X5.4685 Y3.8079
X5.4686
X5.475 Y3.8082
X5.4751
X5.4811 Y3.8086
X5.4812
X5.4868 Y3.8088
X5.4869
X5.4923 Y3.8091
X5.4973 Y3.8093
X5.4974
X5.502 Y3.8094
X5.5021
X5.5065 Y3.8095
X5.5105 Y3.8096
X5.5143 Y3.8097
X5.5173 Y3.8098
X5.52 Y3.8099
X5.5226
X5.525 Y3.81
X5.5251
X5.5272
X5.5273
X5.5292 Y3.8101
X5.5293
X5.5311
X5.5328
X5.5329
X5.5343
X5.5344
X5.5358
X5.536
X5.5372
X5.5375
X5.5386
X5.5388
X5.5398 Y3.81
X5.5404
X5.5413 Y3.8099
X5.5418
X5.5426 Y3.8098
X5.5432 Y3.8097
X5.544 Y3.8096
X5.5446 Y3.8095
X5.5454 Y3.8094
X5.5462 Y3.8093
X5.5469 Y3.8091
X5.5474 Y3.809
X5.5481 Y3.8088
X5.5491 Y3.8086
X5.5498 Y3.8084
X5.5502 Y3.8083
X5.5509 Y3.808
X5.5516 Y3.8078
X5.5523 Y3.8075
X5.5525
X5.5533 Y3.8072
X5.5537 Y3.807
X5.5545 Y3.8067
X5.5554 Y3.8064
X5.5556 Y3.8063
X5.5566 Y3.8059
X5.5568 Y3.8058
X5.5578 Y3.8054
X5.559 Y3.805
X5.5591 Y3.8049
X5.5607 Y3.8043
X5.5624 Y3.8036
X5.5625
X5.5644 Y3.8028
X5.5663 Y3.802
X5.5664
X5.5685 Y3.8012
X5.5707 Y3.8003
X5.5729 Y3.7994
X5.573 Y3.7993
X5.5753 Y3.7984
X5.5776 Y3.7974
X5.5778 Y3.7973
X5.5801 Y3.7963
X5.5825 Y3.7953
X5.5827 Y3.7952
X5.5851 Y3.7941
X5.5875 Y3.7931
X5.5877 Y3.793
X5.5901 Y3.7919
X5.5902 Y3.7918
X5.5926 Y3.7907
X5.5929 Y3.7906
X5.5952 Y3.7894
X5.5975 Y3.7883
X5.5978 Y3.7882
X5.6001 Y3.787
X5.6004 Y3.7869
X5.6026 Y3.7857
X5.6048 Y3.7845
X5.6053 Y3.7843
X5.6073 Y3.7831
X5.6076 Y3.7829
X5.6096 Y3.7818
X5.6099 Y3.7816
X5.6118 Y3.7804
X5.6122 Y3.7801
X5.6141 Y3.779
X5.6143 Y3.7788
X5.6161 Y3.7776
X5.6165 Y3.7773
X5.6181 Y3.7761
X5.6185 Y3.7759
X5.62 Y3.7747
X5.6203 Y3.7745
X5.6218 Y3.7733
X5.6224 Y3.7729
X5.6237 Y3.7717
X5.6239 Y3.7715
X5.6252 Y3.7704
X5.6259 Y3.7698
X5.6271 Y3.7686
X5.6273 Y3.7684
X5.6285 Y3.7672
X5.629 Y3.7667
X5.6301 Y3.7655
X5.6303 Y3.7652
X5.6314 Y3.764
X5.6319 Y3.7634
X5.6328 Y3.7622
X5.6332 Y3.7618
X5.6341 Y3.7606
X5.6346 Y3.7598
X5.6354 Y3.7586
X5.6358 Y3.7581
X5.6365 Y3.7569
X5.6368 Y3.7564
X5.6376 Y3.7551
X5.6379 Y3.7546
X5.6386 Y3.7533
X5.6387 Y3.7532
X5.6394 Y3.7519
X5.6399 Y3.7509
X5.6405 Y3.7496
X5.6406 Y3.7494
X5.6412 Y3.748
X5.6414 Y3.7475
X5.642 Y3.7461
X5.6421 Y3.7459
X5.6427 Y3.7444
X5.6429 Y3.7439
X5.6434 Y3.7424
X5.6435 Y3.7422
X5.6441 Y3.7407
Y3.7405
X5.6447 Y3.739
X5.6452 Y3.7374
X5.6455 Y3.7367
X5.6459 Y3.7351
X5.646 Y3.7348
X5.6465 Y3.7332
X5.6467 Y3.7324
X5.647 Y3.7309
X5.6471 Y3.7305
X5.6474 Y3.7291
X5.6476 Y3.7281
X5.6478 Y3.7267
X5.6479 Y3.7262
X5.6481 Y3.7248
X5.6482 Y3.7233
X5.6483 Y3.7219
Y3.7213
X5.6484 Y3.7199
Y3.7184
X5.6483 Y3.7169
X5.6482 Y3.716
X5.6481 Y3.7144
X5.6479 Y3.7131
X5.6476 Y3.7116
X5.6473 Y3.7103
X5.6469 Y3.7087
X5.6465 Y3.7073
X5.646 Y3.7056
X5.6455 Y3.7044
X5.6448 Y3.7027
X5.6443 Y3.7016
X5.6435 Y3.6999
X5.6427 Y3.6985
X5.6416 Y3.6966
X5.641 Y3.6958
X5.6397 Y3.6938
X5.6391 Y3.6929
X5.6375 Y3.6909
X5.637 Y3.6902
X5.6352 Y3.6881
X5.6346 Y3.6874
X5.6325 Y3.6853
X5.632 Y3.6847
X5.6297 Y3.6824
X5.6291 Y3.6819
X5.6265 Y3.6795
X5.6261 Y3.6792
X5.6232 Y3.6767
X5.6227 Y3.6762
X5.6194 Y3.6736
X5.6191 Y3.6733
X5.6154 Y3.6706
X5.6152 Y3.6704
X5.6113 Y3.6675
X5.6112 Y3.6674
X5.607 Y3.6644
X5.6027 Y3.6611
X5.5982 Y3.6577
X5.5936 Y3.6542
X5.589 Y3.6505
X5.5843 Y3.6465
X5.5796 Y3.6424
X5.575 Y3.638
X5.5704 Y3.6334
X5.5659 Y3.6285
X5.5615 Y3.6233
X5.5573 Y3.6178
X5.5533 Y3.6119
X5.5494 Y3.6057
X5.5457 Y3.5992
X5.5424 Y3.5923
X5.5393 Y3.585
X5.5365 Y3.5772
X5.5341 Y3.5689
X5.532 Y3.5602
X5.5304 Y3.5508
X5.5292 Y3.541
X5.5285 Y3.5305
X5.5281 Y3.5194
Y3.508
X5.5285 Y3.4961
X5.5293 Y3.4838
X5.5304 Y3.4711
X5.5319 Y3.4581
X5.5337 Y3.4448
X5.5358 Y3.4313
X5.5382 Y3.4176
X5.5408 Y3.4037
X5.5437 Y3.3898
X5.5468 Y3.3757
X5.5502 Y3.3615
X5.5536 Y3.3473
X5.5573 Y3.3332
X5.5612 Y3.319
X5.5651 Y3.305
X5.5692 Y3.2911
X5.5734 Y3.2773
X5.5776 Y3.2637
X5.5819 Y3.2503
X5.5862 Y3.2372
X5.5906 Y3.2243
X5.5949 Y3.2117
X5.5993 Y3.1995
X5.6036 Y3.1874
X5.6079 Y3.1757
X5.6122 Y3.1643
X5.6163 Y3.1531
X5.6204 Y3.1423
X5.6245 Y3.1317
X5.6284 Y3.1213
X5.6322 Y3.1113
X5.636 Y3.1016
X5.6395 Y3.0921
X5.6396 Y3.092
X5.643 Y3.0829
X5.6462 Y3.074
X5.6463 Y3.0738
X5.6494 Y3.0653
Y3.0652
X5.6523 Y3.0569
Y3.0568
X5.655 Y3.0488
X5.6551 Y3.0485
X5.6575 Y3.0409
X5.6576 Y3.0407
X5.6599 Y3.0334
X5.66 Y3.033
X5.6619 Y3.026
X5.6621 Y3.0255
X5.6638 Y3.0188
X5.6639 Y3.0183
X5.6653 Y3.0119
X5.6655 Y3.0113
X5.6666 Y3.0052
X5.6668 Y3.0045
X5.6676 Y2.9987
X5.6677 Y2.998
X5.6684 Y2.9926
Y2.9916
X5.6688 Y2.9864
Y2.9856
X5.6689 Y2.9807
Y2.9796
X5.6687 Y2.975
X5.6686 Y2.9739
X5.6681 Y2.9697
X5.668 Y2.9686
X5.6674 Y2.9646
X5.6671 Y2.9631
X5.6662 Y2.9594
X5.6658 Y2.9581
X5.6647 Y2.9547
X5.6642 Y2.9533
X5.6629 Y2.9501
X5.6623 Y2.9488
X5.6608 Y2.9458
X5.6599 Y2.9444
X5.6582 Y2.9416
X5.6572 Y2.9402
X5.6553 Y2.9376
X5.6543 Y2.9364
X5.6521 Y2.934
X5.6509 Y2.9327
X5.6484 Y2.9305
X5.6472 Y2.9295
X5.6445 Y2.9274
X5.6433 Y2.9265
X5.6404 Y2.9247
X5.639 Y2.9238
X5.6358 Y2.9221
X5.6346 Y2.9215
X5.6311 Y2.9199
X5.63 Y2.9195
X5.6262 Y2.9181
X5.6252 Y2.9177
X5.6211 Y2.9165
X5.6201 Y2.9162
X5.6157 Y2.9151
X5.6149 Y2.9149
X5.6102 Y2.914
X5.6094 Y2.9138
X5.6044 Y2.913
X5.6037 Y2.9129
X5.5983 Y2.9123
X5.5977 Y2.9122
X5.592 Y2.9117
X5.5914
X5.5855 Y2.9113
X5.585
X5.5789 Y2.9111
X5.5785
X5.5721
X5.5717
X5.5651
X5.5649
X5.5581 Y2.9113
X5.5579
X5.551 Y2.9116
X5.5508
X5.5438 Y2.9119
X5.5436
X5.5365 Y2.9123
X5.5364
X5.5291 Y2.9127
X5.5218 Y2.9132
X5.5144 Y2.9137
X5.5071 Y2.9141
X5.4997 Y2.9146
X5.4924 Y2.915
X5.4852 Y2.9153
X5.4781 Y2.9156
X5.4711 Y2.9159
X5.4642 Y2.916
X5.4575
X5.4509
X5.4446 Y2.9157
X5.4385 Y2.9154
X5.4327 Y2.9149
X5.4271 Y2.9142
X5.4218 Y2.9134
X5.4167 Y2.9125
X5.412 Y2.9114
X5.4074 Y2.9101
X5.4032 Y2.9087
X5.3992 Y2.9071
X5.3955 Y2.9054
X5.3922 Y2.9037
X5.3892 Y2.9017
X5.3864 Y2.8996
X5.3838 Y2.8974
X5.3814 Y2.895
X5.3794 Y2.8925
X5.3775 Y2.8899
X5.3758 Y2.887
X5.3743 Y2.8841
X5.3731 Y2.881
X5.3721 Y2.8777
X5.3714 Y2.8742
X5.3709 Y2.8705
X5.3706 Y2.8667
X5.3707 Y2.8625
X5.3711 Y2.858
X5.3717 Y2.8533
X5.3726 Y2.8483
X5.3737 Y2.8431
X5.3751 Y2.8377
X5.3767 Y2.8322
X5.3784 Y2.8265
X5.3804 Y2.8207
X5.3825 Y2.8148
X5.3847 Y2.8089
X5.3871 Y2.8029
X5.3895 Y2.7968
X5.392 Y2.7908
X5.3946 Y2.7847
X5.3971 Y2.7787
X5.3997 Y2.7728
X5.4023 Y2.7669
X5.4048 Y2.7612
Y2.7611
X5.4072 Y2.7555
X5.4073 Y2.7554
X5.4096 Y2.7499
X5.4097 Y2.7498
X5.4119 Y2.7445
X5.412 Y2.7443
X5.4141 Y2.7391
X5.4142 Y2.7389
X5.4161 Y2.734
X5.4162 Y2.7337
X5.418 Y2.729
X5.4181 Y2.7286
X5.4197 Y2.7242
X5.4199 Y2.7236
X5.4212 Y2.7194
X5.4213 Y2.719
X5.4225 Y2.715
X5.4227 Y2.7143
X5.4237 Y2.7105
X5.4238 Y2.71
X5.4246 Y2.7064
X5.4247 Y2.7057
X5.4253 Y2.7023
X5.4255 Y2.7014
X5.4258 Y2.6982
X5.4259 Y2.6974
X5.4262 Y2.6945
Y2.6932
X5.4263 Y2.6905
Y2.6893
X5.4261 Y2.6867
X5.426 Y2.6855
X5.4258 Y2.683
X5.4256 Y2.6821
X5.4252 Y2.6797
X5.4249 Y2.6781
X5.4243 Y2.6758
X5.4239 Y2.6745
X5.4232 Y2.6723
X5.4226 Y2.6708
X5.4217 Y2.6686
X5.421 Y2.6672
X5.4199 Y2.6651
X5.4193 Y2.6641
X5.418 Y2.662
X5.4172 Y2.6608
X5.4157 Y2.6586
X5.4149 Y2.6577
X5.4132 Y2.6555
X5.4126 Y2.6549
X5.4107 Y2.6527
X5.4099 Y2.6519
X5.4077 Y2.6497
X5.4072 Y2.6492
X5.4047 Y2.647
X5.4043 Y2.6466
X5.4016 Y2.6442
X5.4012 Y2.6439
X5.3982 Y2.6414
X5.3978 Y2.6411
X5.3946 Y2.6386
X5.3943 Y2.6384
X5.3908 Y2.6357
X5.3906 Y2.6356
X5.3868 Y2.6328
X5.3829 Y2.63
X5.3788 Y2.6271
X5.3748 Y2.6242
X5.3708 Y2.6211
X5.3668 Y2.6181
X5.3628 Y2.6149
X5.359 Y2.6118
X5.3554 Y2.6085
X5.3519 Y2.6052
X5.3486 Y2.6018
X5.3457 Y2.5984
X5.3429 Y2.5948
X5.3404 Y2.5912
X5.3383 Y2.5876
X5.3365 Y2.5839
X5.3351 Y2.5801
X5.334 Y2.5763
X5.3334 Y2.5725
X5.3331 Y2.5685
X5.3332 Y2.5644
X5.3339 Y2.5601
X5.335 Y2.5553
X5.3367 Y2.5502
X5.3389 Y2.5449
X5.3416 Y2.5394
X5.3447 Y2.5336
X5.3482 Y2.5277
X5.3521 Y2.5216
X5.3564 Y2.5153
X5.3609 Y2.5089
X5.3655 Y2.5024
X5.3705 Y2.4957
X5.3754 Y2.489
X5.3805 Y2.4823
X5.3856 Y2.4755
X5.3907 Y2.4687
X5.3908
X5.3958 Y2.462
X5.3959 Y2.4619
X5.4007 Y2.4552
X5.4009 Y2.455
X5.4056 Y2.4484
X5.4057 Y2.4482
X5.4102 Y2.4418
X5.4104 Y2.4414
X5.4146 Y2.4351
X5.4149 Y2.4346
X5.4188 Y2.4284
X5.4191 Y2.4279
X5.4227 Y2.4218
X5.423 Y2.4212
X5.4262 Y2.4152
X5.4265 Y2.4145
X5.4293 Y2.4088
X5.4297 Y2.4077
X5.432 Y2.4022
X5.4324 Y2.4012
X5.4342 Y2.3958
X5.4345 Y2.3947
X5.4359 Y2.3896
X5.4362 Y2.3883
X5.4371 Y2.3835
X5.4374 Y2.3821
X5.4379 Y2.3775
X5.438 Y2.3759
X5.4382 Y2.3716
Y2.3697
X5.4379 Y2.3656
X5.4377 Y2.3638
X5.437 Y2.36
X5.4366 Y2.358
X5.4356 Y2.3544
X5.4349 Y2.3524
X5.4336 Y2.3491
X5.4326 Y2.347
X5.4309 Y2.3439
X5.4297 Y2.3421
X5.4277 Y2.3393
X5.4261 Y2.3375
X5.4237 Y2.3349
X5.422 Y2.3333
X5.419 Y2.3309
X5.4174 Y2.3297
X5.414 Y2.3275
X5.4122 Y2.3265
X5.4084 Y2.3245
X5.4067 Y2.3238
X5.4024 Y2.3221
X5.4007 Y2.3216
X5.3959 Y2.3202
X5.3944 Y2.3198
X5.389 Y2.3188
X5.3876 Y2.3186
X5.3817 Y2.3179
X5.3805 Y2.3177
X5.374 Y2.3174
X5.3729
X5.3658 Y2.3175
X5.3648
X5.3571 Y2.318
X5.3562 Y2.3181
X5.348 Y2.319
X5.3472 Y2.3191
X5.3383 Y2.3206
X5.3376 Y2.3207
X5.3283 Y2.3226
X5.3277 Y2.3227
X5.3178 Y2.325
X5.3173 Y2.3252
X5.307 Y2.3279
X5.3066 Y2.328
X5.2959 Y2.3311
X5.2955 Y2.3312
X5.2845 Y2.3347
X5.2842 Y2.3348
X5.2729 Y2.3385
X5.2727 Y2.3386
X5.261 Y2.3426
X5.2608 Y2.3427
X5.249 Y2.347
X5.2488 Y2.3471
X5.2368 Y2.3516
X5.2366 Y2.3517
X5.2245 Y2.3563
X5.2243 Y2.3564
X5.2121 Y2.3613
X5.212
X5.1996 Y2.3663
X5.1872 Y2.3714
X5.1871
X5.1747 Y2.3766
X5.1746
X5.1623 Y2.3818
X5.1501 Y2.3869
X5.15 Y2.387
X5.1379 Y2.3921
X5.126 Y2.3972
X5.1143 Y2.4022
X5.1028 Y2.407
X5.0917 Y2.4117
X5.0809 Y2.4162
X5.0704 Y2.4204
X5.0604 Y2.4244
X5.0508 Y2.4282
X5.0416 Y2.4318
X5.0327 Y2.4352
X5.0242 Y2.4384
X5.016 Y2.4414
X5.0082 Y2.4444
X5.0007 Y2.4472
X5.0006
X4.9934 Y2.4499
X4.9865 Y2.4525
X4.9864 Y2.4526
X4.9798 Y2.4551
X4.9796 Y2.4552
X4.9733 Y2.4577
X4.9731 Y2.4578
X4.9671 Y2.4602
X4.9668 Y2.4603
X4.9611 Y2.4628
X4.9608 Y2.4629
X4.9553 Y2.4654
X4.955 Y2.4655
X4.9497 Y2.468
X4.9492 Y2.4683
X4.9442 Y2.4708
X4.9437 Y2.471
X4.9389 Y2.4736
X4.9384 Y2.4739
X4.9337 Y2.4766
X4.9332 Y2.4769
X4.9287 Y2.4797
X4.9281 Y2.4801
X4.9238 Y2.483
X4.9232 Y2.4835
X4.9191 Y2.4865
X4.9184 Y2.487
X4.9144 Y2.4902
X4.9138 Y2.4907
X4.91 Y2.4941
X4.9094 Y2.4947
X4.9056 Y2.4983
X4.9051 Y2.4988
X4.9014 Y2.5026
X4.9011 Y2.503
X4.8974 Y2.507
X4.897 Y2.5075
X4.8934 Y2.5117
X4.8932 Y2.5119
X4.8896 Y2.5163
X4.8894 Y2.5165
X4.8859 Y2.521
X4.8858 Y2.5211
X4.8822 Y2.5257
X4.8821 Y2.5259
X4.8786 Y2.5305
X4.8784 Y2.5307
X4.875 Y2.5353
X4.8749 Y2.5354
X4.8715 Y2.5401
X4.8681 Y2.5447
X4.8647 Y2.5493
X4.8613 Y2.5536
X4.858 Y2.5578
X4.8546 Y2.5618
X4.8513 Y2.5656
X4.848 Y2.569
X4.8446 Y2.5723
X4.8413 Y2.5751
X4.8379 Y2.5777
X4.8346 Y2.58
X4.8312 Y2.5819
X4.8278 Y2.5835
X4.8243 Y2.5847
X4.8208 Y2.5857
X4.8172 Y2.5863
X4.8135 Y2.5866
X4.8095
X4.8055 Y2.5864
X4.8012 Y2.5859
X4.7968 Y2.5852
X4.7923 Y2.5842
X4.7877 Y2.5831
X4.783 Y2.5818
X4.7782 Y2.5804
X4.7733 Y2.5789
X4.7685 Y2.5774
X4.7637 Y2.5758
X4.7588 Y2.5742
X4.7541 Y2.5726
X4.754 Y2.5725
X4.7494 Y2.571
X4.7492
X4.7446 Y2.5695
X4.7444
X4.74 Y2.5682
X4.7396 Y2.568
X4.7354 Y2.5669
X4.7348 Y2.5668
X4.7307 Y2.5658
X4.73 Y2.5656
X4.7261 Y2.5649
X4.7252 Y2.5647
X4.7215 Y2.5642
X4.7203 Y2.564
X4.7168 Y2.5638
X4.7154 Y2.5637
X4.7121
X4.7107 Y2.5638
X4.7076 Y2.564
X4.7061 Y2.5642
X4.7031 Y2.5646
X4.7019 Y2.5649
X4.6989 Y2.5655
X4.6976 Y2.5659
X4.6947 Y2.5667
X4.6934 Y2.5671
X4.6906 Y2.5682
X4.6895 Y2.5687
X4.6866 Y2.5699
X4.6857 Y2.5704
X4.6829 Y2.5718
X4.6821 Y2.5723
X4.6793 Y2.5739
X4.6786 Y2.5743
X4.6758 Y2.5761
X4.6752 Y2.5765
X4.6725 Y2.5784
X4.6721 Y2.5787
X4.6694 Y2.5808
X4.6689 Y2.5811
X4.6663 Y2.5832
X4.666 Y2.5835
X4.6634 Y2.5857
X4.6631 Y2.5859
X4.6605 Y2.5882
X4.6603 Y2.5883
X4.6577 Y2.5907
X4.6574 Y2.5909
X4.6548 Y2.5933
X4.6522 Y2.5958
X4.6521
X4.6495 Y2.5983
X4.6469 Y2.6007
X4.6444 Y2.603
X4.6418 Y2.6053
X4.6392 Y2.6076
X4.6368 Y2.6096
X4.6344 Y2.6116
X4.632 Y2.6134
X4.6297 Y2.615
X4.6274 Y2.6166
X4.625 Y2.6181
X4.6226 Y2.6195
X4.6202 Y2.6207
X4.6178 Y2.6219
X4.6154 Y2.623
X4.613 Y2.6239
X4.6105 Y2.6248
X4.6081 Y2.6256
X4.6056 Y2.6263
X4.603 Y2.6269
X4.6004 Y2.6274
X4.5978 Y2.6279
X4.5952 Y2.6282
X4.5925 Y2.6285
X4.5898 Y2.6286
X4.5869 Y2.6287
X4.584
X4.5811 Y2.6286
X4.5781 Y2.6284
X4.575 Y2.6281
X4.5719 Y2.6277
X4.5687 Y2.6271
X4.5653 Y2.6265
X4.562 Y2.6259
X4.5585 Y2.6251
X4.5551 Y2.6242
X4.5517 Y2.6232
X4.5482 Y2.6221
X4.5446 Y2.6209
X4.5411 Y2.6196
X4.5376 Y2.6182
X4.5341 Y2.6167
X4.5306 Y2.6152
X4.5271 Y2.6134
X4.5236 Y2.6116
X4.5201 Y2.6097
X4.5166 Y2.6077
X4.5133 Y2.6056
X4.5099 Y2.6033
X4.5066 Y2.601
X4.5033 Y2.5985
X4.5001 Y2.596
X4.4969 Y2.5933
X4.4938 Y2.5905
X4.4908 Y2.5876
X4.4878 Y2.5846
X4.4849 Y2.5815
X4.4821 Y2.5783
X4.4793 Y2.575
X4.4766 Y2.5715
X4.474 Y2.5681
X4.4715 Y2.5644
X4.469 Y2.5606
X4.4666 Y2.5568
X4.4643 Y2.5529
X4.462 Y2.5489
X4.4599 Y2.5448
X4.4578 Y2.5406
X4.4558 Y2.5364
X4.4539 Y2.532
X4.452 Y2.5276
X4.4503 Y2.5232
X4.4486 Y2.5186
X4.447 Y2.514
X4.4455 Y2.5094
X4.4441 Y2.5047
X4.4428 Y2.4999
X4.4416 Y2.4951
X4.4404 Y2.4901
X4.4393 Y2.4852
X4.4383 Y2.4802
X4.4373 Y2.4751
X4.4364 Y2.4701
X4.4355 Y2.4651
X4.4346 Y2.46
X4.4337 Y2.4549
X4.4328 Y2.4499
Y2.4497
X4.4319 Y2.4448
X4.4311 Y2.4399
X4.431 Y2.4397
X4.4301 Y2.435
Y2.4349
X4.4292 Y2.4302
X4.4291 Y2.4298
X4.4281 Y2.4252
Y2.425
X4.4271 Y2.4205
X4.427 Y2.4202
X4.4259 Y2.4159
X4.4258 Y2.4153
X4.4246 Y2.4111
X4.4245 Y2.4108
X4.4233 Y2.4067
X4.4231 Y2.4062
X4.4218 Y2.4023
X4.4215 Y2.4016
X4.4201 Y2.3979
X4.4198 Y2.3971
X4.4183 Y2.3935
X4.4179 Y2.3927
X4.4162 Y2.3894
X4.4157 Y2.3885
X4.414 Y2.3853
X4.4134 Y2.3844
X4.4115 Y2.3815
X4.4107 Y2.3803
X4.4086 Y2.3775
X4.4078 Y2.3765
X4.4055 Y2.3739
X4.4048 Y2.3731
X4.4024 Y2.3706
X4.4015 Y2.3698
X4.3989 Y2.3674
X4.3982 Y2.3669
X4.3955 Y2.3646
X4.3947 Y2.364
X4.3917 Y2.3618
X4.3911 Y2.3613
X4.388 Y2.3593
X4.3873 Y2.3588
X4.384 Y2.3568
X4.3835 Y2.3565
X4.3802 Y2.3546
X4.3796 Y2.3543
X4.3761 Y2.3525
X4.3756 Y2.3522
X4.372 Y2.3505
X4.3715 Y2.3503
X4.3678 Y2.3486
X4.3674 Y2.3484
X4.3636 Y2.3468
X4.3632 Y2.3466
X4.3593 Y2.345
X4.359 Y2.3449
X4.3549 Y2.3433
X4.3547
X4.3506 Y2.3418
X4.3504 Y2.3417
X4.3462 Y2.3402
X4.346 Y2.3401
X4.3418 Y2.3387
X4.3416 Y2.3386
X4.3373 Y2.3372
X4.3372 Y2.3371
X4.3328 Y2.3357
X4.3284 Y2.3342
X4.3283
X4.3238 Y2.3328
X4.3194 Y2.3313
X4.3149 Y2.3298
X4.3104 Y2.3284
X4.306 Y2.3268
X4.3016 Y2.3253
X4.2973 Y2.3238
X4.293 Y2.3222
X4.2887 Y2.3206
X4.2845 Y2.319
X4.2804 Y2.3173
X4.2762 Y2.3156
X4.2722 Y2.3138
X4.2682 Y2.3121
X4.2643 Y2.3103
X4.2605 Y2.3084
X4.2568 Y2.3065
X4.2531 Y2.3046
X4.2495 Y2.3027
X4.2461 Y2.3007
X4.2427 Y2.2986
X4.2395 Y2.2966
X4.2364 Y2.2945
X4.2333 Y2.2923
X4.2304 Y2.2902
X4.2277 Y2.288
X4.2249 Y2.2857
X4.2224 Y2.2834
X4.2199 Y2.2811
X4.2176 Y2.2787
X4.2153 Y2.2762
X4.2131 Y2.2738
X4.211 Y2.2714
X4.2089 Y2.2688
X4.2069 Y2.2664
X4.205 Y2.2639
X4.2031 Y2.2614
X4.2012 Y2.2589
X4.1995 Y2.2565
X4.1994 Y2.2563
X4.1976 Y2.2538
X4.1959 Y2.2515
X4.1943 Y2.2492
X4.1941 Y2.2489
X4.1924 Y2.2466
X4.1923 Y2.2465
X4.1907 Y2.2443
X4.1906 Y2.2441
X4.1889 Y2.242
X4.1887 Y2.2416
X4.1871 Y2.2396
X4.1867 Y2.2392
X4.1851 Y2.2373
X4.1849 Y2.237
X4.1833 Y2.2352
X4.1828 Y2.2347
X4.1813 Y2.233
X4.1806 Y2.2323
X4.179 Y2.2308
X4.1783 Y2.2301
X4.1767 Y2.2287
X4.1758 Y2.2281
X4.1742 Y2.2268
X4.1735 Y2.2263
X4.1718 Y2.2251
X4.171 Y2.2246
X4.1693 Y2.2235
X4.1685 Y2.223
X4.1667 Y2.222
X4.1659 Y2.2215
X4.1641 Y2.2206
X4.1632 Y2.2202
X4.1613 Y2.2194
X4.1604 Y2.219
X4.1585 Y2.2183
X4.1575 Y2.218
X4.1556 Y2.2174
X4.1545 Y2.2171
X4.1525 Y2.2166
X4.1516 Y2.2164
X4.1496 Y2.216
X4.1486 Y2.2159
X4.1465 Y2.2156
X4.1455 Y2.2155
X4.1434 Y2.2153
X4.1424
X4.1403 Y2.2152
X4.1393
X4.1371 Y2.2153
X4.1362
X4.134 Y2.2155
X4.133 Y2.2156
X4.1308 Y2.2158
X4.1299 Y2.216
X4.1276 Y2.2164
X4.1267 Y2.2166
X4.1244 Y2.2171
X4.1236 Y2.2173
X4.1213 Y2.2179
X4.1204 Y2.2182
X4.118 Y2.219
X4.1174 Y2.2192
X4.115 Y2.2201
X4.1142 Y2.2204
X4.1117 Y2.2214
X4.1111 Y2.2217
X4.1086 Y2.2228
X4.108 Y2.2231
X4.1055 Y2.2244
X4.1048 Y2.2248
X4.1023 Y2.2262
X4.1017 Y2.2266
X4.0991 Y2.2281
X4.0985 Y2.2285
X4.0959 Y2.2302
X4.0956 Y2.2304
X4.0929 Y2.2323
X4.0925 Y2.2325
X4.0898 Y2.2345
X4.0895 Y2.2347
X4.0867 Y2.2368
X4.0866 Y2.2369
X4.0837 Y2.2391
X4.0835 Y2.2392
X4.0806 Y2.2415
X4.0805 Y2.2416
X4.0775 Y2.2439
X4.0745 Y2.2463
X4.0744 Y2.2464
X4.0713 Y2.2488
X4.0682 Y2.2513
X4.065 Y2.2537
X4.0618 Y2.2562
X4.0586 Y2.2587
X4.0553 Y2.2611
X4.0519 Y2.2635
X4.0486 Y2.2658
X4.0451 Y2.2681
X4.0416 Y2.2703
X4.0381 Y2.2724
X4.0345 Y2.2745
X4.0309 Y2.2764
X4.0272 Y2.2783
X4.0234 Y2.28
X4.0196 Y2.2817
X4.0157 Y2.2832
X4.0117 Y2.2846
X4.0078 Y2.2859
X4.0037 Y2.2871
X3.9997 Y2.2882
X3.9956 Y2.2892
X3.9915 Y2.29
X3.9874 Y2.2907
X3.9834 Y2.2913
X3.9793 Y2.2917
X3.9752 Y2.2921
X3.9712 Y2.2922
X3.9673 Y2.2923
X3.9634 Y2.2922
X3.9595 Y2.292
X3.9557 Y2.2917
X3.952 Y2.2912
X3.9484 Y2.2906
X3.9448 Y2.2899
X3.9414 Y2.2891
X3.9381 Y2.2881
X3.9348 Y2.287
X3.9317 Y2.2858
X3.9287 Y2.2844
X3.9258 Y2.2829
X3.9229 Y2.2813
X3.92 Y2.2796
X3.9172 Y2.2779
X3.9144 Y2.276
X3.9117 Y2.2741
X3.9091 Y2.2721
X3.9065 Y2.2701
X3.9039 Y2.2681
X3.9014 Y2.2661
X3.8989 Y2.264
X3.8965 Y2.2619
X3.894 Y2.2599
X3.8916 Y2.2579
X3.8915 Y2.2578
X3.8892 Y2.2559
X3.889 Y2.2558
X3.8868 Y2.254
X3.8865 Y2.2537
X3.8843 Y2.2521
X3.884 Y2.2518
X3.8818 Y2.2502
X3.8813 Y2.2499
X3.8793 Y2.2485
X3.8786 Y2.248
X3.8765 Y2.2468
X3.8757 Y2.2463
X3.8737 Y2.2452
X3.8726 Y2.2446
X3.8707 Y2.2437
X3.8695 Y2.2432
X3.8675 Y2.2424
X3.8664 Y2.242
X3.8644 Y2.2414
X3.8633 Y2.2411
X3.8612 Y2.2406
X3.8601 Y2.2404
X3.8581 Y2.24
X3.8569 Y2.2398
X3.8548 Y2.2396
X3.8538 Y2.2395
X3.8517 Y2.2393
X3.8506
X3.8485
X3.8474
X3.8453 Y2.2394
X3.8443 Y2.2395
X3.8421 Y2.2397
X3.8412 Y2.2398
X3.839 Y2.2402
X3.8381 Y2.2403
X3.8359 Y2.2408
X3.835 Y2.241
X3.8328 Y2.2415
X3.832 Y2.2418
X3.8298 Y2.2424
X3.829 Y2.2427
X3.8268 Y2.2435
X3.826 Y2.2438
X3.8238 Y2.2446
X3.8231 Y2.2449
X3.8209 Y2.2459
X3.8202 Y2.2463
X3.818 Y2.2473
X3.8174 Y2.2477
X3.8152 Y2.2489
X3.8146 Y2.2492
X3.8124 Y2.2505
X3.8119 Y2.2509
X3.8097 Y2.2523
X3.8091 Y2.2526
X3.807 Y2.2541
X3.8065 Y2.2545
X3.8043 Y2.2561
X3.8039 Y2.2564
X3.8017 Y2.2581
X3.8013 Y2.2585
X3.7992 Y2.2603
X3.7987 Y2.2607
X3.7966 Y2.2626
X3.7962 Y2.2629
X3.7942 Y2.2649
X3.7938 Y2.2653
X3.7918 Y2.2673
X3.7915 Y2.2676
X3.7895 Y2.2698
X3.7892 Y2.2701
X3.7872 Y2.2723
X3.787 Y2.2726
X3.785 Y2.2749
X3.7848 Y2.2751
X3.7828 Y2.2775
X3.7826 Y2.2777
X3.7806 Y2.2802
X3.7805 Y2.2803
X3.7785 Y2.2828
X3.7784 Y2.283
X3.7763 Y2.2856
X3.7762 Y2.2857
X3.7742 Y2.2883
X3.7741 Y2.2884
X3.772 Y2.2912
X3.7699 Y2.294
X3.7677 Y2.2968
X3.7655 Y2.2997
X3.7632 Y2.3026
X3.7609 Y2.3056
X3.7586 Y2.3086
X3.7562 Y2.3115
X3.7537 Y2.3146
X3.7512 Y2.3176
X3.7486 Y2.3207
X3.7459 Y2.3238
X3.7432 Y2.3269
X3.7403 Y2.3301
X3.7374 Y2.3332
X3.7344 Y2.3363
X3.7313 Y2.3394
X3.7282 Y2.3425
X3.7251 Y2.3457
X3.7219 Y2.3488
X3.7186 Y2.352
X3.7153 Y2.3551
X3.712 Y2.3583
X3.7086 Y2.3615
X3.7052 Y2.3648
X3.7017 Y2.368
Y2.3681
X3.6983 Y2.3713
Y2.3714
X3.6948 Y2.3747
X3.6913 Y2.3781
X3.6878 Y2.3815
X3.6877 Y2.3816
X3.6843 Y2.385
X3.6842 Y2.3851
X3.6808 Y2.3885
X3.6807 Y2.3886
X3.6773 Y2.3921
X3.6772 Y2.3922
X3.6738 Y2.3957
X3.6737 Y2.3958
X3.6703 Y2.3994
X3.6702 Y2.3996
X3.6668 Y2.4032
X3.6667 Y2.4034
X3.6634 Y2.407
X3.6632 Y2.4072
X3.66 Y2.4109
X3.6598 Y2.4111
X3.6566 Y2.4149
X3.6565 Y2.4151
X3.6533 Y2.4189
X3.6532 Y2.419
X3.65 Y2.4229
X3.6499 Y2.423
X3.6468 Y2.4269
X3.6467 Y2.4271
X3.6436 Y2.431
X3.6435 Y2.4311
X3.6405 Y2.435
X3.6404 Y2.4351
X3.6375 Y2.439
X3.6374 Y2.4391
X3.6345 Y2.443
X3.6344
X3.6315 Y2.4469
Y2.447
X3.6286 Y2.4508
Y2.4509
X3.6258 Y2.4547
X3.6257
X3.623 Y2.4585
X3.6202 Y2.4622
X3.6176 Y2.4659
X3.615 Y2.4695
X3.6124 Y2.4729
X3.6099 Y2.4763
X3.6075 Y2.4795
X3.6052 Y2.4827
X3.6029 Y2.4856
X3.6007 Y2.4885
X3.5985 Y2.4911
X3.5965 Y2.4936
X3.5945 Y2.4959
X3.5927 Y2.498
X3.5909 Y2.4999
X3.5891 Y2.5016
X3.5875 Y2.5031
X3.5859 Y2.5044
X3.5843 Y2.5055
X3.5828 Y2.5065
X3.5812 Y2.5073
X3.5795 Y2.5081
X3.5778 Y2.5087
X3.576 Y2.5092
X3.5741 Y2.5096
X3.5719 Y2.5099
X3.5696 Y2.5101
X3.5669 Y2.5102
X3.564
X3.5609 Y2.51
X3.5574 Y2.5096
X3.5536 Y2.5091
X3.5494 Y2.5085
X3.545 Y2.5077
X3.5402 Y2.5068
X3.5351 Y2.5058
X3.5297 Y2.5046
X3.524 Y2.5033
X3.5179 Y2.5018
X3.5116 Y2.5003
X3.505 Y2.4985
X3.4981 Y2.4967
X3.491 Y2.4947
X3.4838 Y2.4927
X3.4763 Y2.4905
X3.4687 Y2.4881
X3.4609 Y2.4857
X3.453 Y2.4831
X3.445 Y2.4805
X3.437 Y2.4777
X3.4288 Y2.4748
X3.4206 Y2.4719
X3.4124 Y2.4688
X3.4042 Y2.4656
X3.3959 Y2.4623
X3.3878 Y2.459
X3.3796 Y2.4555
X3.3715 Y2.452
X3.3679 Y2.4503
X3.3669 Y2.4496
X3.3663 Y2.4486
X3.3661 Y2.4474
X3.3664 Y2.4462
X3.3677 Y2.4433
X3.3682 Y2.4422 Z0.0234
X3.3686 Y2.4413 Z0.024
X3.3689 Y2.4407 Z0.0251
X3.369 Y2.4405 Z0.0263
G0 Z0.2625
X3.3747 Y2.4431
G1 Z0.1019 F1.8
Z0.0031
X3.3746 Y2.4433 Z0.0019 F14.2
X3.3743 Y2.4439 Z0.0009
X3.3739 Y2.4448 Z0.0002
X3.3734 Y2.4459 Z0.
X3.3721 Y2.4488
X3.3714 Y2.4498
X3.3703 Y2.4504
X3.3691 Y2.4506
X3.3679 Y2.4503
X3.3636 Y2.4483
X3.3557 Y2.4446
X3.3479 Y2.4408
X3.3403 Y2.4369
X3.3328 Y2.433
X3.3254 Y2.429
X3.3182 Y2.4249
X3.3111 Y2.4207
X3.3041 Y2.4165
X3.2973 Y2.4122
X3.2906 Y2.4079
X3.2841 Y2.4035
X3.2777 Y2.399
X3.2714 Y2.3945
X3.2653 Y2.39
X3.2594 Y2.3854
X3.2536 Y2.3808
X3.248 Y2.3762
X3.2425 Y2.3715
X3.2372 Y2.3668
X3.232 Y2.3621
X3.227 Y2.3574
X3.2222 Y2.3526
X3.2176 Y2.3478
X3.2131 Y2.3431
X3.2088 Y2.3383
X3.2047 Y2.3335
X3.2007 Y2.3287
X3.1969 Y2.3239
X3.1932 Y2.3191
X3.1897 Y2.3143
X3.1862 Y2.3095
X3.1829 Y2.3047
X3.1797 Y2.2999
X3.1766 Y2.2951
X3.1735 Y2.2902
X3.1705 Y2.2854
X3.1676 Y2.2805
X3.1647 Y2.2757
X3.1618 Y2.2708
X3.159 Y2.266
X3.1562 Y2.2611
X3.1534 Y2.2563
X3.1506 Y2.2514
X3.1505
X3.1477 Y2.2465
X3.1449 Y2.2417
X3.1448 Y2.2416
X3.142 Y2.2368
X3.1419 Y2.2367
X3.1391 Y2.232
X3.139 Y2.2318
X3.1361 Y2.2272
X3.136 Y2.227
X3.133 Y2.2223
X3.1329 Y2.2221
X3.1299 Y2.2175
X3.1297 Y2.2173
X3.1267 Y2.2127
X3.1265 Y2.2125
X3.1233 Y2.208
X3.1231 Y2.2077
X3.1199 Y2.2032
X3.1197 Y2.2029
X3.1163 Y2.1985
X3.1161 Y2.1981
X3.1126 Y2.1938
X3.1123 Y2.1934
X3.1087 Y2.1891
X3.1084 Y2.1887
X3.1046 Y2.1844
X3.1042 Y2.184
X3.1003 Y2.1798
X3.0999 Y2.1794
X3.0958 Y2.1753
X3.0954 Y2.1749
X3.0911 Y2.1708
X3.0907 Y2.1704
X3.0862 Y2.1664
X3.0857 Y2.166
X3.081 Y2.1621
X3.0805 Y2.1617
X3.0756 Y2.1578
X3.0751 Y2.1574
X3.0699 Y2.1537
X3.0693 Y2.1533
X3.0639 Y2.1496
X3.0633 Y2.1492
X3.0576 Y2.1456
X3.0571 Y2.1453
X3.051 Y2.1418
X3.0505 Y2.1415
X3.0441 Y2.138
X3.0436 Y2.1377
X3.037 Y2.1344
X3.0364 Y2.1341
X3.0294 Y2.1309
X3.0289 Y2.1306
X3.0216 Y2.1275
X3.0211 Y2.1273
X3.0133 Y2.1242
X3.0129 Y2.124
X3.0048 Y2.121
X3.0043 Y2.1209
X2.9958 Y2.118
X2.9953 Y2.1179
X2.9865 Y2.1151
X2.9861 Y2.115
X2.9769 Y2.1124
X2.9765 Y2.1123
X2.967 Y2.1098
X2.9666 Y2.1097
X2.9569 Y2.1074
X2.9565 Y2.1073
X2.9467 Y2.1052
X2.9463 Y2.1051
X2.9362 Y2.1032
X2.9358
X2.9257 Y2.1015
X2.9252 Y2.1014
X2.915 Y2.0999
X2.9146
X2.9044 Y2.0987
X2.9039 Y2.0986
X2.8937 Y2.0977
X2.8933 Y2.0976
X2.8831 Y2.0969
X2.8827
X2.8727 Y2.0964
X2.8721
X2.8623 Y2.0963
X2.8618
X2.8521 Y2.0964
X2.8515
X2.8421 Y2.0968
X2.8415
X2.8324 Y2.0975
X2.8317 Y2.0976
X2.8229 Y2.0986
X2.8221 Y2.0987
X2.8137 Y2.1
X2.8129 Y2.1001
X2.8049 Y2.1017
X2.8039 Y2.102
X2.7964 Y2.1039
X2.7953 Y2.1042
X2.7883 Y2.1065
X2.7871 Y2.1069
X2.7806 Y2.1095
X2.7792 Y2.1102
X2.7734 Y2.1131
X2.7719 Y2.114
X2.7666 Y2.1172
X2.7652 Y2.1182
X2.7605 Y2.1218
X2.7591 Y2.123
X2.7548 Y2.1269
X2.7536 Y2.1282
X2.7498 Y2.1324
X2.7487 Y2.1338
X2.7453 Y2.1384
X2.7444 Y2.1397
X2.7413 Y2.1446
X2.7406 Y2.1459
X2.7378 Y2.1512
X2.7372 Y2.1525
X2.7348 Y2.1581
X2.7344 Y2.1593
X2.7323 Y2.1653
X2.732 Y2.1663
X2.7302 Y2.1726
X2.73 Y2.1736
X2.7285 Y2.1801
X2.7284 Y2.181
X2.7271 Y2.1878
X2.727 Y2.1885
X2.7261 Y2.1956
X2.726 Y2.1962
X2.7252 Y2.2036
Y2.2041
X2.7246 Y2.2116
Y2.2121
X2.7242 Y2.2198
Y2.2202
X2.724 Y2.2281
Y2.2284
X2.7239 Y2.2365
Y2.2368
X2.724 Y2.2449
Y2.2452
X2.7241 Y2.2534
Y2.2536
X2.7243 Y2.262
Y2.2621
X2.7246 Y2.2706
X2.7249 Y2.2792
X2.7252 Y2.2877
X2.7256 Y2.2962
X2.7259 Y2.3047
X2.7262 Y2.3132
X2.7265 Y2.3216
Y2.3217
X2.7269 Y2.3299
Y2.3301
X2.7274 Y2.3382
Y2.3384
X2.7279 Y2.3464
Y2.3466
X2.7285 Y2.3545
Y2.3548
X2.7292 Y2.3625
X2.7293 Y2.3628
X2.7301 Y2.3703
X2.7302 Y2.3707
X2.7311 Y2.378
X2.7312 Y2.3784
X2.7323 Y2.3855
X2.7324 Y2.386
X2.7337 Y2.3928
X2.7338 Y2.3934
X2.7352 Y2.4
X2.7353 Y2.4006
X2.7369 Y2.4069
X2.7371 Y2.4076
X2.7389 Y2.4137
X2.7392 Y2.4144
X2.7412 Y2.4202
X2.7415 Y2.4211
X2.7437 Y2.4265
X2.7441 Y2.4275
X2.7465 Y2.4326
X2.747 Y2.4337
X2.7497 Y2.4385
X2.7503 Y2.4396
X2.7532 Y2.4441
X2.754 Y2.4453
X2.7571 Y2.4494
X2.7581 Y2.4506
X2.7615 Y2.4544
X2.7626 Y2.4556
X2.7663 Y2.459
X2.7675 Y2.4601
X2.7709 Y2.4627
X2.772 Y2.4635
X2.7756 Y2.466
X2.7767 Y2.4666
X2.7806 Y2.4689
X2.7816 Y2.4695
X2.7858 Y2.4715
X2.7868 Y2.472
X2.7912 Y2.4739
X2.7922 Y2.4743
X2.7968 Y2.476
X2.7977 Y2.4763
X2.8026 Y2.4778
X2.8034 Y2.478
X2.8086 Y2.4794
X2.8093 Y2.4795
X2.8146 Y2.4807
X2.8153 Y2.4808
X2.8208 Y2.4819
X2.8214 Y2.482
X2.8272 Y2.4828
X2.8277 Y2.4829
X2.8336 Y2.4837
X2.834
X2.8402 Y2.4843
X2.8405 Y2.4844
X2.8468 Y2.4849
X2.8471
X2.8536 Y2.4853
X2.8538
X2.8604 Y2.4857
X2.8607
X2.8673 Y2.4859
X2.8675
X2.8743 Y2.4861
X2.8745
X2.8814 Y2.4862
X2.8815
X2.8885
X2.8886
X2.8956 Y2.4863
X2.8957
X2.9028 Y2.4862
X2.9029
X2.9101
X2.9173 Y2.4861
X2.9245
X2.9317 Y2.486
X2.9389
X2.946
X2.9531 Y2.4861
X2.9601 Y2.4862
X2.967 Y2.4863
X2.9739 Y2.4866
X2.9806 Y2.4869
X2.9872 Y2.4873
X2.9936 Y2.4879
X2.9999 Y2.4885
X3.006 Y2.4893
X3.012 Y2.4902
X3.0177 Y2.4912
X3.0232 Y2.4924
X3.0284 Y2.4938
X3.0335 Y2.4953
X3.0382 Y2.4969
X3.0426 Y2.4987
X3.0467 Y2.5006
X3.0504 Y2.5028
X3.0538 Y2.5051
X3.057 Y2.5076
X3.0598 Y2.5102
X3.0623 Y2.513
X3.0645 Y2.516
X3.0663 Y2.5191
X3.0679 Y2.5224
X3.0691 Y2.5259
X3.07 Y2.5297
X3.0706 Y2.5339
X3.0708 Y2.5395
X3.0705 Y2.5455
X3.0696 Y2.552
X3.0683 Y2.559
X3.0666 Y2.5663
X3.0644 Y2.574
X3.0618 Y2.5821
X3.0589 Y2.5904
X3.0556 Y2.5989
X3.0521 Y2.6076
X3.0484 Y2.6165
X3.0444 Y2.6255
X3.0403 Y2.6345
X3.0361 Y2.6436
X3.0318 Y2.6527
X3.0275 Y2.6618
X3.0231 Y2.6708
X3.0188 Y2.6797
X3.0146 Y2.6885
X3.0145
X3.0104 Y2.6971
Y2.6972
X3.0064 Y2.7055
Y2.7057
X3.0026 Y2.7138
X3.0025 Y2.714
X2.999 Y2.7218
X2.9989 Y2.7221
X2.9957 Y2.7296
X2.9956 Y2.7299
X2.9926 Y2.7371
X2.9925 Y2.7374
X2.9899 Y2.7443
X2.9897 Y2.7446
X2.9874 Y2.7512
X2.9872 Y2.7515
X2.9851 Y2.7578
X2.985 Y2.7581
X2.9831 Y2.7641
X2.983 Y2.7645
X2.9813 Y2.7702
X2.9812 Y2.7706
X2.9797 Y2.7761
X2.9796 Y2.7764
X2.9783 Y2.7817
X2.9782 Y2.782
X2.9771 Y2.787
X2.977 Y2.7873
X2.9759 Y2.7921
Y2.7924
X2.975 Y2.797
X2.9749 Y2.7972
X2.9741 Y2.8017
X2.974 Y2.8019
X2.9732 Y2.8062
Y2.8063
X2.9725 Y2.8105
X2.9718 Y2.8145
X2.9711 Y2.8183
X2.9704 Y2.8219
X2.9697 Y2.8254
X2.969 Y2.8286
X2.9682 Y2.8318
X2.9674 Y2.8348
X2.9665 Y2.8377
X2.9655 Y2.8405
X2.9645 Y2.8433
X2.9633 Y2.846
X2.962 Y2.8486
X2.9605 Y2.8512
X2.959 Y2.8537
X2.9573 Y2.8562
X2.9555 Y2.8586
X2.9536 Y2.8609
X2.9515 Y2.8631
X2.9494 Y2.8653
X2.9472 Y2.8673
X2.9449 Y2.8693
X2.9424 Y2.8712
X2.9399 Y2.8729
X2.9373 Y2.8745
X2.9347 Y2.876
X2.9319 Y2.8774
X2.9291 Y2.8786
X2.9262 Y2.8797
X2.9233 Y2.8807
X2.9203 Y2.8815
X2.9172 Y2.8822
X2.914 Y2.8827
X2.9108 Y2.8831
X2.9075 Y2.8833
X2.9042
X2.9007 Y2.8832
X2.8971 Y2.8829
X2.8934 Y2.8825
X2.8895 Y2.882
X2.8857 Y2.8814
X2.8817 Y2.8807
X2.8777 Y2.8799
X2.8736 Y2.8791
X2.8695 Y2.8783
X2.8654 Y2.8774
X2.8612 Y2.8766
X2.8611
X2.857 Y2.8758
X2.8569 Y2.8757
X2.8528 Y2.8749
X2.8525
X2.8485 Y2.8742
X2.8482 Y2.8741
X2.8442 Y2.8735
X2.8438 Y2.8734
X2.8398 Y2.8729
X2.8393 Y2.8728
X2.8354 Y2.8724
X2.8349 Y2.8723
X2.831 Y2.8721
X2.8303 Y2.872
X2.8265 Y2.8719
X2.8257 Y2.8718
X2.822 Y2.8719
X2.8211
X2.8174 Y2.8721
X2.8164 Y2.8722
X2.8127 Y2.8725
X2.8116 Y2.8727
X2.8081 Y2.8733
X2.8069 Y2.8735
X2.8034 Y2.8744
X2.8023 Y2.8747
X2.7988 Y2.8757
X2.7977 Y2.8761
X2.7943 Y2.8774
X2.7933 Y2.8778
X2.7899 Y2.8793
X2.789 Y2.8797
X2.7856 Y2.8814
X2.7847 Y2.8818
X2.7814 Y2.8837
X2.7806 Y2.8842
X2.7773 Y2.8863
X2.7766 Y2.8867
X2.7733 Y2.889
X2.7726 Y2.8895
X2.7695 Y2.8919
X2.7688 Y2.8925
X2.7658 Y2.895
X2.7652 Y2.8956
X2.7622 Y2.8983
X2.7616 Y2.8989
X2.7588 Y2.9017
X2.7582 Y2.9023
X2.7555 Y2.9053
X2.7549 Y2.9059
X2.7523 Y2.909
X2.7518 Y2.9096
X2.7493 Y2.9129
X2.7488 Y2.9135
X2.7465 Y2.9169
X2.746 Y2.9176
X2.7438 Y2.921
X2.7433 Y2.9217
X2.7413 Y2.9252
X2.7409 Y2.926
X2.739 Y2.9296
X2.7386 Y2.9304
X2.7369 Y2.9341
X2.7365 Y2.9349
X2.735 Y2.9386
X2.7347 Y2.9395
X2.7334 Y2.9433
X2.7331 Y2.9442
X2.7319 Y2.9481
X2.7317 Y2.949
X2.7308 Y2.9529
X2.7306 Y2.9539
X2.7299 Y2.9578
X2.7297 Y2.9588
X2.7292 Y2.9628
X2.7291 Y2.9638
X2.7288 Y2.9678
Y2.9687
X2.7287 Y2.9728
Y2.9737
X2.7288 Y2.9778
X2.7289 Y2.9787
X2.7292 Y2.9829
X2.7293 Y2.9837
X2.7298 Y2.9879
X2.7299 Y2.9887
X2.7306 Y2.9929
X2.7308 Y2.9937
X2.7317 Y2.998
X2.7319 Y2.9987
X2.733 Y3.003
X2.7332 Y3.0037
X2.7344 Y3.008
X2.7347 Y3.0087
X2.7361 Y3.013
X2.7364 Y3.0136
X2.738 Y3.018
X2.7383 Y3.0186
X2.7401 Y3.0229
X2.7404 Y3.0235
X2.7424 Y3.0279
X2.7427 Y3.0284
X2.7449 Y3.0328
X2.7451 Y3.0333
X2.7475 Y3.0376
X2.7478 Y3.0381
X2.7504 Y3.0425
X2.7507 Y3.043
X2.7534 Y3.0473
X2.7537 Y3.0478
X2.7566 Y3.0521
X2.7569 Y3.0525
X2.76 Y3.0569
X2.7602 Y3.0573
X2.7635 Y3.0616
X2.7638 Y3.062
X2.7672 Y3.0663
X2.7675 Y3.0667
X2.7711 Y3.0709
X2.7714 Y3.0713
X2.7751 Y3.0756
X2.7754 Y3.0759
X2.7793 Y3.0801
X2.7796 Y3.0804
X2.7836 Y3.0846
X2.7839 Y3.0849
X2.7881 Y3.089
X2.7883 Y3.0893
X2.7926 Y3.0934
X2.7928 Y3.0937
X2.7973 Y3.0978
X2.7975 Y3.098
X2.802 Y3.1021
X2.8022 Y3.1023
X2.8069 Y3.1063
X2.8071 Y3.1065
X2.8118 Y3.1106
X2.812 Y3.1107
X2.8168 Y3.1147
X2.8169 Y3.1148
X2.8218 Y3.1188
X2.822 Y3.119
X2.827 Y3.1229
X2.8271 Y3.123
X2.8321 Y3.127
X2.8322 Y3.1271
X2.8373 Y3.131
X2.8374 Y3.1311
X2.8425 Y3.135
X2.8426
X2.8477 Y3.1389
X2.8478 Y3.139
X2.853 Y3.1428
X2.8531 Y3.1429
X2.8582 Y3.1467
X2.8583
X2.8635 Y3.1505
X2.8687 Y3.1543
X2.8739 Y3.158
X2.879 Y3.1617
X2.8841 Y3.1654
X2.8892 Y3.1691
X2.8942 Y3.1727
X2.8991 Y3.1762
X2.8992
X2.904 Y3.1797
X2.9041 Y3.1798
X2.9089 Y3.1832
X2.909
X2.9138 Y3.1865
X2.9139 Y3.1866
X2.9186 Y3.1899
X2.9188 Y3.19
X2.9235 Y3.1931
X2.9237 Y3.1932
X2.9283 Y3.1962
X2.9285 Y3.1964
X2.9331 Y3.1993
X2.9334 Y3.1995
X2.938 Y3.2022
X2.9383 Y3.2024
X2.9429 Y3.2051
X2.9433 Y3.2053
X2.9478 Y3.2078
X2.9483 Y3.208
X2.9528 Y3.2104
X2.9533 Y3.2106
X2.9579 Y3.2128
X2.9584 Y3.213
X2.963 Y3.2151
X2.9636 Y3.2153
X2.9682 Y3.2172
X2.9688 Y3.2174
X2.9734 Y3.2191
X2.9741 Y3.2193
X2.9788 Y3.2208
X2.9795 Y3.221
X2.9842 Y3.2223
X2.985 Y3.2225
X2.9897 Y3.2236
X2.9905 Y3.2238
X2.9953 Y3.2247
X2.9962 Y3.2248
X3.001 Y3.2255
X3.0019 Y3.2256
X3.0068 Y3.226
X3.0077
X3.0127 Y3.2262
X3.0136
X3.0187
X3.0196
X3.0248 Y3.2259
X3.0256 Y3.2258
X3.0309 Y3.2253
X3.0317 Y3.2252
X3.0371 Y3.2244
X3.0379 Y3.2242
X3.0433 Y3.2232
X3.044 Y3.223
X3.0495 Y3.2217
X3.0502 Y3.2216
X3.0558 Y3.22
X3.0565 Y3.2198
X3.0621 Y3.218
X3.0627 Y3.2178
X3.0684 Y3.2158
X3.069 Y3.2155
X3.0746 Y3.2132
X3.0753 Y3.2129
X3.0809 Y3.2104
X3.0815 Y3.2101
X3.0872 Y3.2073
X3.0878 Y3.207
X3.0934 Y3.204
X3.094 Y3.2037
X3.0996 Y3.2004
X3.1002 Y3.2
X3.1058 Y3.1965
X3.1063 Y3.1961
X3.1119 Y3.1923
X3.1124 Y3.192
X3.118 Y3.1879
X3.1185 Y3.1875
X3.1239 Y3.1832
X3.1244 Y3.1828
X3.1298 Y3.1783
X3.1303 Y3.1778
X3.1356 Y3.173
X3.1361 Y3.1726
X3.1413 Y3.1675
X3.1418 Y3.1671
X3.1469 Y3.1617
X3.1474 Y3.1613
X3.1524 Y3.1557
X3.1528 Y3.1552
X3.1577 Y3.1494
X3.1581 Y3.1489
X3.1629 Y3.1428
X3.1633 Y3.1423
X3.168 Y3.136
X3.1683 Y3.1355
X3.1729 Y3.129
X3.1731 Y3.1286
X3.1776 Y3.1218
X3.1779 Y3.1214
X3.1823 Y3.1145
X3.1824 Y3.1142
X3.1868 Y3.1071
X3.1869 Y3.1068
X3.1912 Y3.0996
X3.1913 Y3.0993
X3.1955 Y3.092
X3.1956 Y3.0918
X3.1997 Y3.0844
Y3.0842
X3.2038 Y3.0768
Y3.0766
X3.2078 Y3.0691
X3.2079 Y3.069
X3.2118 Y3.0615
X3.2157 Y3.054
X3.2196 Y3.0465
X3.2234 Y3.0392
X3.2272 Y3.032
X3.2309 Y3.025
X3.2346 Y3.0181
X3.2383 Y3.0115
X3.242 Y3.0051
X3.2456 Y2.9989
X3.2492 Y2.9931
X3.2528 Y2.9876
X3.2564 Y2.9824
X3.2599 Y2.9776
X3.2634 Y2.9732
X3.267 Y2.9692
X3.2705 Y2.9656
X3.274 Y2.9623
X3.2776 Y2.9594
X3.2812 Y2.9568
X3.2848 Y2.9546
X3.2885 Y2.9527
X3.2923 Y2.9511
X3.2962 Y2.9498
X3.3002 Y2.9489
X3.3044 Y2.9482
X3.3088 Y2.9478
X3.3134 Y2.9477
X3.3183 Y2.9479
X3.3235 Y2.9484
X3.329 Y2.9493
X3.3347 Y2.9505
X3.3408 Y2.9521
X3.3472 Y2.954
X3.3539 Y2.9563
X3.3609 Y2.9589
X3.3682 Y2.9619
X3.3758 Y2.9653
X3.3838 Y2.9689
X3.392 Y2.973
X3.4005 Y2.9773
X3.4092 Y2.9818
X3.418 Y2.9867
X3.427 Y2.9917
X3.4362 Y2.997
X3.4454 Y3.0024
X3.4546 Y3.008
X3.4639 Y3.0138
X3.4732 Y3.0197
X3.4824 Y3.0256
X3.4916 Y3.0317
X3.5007 Y3.0378
X3.5097 Y3.0439
X3.5185 Y3.0501
X3.5271 Y3.0562
X3.5356 Y3.0623
X3.5438 Y3.0683
X3.5517 Y3.0743
X3.5594 Y3.0801
X3.5667 Y3.0859
X3.5737 Y3.0915
X3.5803 Y3.0969
X3.5865 Y3.1022
X3.5924 Y3.1073
X3.5978 Y3.1122
X3.6029 Y3.117
X3.6077 Y3.1217
X3.6122 Y3.1262
X3.6163 Y3.1307
X3.62 Y3.135
X3.6235 Y3.1392
X3.6267 Y3.1433
X3.6295 Y3.1472
X3.6321 Y3.1511
X3.6343 Y3.1548
X3.6363 Y3.1585
X3.6381 Y3.1621
X3.6396 Y3.1655
X3.6408 Y3.1689
X3.6419 Y3.1722
X3.6427 Y3.1755
X3.6433 Y3.1787
X3.6438 Y3.1819
X3.644 Y3.1852
X3.6441 Y3.1884
X3.644 Y3.1917
X3.6438 Y3.1951
X3.6434 Y3.1984
X3.6428 Y3.2018
X3.6421 Y3.2052
X3.6412 Y3.2086
X3.6402 Y3.2119
X3.6391 Y3.2151
X3.6378 Y3.2182
X3.6365 Y3.2213
X3.635 Y3.2242
X3.6334 Y3.227
X3.6317 Y3.2297
X3.6299 Y3.2323
X3.628 Y3.2347
X3.626 Y3.2369
X3.624 Y3.239
X3.622 Y3.2409
X3.6199 Y3.2426
X3.6177 Y3.2442
X3.6155 Y3.2455
X3.6133 Y3.2467
X3.611 Y3.2477
X3.6087 Y3.2485
X3.6065 Y3.2491
X3.6042 Y3.2496
X3.6019 Y3.2499
X3.5993 Y3.25
X3.5967
X3.5939 Y3.2499
X3.591 Y3.2497
X3.5879 Y3.2493
X3.5848 Y3.249
X3.5816 Y3.2485
X3.5782 Y3.248
X3.5748 Y3.2475
X3.5713 Y3.2469
X3.5712
X3.5677 Y3.2464
X3.5675
X3.564 Y3.2459
X3.5636
X3.5601 Y3.2455
X3.5597
X3.5562 Y3.2452
X3.5556 Y3.2451
X3.552 Y3.2449
X3.5514
X3.5478 Y3.2448
X3.5471
X3.5434
X3.5427 Y3.2449
X3.539 Y3.2451
X3.5381 Y3.2452
X3.5343 Y3.2456
X3.5334 Y3.2457
X3.5296 Y3.2463
X3.5287 Y3.2464
X3.5248 Y3.2472
X3.5239 Y3.2475
X3.5199 Y3.2485
X3.519 Y3.2487
X3.5149 Y3.25
X3.5141 Y3.2503
X3.51 Y3.2518
X3.5092 Y3.2521
X3.505 Y3.2538
X3.5043 Y3.2541
X3.5 Y3.2561
X3.4994 Y3.2564
X3.4951 Y3.2586
X3.4945 Y3.2589
X3.4902 Y3.2613
X3.4896 Y3.2616
X3.4854 Y3.2642
X3.4848 Y3.2645
X3.4806 Y3.2673
X3.4801 Y3.2676
X3.4759 Y3.2705
X3.4754 Y3.2709
X3.4712 Y3.2739
X3.4708 Y3.2743
X3.4667 Y3.2775
X3.4663 Y3.2779
X3.4623 Y3.2812
X3.4618 Y3.2816
X3.458 Y3.2851
X3.4575 Y3.2855
X3.4538 Y3.2891
X3.4533 Y3.2895
X3.4498 Y3.2932
X3.4493 Y3.2937
X3.4459 Y3.2974
X3.4454 Y3.298
X3.4422 Y3.3018
X3.4418 Y3.3024
X3.4387 Y3.3063
X3.4383 Y3.3069
X3.4354 Y3.3108
X3.435 Y3.3116
X3.4324 Y3.3155
X3.4319 Y3.3163
X3.4296 Y3.3203
X3.4291 Y3.3212
X3.4271 Y3.3252
X3.4266 Y3.3262
X3.4248 Y3.3303
X3.4244 Y3.3314
X3.4229 Y3.3354
X3.4225 Y3.3365
X3.4213 Y3.3405
X3.421 Y3.3416
X3.42 Y3.3457
X3.4198 Y3.3468
X3.4191 Y3.3509
X3.4189 Y3.3521
X3.4185 Y3.3562
X3.4184 Y3.3574
X3.4182 Y3.3615
Y3.3627
Y3.3668
X3.4183 Y3.368
X3.4186 Y3.3722
X3.4187 Y3.3733
X3.4193 Y3.3775
X3.4195 Y3.3786
X3.4203 Y3.3828
X3.4206 Y3.3839
X3.4217 Y3.3881
X3.422 Y3.3892
X3.4234 Y3.3933
X3.4238 Y3.3943
X3.4254 Y3.3985
X3.4258 Y3.3995
X3.4277 Y3.4036
X3.4281 Y3.4045
X3.4303 Y3.4087
X3.4308 Y3.4095
X3.4332 Y3.4137
X3.4337 Y3.4145
X3.4364 Y3.4186
X3.4369 Y3.4193
X3.4399 Y3.4234
X3.4404 Y3.4241
X3.4437 Y3.4282
X3.4442 Y3.4288
X3.4477 Y3.4329
X3.4482 Y3.4335
X3.452 Y3.4375
X3.4525 Y3.438
X3.4566 Y3.4421
X3.4571 Y3.4425
X3.4615 Y3.4465
X3.462 Y3.447
X3.4666 Y3.4509
X3.4671 Y3.4513
X3.4721 Y3.4552
X3.4725 Y3.4556
X3.4777 Y3.4594
X3.4782 Y3.4597
X3.4836 Y3.4636
X3.484 Y3.4638
X3.4897 Y3.4676
X3.49 Y3.4678
X3.4959 Y3.4715
X3.4962 Y3.4717
X3.5022 Y3.4754
X3.5024 Y3.4755
X3.5086 Y3.4792
X3.5088 Y3.4793
X3.5151 Y3.4829
X3.5153 Y3.483
X3.5217 Y3.4866
X3.5219 Y3.4867
X3.5283 Y3.4902
X3.5284
X3.535 Y3.4937
Y3.4938
X3.5416 Y3.4973
X3.5482 Y3.5008
X3.5547 Y3.5042
X3.5611 Y3.5076
X3.5675 Y3.511
X3.5737 Y3.5144
X3.5797 Y3.5177
X3.5856 Y3.521
X3.5912 Y3.5243
X3.5966 Y3.5276
X3.6018 Y3.5308
X3.6066 Y3.5341
X3.6112 Y3.5373
X3.6154 Y3.5404
X3.6193 Y3.5436
X3.6229 Y3.5467
X3.6264 Y3.5499
X3.6297 Y3.5532
X3.6329 Y3.5565
X3.636 Y3.5599
X3.6391 Y3.5635
X3.6421 Y3.5672
X3.6452 Y3.571
X3.6484 Y3.575
X3.6517 Y3.5793
X3.6551 Y3.5837
X3.6587 Y3.5883
X3.6588 Y3.5884
X3.6625 Y3.5932
X3.6626 Y3.5933
X3.6665 Y3.5982
X3.6666 Y3.5984
X3.6708 Y3.6036
X3.671 Y3.6037
X3.6754 Y3.6092
X3.6756 Y3.6093
X3.6804 Y3.615
X3.6806 Y3.6152
X3.6857 Y3.6211
X3.6859 Y3.6213
X3.6914 Y3.6275
X3.6916 Y3.6277
X3.6976 Y3.6342
X3.6978 Y3.6344
X3.7043 Y3.6411
X3.7045 Y3.6413
X3.7114 Y3.6484
X3.7116 Y3.6486
X3.7191 Y3.656
X3.7193 Y3.6562
X3.7273 Y3.6638
X3.7275 Y3.664
X3.7361 Y3.672
X3.7363 Y3.6721
X3.7453 Y3.6803
X3.7455 Y3.6805
X3.755 Y3.6888
X3.7552 Y3.689
X3.7652 Y3.6975
X3.7654 Y3.6977
X3.7758 Y3.7063
X3.776 Y3.7064
X3.7868 Y3.7151
X3.787 Y3.7153
X3.7982 Y3.724
X3.7985 Y3.7242
X3.8101 Y3.7329
X3.8103 Y3.7331
X3.8223 Y3.7418
X3.8225 Y3.742
X3.8348 Y3.7506
X3.8351 Y3.7508
X3.8477 Y3.7593
X3.848 Y3.7595
X3.861 Y3.7678
X3.8613 Y3.768
X3.8745 Y3.7762
X3.8749 Y3.7764
X3.8884 Y3.7844
X3.8887 Y3.7846
X3.9025 Y3.7923
X3.9029 Y3.7925
X3.9168 Y3.8
X3.9173 Y3.8002
X3.9315 Y3.8073
X3.9319 Y3.8075
X3.9463 Y3.8143
X3.9468 Y3.8145
X3.9614 Y3.8209
X3.9619 Y3.8211
X3.9766 Y3.827
X3.9772 Y3.8272
X3.992 Y3.8327
X3.9926 Y3.8329
X4.0076 Y3.8378
X4.0082 Y3.838
X4.0234 Y3.8425
X4.024 Y3.8426
X4.0393 Y3.8465
X4.0398 Y3.8467
X4.0552 Y3.8501
X4.0557 Y3.8503
X4.0712 Y3.8532
X4.0717 Y3.8533
X4.0873 Y3.8559
X4.0878 Y3.856
X4.1034 Y3.8581
X4.1038 Y3.8582
X4.1195 Y3.86
X4.1199
X4.1356 Y3.8614
X4.136
X4.1518 Y3.8625
X4.1521
X4.1678 Y3.8633
X4.1682
X4.1839 Y3.8638
X4.1842
X4.1999 Y3.864
X4.2002
X4.2158
X4.2161
X4.2317 Y3.8637
X4.2319
X4.2474 Y3.8633
X4.2476
X4.2631 Y3.8626
X4.2633
X4.2786 Y3.8619
X4.2787
X4.2939 Y3.861
X4.2941
X4.3091 Y3.86
X4.3092
X4.3242 Y3.8589
X4.339 Y3.8578
X4.3537 Y3.8567
X4.368 Y3.8556
X4.3822 Y3.8544
X4.3961 Y3.8534
X4.4098 Y3.8523
X4.4233 Y3.8513
X4.4365 Y3.8503
X4.4494 Y3.8494
X4.4621 Y3.8484
X4.4622
X4.4746 Y3.8474
X4.4747
X4.4868 Y3.8464
X4.4869
X4.4988 Y3.8453
X4.5105 Y3.8442
X4.5106
X4.5219 Y3.8431
X4.5221
X4.5331 Y3.8419
X4.5332
X4.544 Y3.8407
X4.5442
X4.5546 Y3.8393
X4.5549
X4.565 Y3.8379
X4.5653
X4.5751 Y3.8364
X4.5754
X4.585 Y3.8348
X4.5853 Y3.8347
X4.5946 Y3.833
X4.5949
X4.6039 Y3.8312
X4.6043 Y3.8311
X4.613 Y3.8292
X4.6134 Y3.8291
X4.6217 Y3.827
X4.6222 Y3.8269
X4.6302 Y3.8246
X4.6307 Y3.8245
X4.6385 Y3.8221
X4.6391 Y3.8219
X4.6464 Y3.8194
X4.647 Y3.8192
X4.6541 Y3.8165
X4.6547 Y3.8162
X4.6615 Y3.8133
X4.6621 Y3.8131
X4.6685 Y3.81
X4.6692 Y3.8097
X4.6753 Y3.8066
X4.676 Y3.8062
X4.6818 Y3.803
X4.6824 Y3.8026
X4.6879 Y3.7992
X4.6885 Y3.7988
X4.6936 Y3.7953
X4.6943 Y3.7948
X4.6991 Y3.7913
X4.6998 Y3.7908
X4.7042 Y3.7871
X4.7049 Y3.7866
X4.709 Y3.7829
X4.7097 Y3.7823
X4.7136 Y3.7785
X4.7142 Y3.7779
X4.7177 Y3.7741
X4.7182 Y3.7735
X4.7215 Y3.7697
X4.7222 Y3.7687
X4.7251 Y3.7649
X4.7256 Y3.7641
X4.7281 Y3.7603
X4.7287 Y3.7594
X4.731 Y3.7556
X4.7315 Y3.7546
X4.7334 Y3.7508
X4.734 Y3.7496
X4.7356 Y3.7459
X4.736 Y3.7447
X4.7373 Y3.741
X4.7378 Y3.7396
X4.7387 Y3.736
X4.7391 Y3.7345
X4.7397 Y3.7309
X4.74 Y3.7294
X4.7403 Y3.7259
X4.7404 Y3.7244
X4.7405 Y3.721
X4.7404 Y3.7192
X4.7402 Y3.7159
X4.74 Y3.7141
X4.7395 Y3.7113
X4.7393 Y3.7103
X4.7387 Y3.7075
X4.7383 Y3.706
X4.7374 Y3.7033
X4.7369 Y3.7019
X4.7358 Y3.6992
X4.7353 Y3.6981
X4.734 Y3.6954
X4.7334 Y3.6943
X4.7319 Y3.6917
X4.7311 Y3.6904
X4.7294 Y3.6878
X4.7287 Y3.6869
X4.7268 Y3.6843
X4.7261 Y3.6835
X4.7239 Y3.681
X4.7233 Y3.6803
X4.7209 Y3.6778
X4.7202 Y3.6771
X4.7176 Y3.6747
X4.7168 Y3.674
X4.714 Y3.6717
X4.7134 Y3.6712
X4.7104 Y3.6689
X4.7097 Y3.6684
X4.7065 Y3.6662
X4.7058 Y3.6657
X4.7025 Y3.6636
X4.7018 Y3.6633
X4.6983 Y3.6613
X4.6976 Y3.6609
X4.694 Y3.659
X4.6932 Y3.6587
X4.6894 Y3.6569
X4.6887 Y3.6566
X4.6847 Y3.6549
X4.684 Y3.6547
X4.6799 Y3.6531
X4.6792 Y3.6529
X4.6748 Y3.6515
X4.6742 Y3.6513
X4.6698 Y3.65
X4.6691 Y3.6498
X4.6645 Y3.6487
X4.6638 Y3.6485
X4.659 Y3.6475
X4.6584 Y3.6474
X4.6535 Y3.6465
X4.6529 Y3.6464
X4.6479 Y3.6457
X4.6472
X4.6421 Y3.6451
X4.6414
X4.6362 Y3.6447
X4.6355
X4.6292 Y3.6445
X4.6285
X4.6221
X4.6215 Y3.6446
X4.615 Y3.6448
X4.6145
X4.6078 Y3.6452
X4.6074
X4.6007 Y3.6458
X4.6003
X4.5935 Y3.6466
X4.5932
X4.5864 Y3.6474
X4.5862
X4.5794 Y3.6483
X4.5792 Y3.6484
X4.5724 Y3.6494
X4.5722
X4.5655 Y3.6504
X4.5654
X4.5588 Y3.6515
X4.5587
X4.5522 Y3.6526
X4.5521
X4.5457 Y3.6537
X4.5396 Y3.6547
X4.5336 Y3.6557
X4.5279 Y3.6566
X4.5225 Y3.6574
X4.5176 Y3.6581
X4.5131 Y3.6586
X4.509 Y3.6589
X4.5054 Y3.659
X4.5023 Y3.6589
X4.4996 Y3.6586
X4.4975 Y3.6581
X4.4966 Y3.6578
X4.4959 Y3.6574
X4.4955 Y3.6571
X4.4953 Y3.6569
X4.4952 Y3.6567
X4.4951 Y3.656
Y3.6554
Y3.6546
X4.4954 Y3.6533
X4.4959 Y3.6515
X4.4966 Y3.6494
X4.4977 Y3.6469
X4.4988 Y3.6444
X4.5002 Y3.6418
X4.5018 Y3.6389
X4.5035 Y3.636
X4.5053 Y3.633
X4.5073 Y3.6299
X4.5095 Y3.6266
X4.5118 Y3.6234
X4.5141 Y3.6201
X4.5167 Y3.6167
X4.5193 Y3.6132
X4.522 Y3.6097
X4.5248 Y3.6062
X4.5276 Y3.6026
X4.5305 Y3.599
X4.5334 Y3.5954
X4.5364 Y3.5918
X4.5394 Y3.5882
X4.5424 Y3.5847
X4.5453 Y3.5813
X4.5484 Y3.5778
X4.5515 Y3.5743
X4.5546 Y3.571
X4.5577 Y3.5678
X4.5609 Y3.5645
X4.5641 Y3.5615
X4.5672 Y3.5585
X4.5704 Y3.5557
X4.5736 Y3.553
X4.5768 Y3.5505
X4.58 Y3.5481
X4.5832 Y3.5459
X4.5864 Y3.5438
X4.5895 Y3.542
X4.5927 Y3.5403
X4.5959 Y3.5388
X4.599 Y3.5376
X4.6021 Y3.5365
X4.6052 Y3.5356
X4.6083 Y3.535
X4.6114 Y3.5345
X4.6146 Y3.5343
X4.6177 Y3.5342
X4.6215 Y3.5344
X4.6252 Y3.535
X4.6291 Y3.5358
X4.6332 Y3.5369
X4.6374 Y3.5384
X4.6417 Y3.5401
X4.6461 Y3.5421
X4.6506 Y3.5443
X4.6552 Y3.5468
X4.6599 Y3.5495
X4.6647 Y3.5525
X4.6696 Y3.5556
X4.6747 Y3.559
X4.6798 Y3.5626
X4.685 Y3.5663
X4.6904 Y3.5702
X4.6959 Y3.5743
X4.7015 Y3.5784
X4.7072 Y3.5826
X4.7073 Y3.5827
X4.7131 Y3.587
X4.719 Y3.5914
X4.7192 Y3.5915
X4.7252 Y3.5958
X4.7254 Y3.5959
X4.7315 Y3.6003
X4.7317 Y3.6004
X4.738 Y3.6048
X4.7382 Y3.6049
X4.7446 Y3.6093
X4.7448 Y3.6094
X4.7514 Y3.6138
X4.7516 Y3.6139
X4.7583 Y3.6183
X4.7585 Y3.6184
X4.7655 Y3.6227
X4.7656 Y3.6228
X4.7727 Y3.6272
X4.773 Y3.6273
X4.7803 Y3.6317
X4.7805 Y3.6318
X4.788 Y3.6361
X4.7882 Y3.6362
X4.7959 Y3.6405
X4.7962 Y3.6407
X4.8042 Y3.645
X4.8044 Y3.6451
X4.8126 Y3.6494
X4.8128 Y3.6495
X4.8213 Y3.6538
X4.8215 Y3.6539
X4.8303 Y3.6582
X4.8305 Y3.6583
X4.8396 Y3.6626
X4.8398 Y3.6627
X4.8491 Y3.6669
X4.8494 Y3.667
X4.8591 Y3.6713
X4.8592 Y3.6714
X4.8692 Y3.6756
X4.8694 Y3.6757
X4.8797 Y3.6799
X4.88 Y3.68
X4.8906 Y3.6842
X4.8908 Y3.6843
X4.9019 Y3.6885
X4.9021 Y3.6886
X4.9135 Y3.6927
X4.9137 Y3.6928
X4.9255 Y3.697
X4.9257 Y3.6971
X4.9379 Y3.7012
X4.9381 Y3.7013
X4.9507 Y3.7054
X4.9509 Y3.7055
X4.9639 Y3.7096
X4.9641 Y3.7097
X4.9777 Y3.7138
X4.9778
X4.9917 Y3.7179
X4.9918 Y3.718
X5.0061 Y3.722
X5.0062 Y3.7221
X5.0208 Y3.7261
X5.0209
X5.0358 Y3.7301
X5.0359 Y3.7302
X5.051 Y3.7341
X5.0511
X5.0664 Y3.738
X5.0666
X5.0821 Y3.7419
X5.0822
X5.0978 Y3.7457
X5.0979
X5.1137 Y3.7494
X5.1295 Y3.7531
X5.1296
X5.1454 Y3.7566
X5.1455 Y3.7567
X5.1613 Y3.7601
X5.1614
X5.1771 Y3.7635
X5.1772
X5.1929 Y3.7668
X5.2085 Y3.77
X5.2239 Y3.7731
X5.224
X5.2391 Y3.776
X5.2392
X5.2541 Y3.7789
X5.2687 Y3.7816
X5.2688
X5.2831 Y3.7842
X5.2832
X5.2971 Y3.7866
X5.2972
X5.3107 Y3.7889
X5.3108
X5.3238 Y3.791
X5.324
X5.3366 Y3.793
X5.3367
X5.3487 Y3.7948
X5.3489 Y3.7949
X5.3605 Y3.7965
X5.3606 Y3.7966
X5.3719 Y3.7981
X5.372
X5.3827 Y3.7995
X5.3828
X5.3932 Y3.8008
X5.3933
X5.4031 Y3.802
X5.4033
X5.4127 Y3.8031
X5.4128
X5.4219 Y3.804
X5.422
X5.4306 Y3.8049
X5.4307
X5.439 Y3.8056
X5.4391
X5.4469 Y3.8063
X5.4471
X5.4545 Y3.8069
X5.4546
X5.4617 Y3.8074
X5.4618
X5.4685 Y3.8079
X5.4686
X5.475 Y3.8082
X5.4751
X5.4811 Y3.8086
X5.4812
X5.4868 Y3.8088
X5.4869
X5.4923 Y3.8091
X5.4973 Y3.8093
X5.4974
X5.502 Y3.8094
X5.5021
X5.5065 Y3.8095
X5.5105 Y3.8096
X5.5143 Y3.8097
X5.5173 Y3.8098
X5.52 Y3.8099
X5.5226
X5.525 Y3.81
X5.5251
X5.5272
X5.5273
X5.5292 Y3.8101
X5.5293
X5.5311
X5.5328
X5.5329
X5.5343
X5.5344
X5.5358
X5.536
X5.5372
X5.5375
X5.5386
X5.5388
X5.5398 Y3.81
X5.5404
X5.5413 Y3.8099
X5.5418
X5.5426 Y3.8098
X5.5432 Y3.8097
X5.544 Y3.8096
X5.5446 Y3.8095
X5.5454 Y3.8094
X5.5462 Y3.8093
X5.5469 Y3.8091
X5.5474 Y3.809
X5.5481 Y3.8088
X5.5491 Y3.8086
X5.5498 Y3.8084
X5.5502 Y3.8083
X5.5509 Y3.808
X5.5516 Y3.8078
X5.5523 Y3.8075
X5.5525
X5.5533 Y3.8072
X5.5537 Y3.807
X5.5545 Y3.8067
X5.5554 Y3.8064
X5.5556 Y3.8063
X5.5566 Y3.8059
X5.5568 Y3.8058
X5.5578 Y3.8054
X5.559 Y3.805
X5.5591 Y3.8049
X5.5607 Y3.8043
X5.5624 Y3.8036
X5.5625
X5.5644 Y3.8028
X5.5663 Y3.802
X5.5664
X5.5685 Y3.8012
X5.5707 Y3.8003
X5.5729 Y3.7994
X5.573 Y3.7993
X5.5753 Y3.7984
X5.5776 Y3.7974
X5.5778 Y3.7973
X5.5801 Y3.7963
X5.5825 Y3.7953
X5.5827 Y3.7952
X5.5851 Y3.7941
X5.5875 Y3.7931
X5.5877 Y3.793
X5.5901 Y3.7919
X5.5902 Y3.7918
X5.5926 Y3.7907
X5.5929 Y3.7906
X5.5952 Y3.7894
X5.5975 Y3.7883
X5.5978 Y3.7882
X5.6001 Y3.787
X5.6004 Y3.7869
X5.6026 Y3.7857
X5.6048 Y3.7845
X5.6053 Y3.7843
X5.6073 Y3.7831
X5.6076 Y3.7829
X5.6096 Y3.7818
X5.6099 Y3.7816
X5.6118 Y3.7804
X5.6122 Y3.7801
X5.6141 Y3.779
X5.6143 Y3.7788
X5.6161 Y3.7776
X5.6165 Y3.7773
X5.6181 Y3.7761
X5.6185 Y3.7759
X5.62 Y3.7747
X5.6203 Y3.7745
X5.6218 Y3.7733
X5.6224 Y3.7729
X5.6237 Y3.7717
X5.6239 Y3.7715
X5.6252 Y3.7704
X5.6259 Y3.7698
X5.6271 Y3.7686
X5.6273 Y3.7684
X5.6285 Y3.7672
X5.629 Y3.7667
X5.6301 Y3.7655
X5.6303 Y3.7652
X5.6314 Y3.764
X5.6319 Y3.7634
X5.6328 Y3.7622
X5.6332 Y3.7618
X5.6341 Y3.7606
X5.6346 Y3.7598
X5.6354 Y3.7586
X5.6358 Y3.7581
X5.6365 Y3.7569
X5.6368 Y3.7564
X5.6376 Y3.7551
X5.6379 Y3.7546
X5.6386 Y3.7533
X5.6387 Y3.7532
X5.6394 Y3.7519
X5.6399 Y3.7509
X5.6405 Y3.7496
X5.6406 Y3.7494
X5.6412 Y3.748
X5.6414 Y3.7475
X5.642 Y3.7461
X5.6421 Y3.7459
X5.6427 Y3.7444
X5.6429 Y3.7439
X5.6434 Y3.7424
X5.6435 Y3.7422
X5.6441 Y3.7407
Y3.7405
X5.6447 Y3.739
X5.6452 Y3.7374
X5.6455 Y3.7367
X5.6459 Y3.7351
X5.646 Y3.7348
X5.6465 Y3.7332
X5.6467 Y3.7324
X5.647 Y3.7309
X5.6471 Y3.7305
X5.6474 Y3.7291
X5.6476 Y3.7281
X5.6478 Y3.7267
X5.6479 Y3.7262
X5.6481 Y3.7248
X5.6482 Y3.7233
X5.6483 Y3.7219
Y3.7213
X5.6484 Y3.7199
Y3.7184
X5.6483 Y3.7169
X5.6482 Y3.716
X5.6481 Y3.7144
X5.6479 Y3.7131
X5.6476 Y3.7116
X5.6473 Y3.7103
X5.6469 Y3.7087
X5.6465 Y3.7073
X5.646 Y3.7056
X5.6455 Y3.7044
X5.6448 Y3.7027
X5.6443 Y3.7016
X5.6435 Y3.6999
X5.6427 Y3.6985
X5.6416 Y3.6966
X5.641 Y3.6958
X5.6397 Y3.6938
X5.6391 Y3.6929
X5.6375 Y3.6909
X5.637 Y3.6902
X5.6352 Y3.6881
X5.6346 Y3.6874
X5.6325 Y3.6853
X5.632 Y3.6847
X5.6297 Y3.6824
X5.6291 Y3.6819
X5.6265 Y3.6795
X5.6261 Y3.6792
X5.6232 Y3.6767
X5.6227 Y3.6762
X5.6194 Y3.6736
X5.6191 Y3.6733
X5.6154 Y3.6706
X5.6152 Y3.6704
X5.6113 Y3.6675
X5.6112 Y3.6674
X5.607 Y3.6644
X5.6027 Y3.6611
X5.5982 Y3.6577
X5.5936 Y3.6542
X5.589 Y3.6505
X5.5843 Y3.6465
X5.5796 Y3.6424
X5.575 Y3.638
X5.5704 Y3.6334
X5.5659 Y3.6285
X5.5615 Y3.6233
X5.5573 Y3.6178
X5.5533 Y3.6119
X5.5494 Y3.6057
X5.5457 Y3.5992
X5.5424 Y3.5923
X5.5393 Y3.585
X5.5365 Y3.5772
X5.5341 Y3.5689
X5.532 Y3.5602
X5.5304 Y3.5508
X5.5292 Y3.541
X5.5285 Y3.5305
X5.5281 Y3.5194
Y3.508
X5.5285 Y3.4961
X5.5293 Y3.4838
X5.5304 Y3.4711
X5.5319 Y3.4581
X5.5337 Y3.4448
X5.5358 Y3.4313
X5.5382 Y3.4176
X5.5408 Y3.4037
X5.5437 Y3.3898
X5.5468 Y3.3757
X5.5502 Y3.3615
X5.5536 Y3.3473
X5.5573 Y3.3332
X5.5612 Y3.319
X5.5651 Y3.305
X5.5692 Y3.2911
X5.5734 Y3.2773
X5.5776 Y3.2637
X5.5819 Y3.2503
X5.5862 Y3.2372
X5.5906 Y3.2243
X5.5949 Y3.2117
X5.5993 Y3.1995
X5.6036 Y3.1874
X5.6079 Y3.1757
X5.6122 Y3.1643
X5.6163 Y3.1531
X5.6204 Y3.1423
X5.6245 Y3.1317
X5.6284 Y3.1213
X5.6322 Y3.1113
X5.636 Y3.1016
X5.6395 Y3.0921
X5.6396 Y3.092
X5.643 Y3.0829
X5.6462 Y3.074
X5.6463 Y3.0738
X5.6494 Y3.0653
Y3.0652
X5.6523 Y3.0569
Y3.0568
X5.655 Y3.0488
X5.6551 Y3.0485
X5.6575 Y3.0409
X5.6576 Y3.0407
X5.6599 Y3.0334
X5.66 Y3.033
X5.6619 Y3.026
X5.6621 Y3.0255
X5.6638 Y3.0188
X5.6639 Y3.0183
X5.6653 Y3.0119
X5.6655 Y3.0113
X5.6666 Y3.0052
X5.6668 Y3.0045
X5.6676 Y2.9987
X5.6677 Y2.998
X5.6684 Y2.9926
Y2.9916
X5.6688 Y2.9864
Y2.9856
X5.6689 Y2.9807
Y2.9796
X5.6687 Y2.975
X5.6686 Y2.9739
X5.6681 Y2.9697
X5.668 Y2.9686
X5.6674 Y2.9646
X5.6671 Y2.9631
X5.6662 Y2.9594
X5.6658 Y2.9581
X5.6647 Y2.9547
X5.6642 Y2.9533
X5.6629 Y2.9501
X5.6623 Y2.9488
X5.6608 Y2.9458
X5.6599 Y2.9444
X5.6582 Y2.9416
X5.6572 Y2.9402
X5.6553 Y2.9376
X5.6543 Y2.9364
X5.6521 Y2.934
X5.6509 Y2.9327
X5.6484 Y2.9305
X5.6472 Y2.9295
X5.6445 Y2.9274
X5.6433 Y2.9265
X5.6404 Y2.9247
X5.639 Y2.9238
X5.6358 Y2.9221
X5.6346 Y2.9215
X5.6311 Y2.9199
X5.63 Y2.9195
X5.6262 Y2.9181
X5.6252 Y2.9177
X5.6211 Y2.9165
X5.6201 Y2.9162
X5.6157 Y2.9151
X5.6149 Y2.9149
X5.6102 Y2.914
X5.6094 Y2.9138
X5.6044 Y2.913
X5.6037 Y2.9129
X5.5983 Y2.9123
X5.5977 Y2.9122
X5.592 Y2.9117
X5.5914
X5.5855 Y2.9113
X5.585
X5.5789 Y2.9111
X5.5785
X5.5721
X5.5717
X5.5651
X5.5649
X5.5581 Y2.9113
X5.5579
X5.551 Y2.9116
X5.5508
X5.5438 Y2.9119
X5.5436
X5.5365 Y2.9123
X5.5364
X5.5291 Y2.9127
X5.5218 Y2.9132
X5.5144 Y2.9137
X5.5071 Y2.9141
X5.4997 Y2.9146
X5.4924 Y2.915
X5.4852 Y2.9153
X5.4781 Y2.9156
X5.4711 Y2.9159
X5.4642 Y2.916
X5.4575
X5.4509
X5.4446 Y2.9157
X5.4385 Y2.9154
X5.4327 Y2.9149
X5.4271 Y2.9142
X5.4218 Y2.9134
X5.4167 Y2.9125
X5.412 Y2.9114
X5.4074 Y2.9101
X5.4032 Y2.9087
X5.3992 Y2.9071
X5.3955 Y2.9054
X5.3922 Y2.9037
X5.3892 Y2.9017
X5.3864 Y2.8996
X5.3838 Y2.8974
X5.3814 Y2.895
X5.3794 Y2.8925
X5.3775 Y2.8899
X5.3758 Y2.887
X5.3743 Y2.8841
X5.3731 Y2.881
X5.3721 Y2.8777
X5.3714 Y2.8742
X5.3709 Y2.8705
X5.3706 Y2.8667
X5.3707 Y2.8625
X5.3711 Y2.858
X5.3717 Y2.8533
X5.3726 Y2.8483
X5.3737 Y2.8431
X5.3751 Y2.8377
X5.3767 Y2.8322
X5.3784 Y2.8265
X5.3804 Y2.8207
X5.3825 Y2.8148
X5.3847 Y2.8089
X5.3871 Y2.8029
X5.3895 Y2.7968
X5.392 Y2.7908
X5.3946 Y2.7847
X5.3971 Y2.7787
X5.3997 Y2.7728
X5.4023 Y2.7669
X5.4048 Y2.7612
Y2.7611
X5.4072 Y2.7555
X5.4073 Y2.7554
X5.4096 Y2.7499
X5.4097 Y2.7498
X5.4119 Y2.7445
X5.412 Y2.7443
X5.4141 Y2.7391
X5.4142 Y2.7389
X5.4161 Y2.734
X5.4162 Y2.7337
X5.418 Y2.729
X5.4181 Y2.7286
X5.4197 Y2.7242
X5.4199 Y2.7236
X5.4212 Y2.7194
X5.4213 Y2.719
X5.4225 Y2.715
X5.4227 Y2.7143
X5.4237 Y2.7105
X5.4238 Y2.71
X5.4246 Y2.7064
X5.4247 Y2.7057
X5.4253 Y2.7023
X5.4255 Y2.7014
X5.4258 Y2.6982
X5.4259 Y2.6974
X5.4262 Y2.6945
Y2.6932
X5.4263 Y2.6905
Y2.6893
X5.4261 Y2.6867
X5.426 Y2.6855
X5.4258 Y2.683
X5.4256 Y2.6821
X5.4252 Y2.6797
X5.4249 Y2.6781
X5.4243 Y2.6758
X5.4239 Y2.6745
X5.4232 Y2.6723
X5.4226 Y2.6708
X5.4217 Y2.6686
X5.421 Y2.6672
X5.4199 Y2.6651
X5.4193 Y2.6641
X5.418 Y2.662
X5.4172 Y2.6608
X5.4157 Y2.6586
X5.4149 Y2.6577
X5.4132 Y2.6555
X5.4126 Y2.6549
X5.4107 Y2.6527
X5.4099 Y2.6519
X5.4077 Y2.6497
X5.4072 Y2.6492
X5.4047 Y2.647
X5.4043 Y2.6466
X5.4016 Y2.6442
X5.4012 Y2.6439
X5.3982 Y2.6414
X5.3978 Y2.6411
X5.3946 Y2.6386
X5.3943 Y2.6384
X5.3908 Y2.6357
X5.3906 Y2.6356
X5.3868 Y2.6328
X5.3829 Y2.63
X5.3788 Y2.6271
X5.3748 Y2.6242
X5.3708 Y2.6211
X5.3668 Y2.6181
X5.3628 Y2.6149
X5.359 Y2.6118
X5.3554 Y2.6085
X5.3519 Y2.6052
X5.3486 Y2.6018
X5.3457 Y2.5984
X5.3429 Y2.5948
X5.3404 Y2.5912
X5.3383 Y2.5876
X5.3365 Y2.5839
X5.3351 Y2.5801
X5.334 Y2.5763
X5.3334 Y2.5725
X5.3331 Y2.5685
X5.3332 Y2.5644
X5.3339 Y2.5601
X5.335 Y2.5553
X5.3367 Y2.5502
X5.3389 Y2.5449
X5.3416 Y2.5394
X5.3447 Y2.5336
X5.3482 Y2.5277
X5.3521 Y2.5216
X5.3564 Y2.5153
X5.3609 Y2.5089
X5.3655 Y2.5024
X5.3705 Y2.4957
X5.3754 Y2.489
X5.3805 Y2.4823
X5.3856 Y2.4755
X5.3907 Y2.4687
X5.3908
X5.3958 Y2.462
X5.3959 Y2.4619
X5.4007 Y2.4552
X5.4009 Y2.455
X5.4056 Y2.4484
X5.4057 Y2.4482
X5.4102 Y2.4418
X5.4104 Y2.4414
X5.4146 Y2.4351
X5.4149 Y2.4346
X5.4188 Y2.4284
X5.4191 Y2.4279
X5.4227 Y2.4218
X5.423 Y2.4212
X5.4262 Y2.4152
X5.4265 Y2.4145
X5.4293 Y2.4088
X5.4297 Y2.4077
X5.432 Y2.4022
X5.4324 Y2.4012
X5.4342 Y2.3958
X5.4345 Y2.3947
X5.4359 Y2.3896
X5.4362 Y2.3883
X5.4371 Y2.3835
X5.4374 Y2.3821
X5.4379 Y2.3775
X5.438 Y2.3759
X5.4382 Y2.3716
Y2.3697
X5.4379 Y2.3656
X5.4377 Y2.3638
X5.437 Y2.36
X5.4366 Y2.358
X5.4356 Y2.3544
X5.4349 Y2.3524
X5.4336 Y2.3491
X5.4326 Y2.347
X5.4309 Y2.3439
X5.4297 Y2.3421
X5.4277 Y2.3393
X5.4261 Y2.3375
X5.4237 Y2.3349
X5.422 Y2.3333
X5.419 Y2.3309
X5.4174 Y2.3297
X5.414 Y2.3275
X5.4122 Y2.3265
X5.4084 Y2.3245
X5.4067 Y2.3238
X5.4024 Y2.3221
X5.4007 Y2.3216
X5.3959 Y2.3202
X5.3944 Y2.3198
X5.389 Y2.3188
X5.3876 Y2.3186
X5.3817 Y2.3179
X5.3805 Y2.3177
X5.374 Y2.3174
X5.3729
X5.3658 Y2.3175
X5.3648
X5.3571 Y2.318
X5.3562 Y2.3181
X5.348 Y2.319
X5.3472 Y2.3191
X5.3383 Y2.3206
X5.3376 Y2.3207
X5.3283 Y2.3226
X5.3277 Y2.3227
X5.3178 Y2.325
X5.3173 Y2.3252
X5.307 Y2.3279
X5.3066 Y2.328
X5.2959 Y2.3311
X5.2955 Y2.3312
X5.2845 Y2.3347
X5.2842 Y2.3348
X5.2729 Y2.3385
X5.2727 Y2.3386
X5.261 Y2.3426
X5.2608 Y2.3427
X5.249 Y2.347
X5.2488 Y2.3471
X5.2368 Y2.3516
X5.2366 Y2.3517
X5.2245 Y2.3563
X5.2243 Y2.3564
X5.2121 Y2.3613
X5.212
X5.1996 Y2.3663
X5.1872 Y2.3714
X5.1871
X5.1747 Y2.3766
X5.1746
X5.1623 Y2.3818
X5.1501 Y2.3869
X5.15 Y2.387
X5.1379 Y2.3921
X5.126 Y2.3972
X5.1143 Y2.4022
X5.1028 Y2.407
X5.0917 Y2.4117
X5.0809 Y2.4162
X5.0704 Y2.4204
X5.0604 Y2.4244
X5.0508 Y2.4282
X5.0416 Y2.4318
X5.0327 Y2.4352
X5.0242 Y2.4384
X5.016 Y2.4414
X5.0082 Y2.4444
X5.0007 Y2.4472
X5.0006
X4.9934 Y2.4499
X4.9865 Y2.4525
X4.9864 Y2.4526
X4.9798 Y2.4551
X4.9796 Y2.4552
X4.9733 Y2.4577
X4.9731 Y2.4578
X4.9671 Y2.4602
X4.9668 Y2.4603
X4.9611 Y2.4628
X4.9608 Y2.4629
X4.9553 Y2.4654
X4.955 Y2.4655
X4.9497 Y2.468
X4.9492 Y2.4683
X4.9442 Y2.4708
X4.9437 Y2.471
X4.9389 Y2.4736
X4.9384 Y2.4739
X4.9337 Y2.4766
X4.9332 Y2.4769
X4.9287 Y2.4797
X4.9281 Y2.4801
X4.9238 Y2.483
X4.9232 Y2.4835
X4.9191 Y2.4865
X4.9184 Y2.487
X4.9144 Y2.4902
X4.9138 Y2.4907
X4.91 Y2.4941
X4.9094 Y2.4947
X4.9056 Y2.4983
X4.9051 Y2.4988
X4.9014 Y2.5026
X4.9011 Y2.503
X4.8974 Y2.507
X4.897 Y2.5075
X4.8934 Y2.5117
X4.8932 Y2.5119
X4.8896 Y2.5163
X4.8894 Y2.5165
X4.8859 Y2.521
X4.8858 Y2.5211
X4.8822 Y2.5257
X4.8821 Y2.5259
X4.8786 Y2.5305
X4.8784 Y2.5307
X4.875 Y2.5353
X4.8749 Y2.5354
X4.8715 Y2.5401
X4.8681 Y2.5447
X4.8647 Y2.5493
X4.8613 Y2.5536
X4.858 Y2.5578
X4.8546 Y2.5618
X4.8513 Y2.5656
X4.848 Y2.569
X4.8446 Y2.5723
X4.8413 Y2.5751
X4.8379 Y2.5777
X4.8346 Y2.58
X4.8312 Y2.5819
X4.8278 Y2.5835
X4.8243 Y2.5847
X4.8208 Y2.5857
X4.8172 Y2.5863
X4.8135 Y2.5866
X4.8095
X4.8055 Y2.5864
X4.8012 Y2.5859
X4.7968 Y2.5852
X4.7923 Y2.5842
X4.7877 Y2.5831
X4.783 Y2.5818
X4.7782 Y2.5804
X4.7733 Y2.5789
X4.7685 Y2.5774
X4.7637 Y2.5758
X4.7588 Y2.5742
X4.7541 Y2.5726
X4.754 Y2.5725
X4.7494 Y2.571
X4.7492
X4.7446 Y2.5695
X4.7444
X4.74 Y2.5682
X4.7396 Y2.568
X4.7354 Y2.5669
X4.7348 Y2.5668
X4.7307 Y2.5658
X4.73 Y2.5656
X4.7261 Y2.5649
X4.7252 Y2.5647
X4.7215 Y2.5642
X4.7203 Y2.564
X4.7168 Y2.5638
X4.7154 Y2.5637
X4.7121
X4.7107 Y2.5638
X4.7076 Y2.564
X4.7061 Y2.5642
X4.7031 Y2.5646
X4.7019 Y2.5649
X4.6989 Y2.5655
X4.6976 Y2.5659
X4.6947 Y2.5667
X4.6934 Y2.5671
X4.6906 Y2.5682
X4.6895 Y2.5687
X4.6866 Y2.5699
X4.6857 Y2.5704
X4.6829 Y2.5718
X4.6821 Y2.5723
X4.6793 Y2.5739
X4.6786 Y2.5743
X4.6758 Y2.5761
X4.6752 Y2.5765
X4.6725 Y2.5784
X4.6721 Y2.5787
X4.6694 Y2.5808
X4.6689 Y2.5811
X4.6663 Y2.5832
X4.666 Y2.5835
X4.6634 Y2.5857
X4.6631 Y2.5859
X4.6605 Y2.5882
X4.6603 Y2.5883
X4.6577 Y2.5907
X4.6574 Y2.5909
X4.6548 Y2.5933
X4.6522 Y2.5958
X4.6521
X4.6495 Y2.5983
X4.6469 Y2.6007
X4.6444 Y2.603
X4.6418 Y2.6053
X4.6392 Y2.6076
X4.6368 Y2.6096
X4.6344 Y2.6116
X4.632 Y2.6134
X4.6297 Y2.615
X4.6274 Y2.6166
X4.625 Y2.6181
X4.6226 Y2.6195
X4.6202 Y2.6207
X4.6178 Y2.6219
X4.6154 Y2.623
X4.613 Y2.6239
X4.6105 Y2.6248
X4.6081 Y2.6256
X4.6056 Y2.6263
X4.603 Y2.6269
X4.6004 Y2.6274
X4.5978 Y2.6279
X4.5952 Y2.6282
X4.5925 Y2.6285
X4.5898 Y2.6286
X4.5869 Y2.6287
X4.584
X4.5811 Y2.6286
X4.5781 Y2.6284
X4.575 Y2.6281
X4.5719 Y2.6277
X4.5687 Y2.6271
X4.5653 Y2.6265
X4.562 Y2.6259
X4.5585 Y2.6251
X4.5551 Y2.6242
X4.5517 Y2.6232
X4.5482 Y2.6221
X4.5446 Y2.6209
X4.5411 Y2.6196
X4.5376 Y2.6182
X4.5341 Y2.6167
X4.5306 Y2.6152
X4.5271 Y2.6134
X4.5236 Y2.6116
X4.5201 Y2.6097
X4.5166 Y2.6077
X4.5133 Y2.6056
X4.5099 Y2.6033
X4.5066 Y2.601
X4.5033 Y2.5985
X4.5001 Y2.596
X4.4969 Y2.5933
X4.4938 Y2.5905
X4.4908 Y2.5876
X4.4878 Y2.5846
X4.4849 Y2.5815
X4.4821 Y2.5783
X4.4793 Y2.575
X4.4766 Y2.5715
X4.474 Y2.5681
X4.4715 Y2.5644
X4.469 Y2.5606
X4.4666 Y2.5568
X4.4643 Y2.5529
X4.462 Y2.5489
X4.4599 Y2.5448
X4.4578 Y2.5406
X4.4558 Y2.5364
X4.4539 Y2.532
X4.452 Y2.5276
X4.4503 Y2.5232
X4.4486 Y2.5186
X4.447 Y2.514
X4.4455 Y2.5094
X4.4441 Y2.5047
X4.4428 Y2.4999
X4.4416 Y2.4951
X4.4404 Y2.4901
X4.4393 Y2.4852
X4.4383 Y2.4802
X4.4373 Y2.4751
X4.4364 Y2.4701
X4.4355 Y2.4651
X4.4346 Y2.46
X4.4337 Y2.4549
X4.4328 Y2.4499
Y2.4497
X4.4319 Y2.4448
X4.4311 Y2.4399
X4.431 Y2.4397
X4.4301 Y2.435
Y2.4349
X4.4292 Y2.4302
X4.4291 Y2.4298
X4.4281 Y2.4252
Y2.425
X4.4271 Y2.4205
X4.427 Y2.4202
X4.4259 Y2.4159
X4.4258 Y2.4153
X4.4246 Y2.4111
X4.4245 Y2.4108
X4.4233 Y2.4067
X4.4231 Y2.4062
X4.4218 Y2.4023
X4.4215 Y2.4016
X4.4201 Y2.3979
X4.4198 Y2.3971
X4.4183 Y2.3935
X4.4179 Y2.3927
X4.4162 Y2.3894
X4.4157 Y2.3885
X4.414 Y2.3853
X4.4134 Y2.3844
X4.4115 Y2.3815
X4.4107 Y2.3803
X4.4086 Y2.3775
X4.4078 Y2.3765
X4.4055 Y2.3739
X4.4048 Y2.3731
X4.4024 Y2.3706
X4.4015 Y2.3698
X4.3989 Y2.3674
X4.3982 Y2.3669
X4.3955 Y2.3646
X4.3947 Y2.364
X4.3917 Y2.3618
X4.3911 Y2.3613
X4.388 Y2.3593
X4.3873 Y2.3588
X4.384 Y2.3568
X4.3835 Y2.3565
X4.3802 Y2.3546
X4.3796 Y2.3543
X4.3761 Y2.3525
X4.3756 Y2.3522
X4.372 Y2.3505
X4.3715 Y2.3503
X4.3678 Y2.3486
X4.3674 Y2.3484
X4.3636 Y2.3468
X4.3632 Y2.3466
X4.3593 Y2.345
X4.359 Y2.3449
X4.3549 Y2.3433
X4.3547
X4.3506 Y2.3418
X4.3504 Y2.3417
X4.3462 Y2.3402
X4.346 Y2.3401
X4.3418 Y2.3387
X4.3416 Y2.3386
X4.3373 Y2.3372
X4.3372 Y2.3371
X4.3328 Y2.3357
X4.3284 Y2.3342
X4.3283
X4.3238 Y2.3328
X4.3194 Y2.3313
X4.3149 Y2.3298
X4.3104 Y2.3284
X4.306 Y2.3268
X4.3016 Y2.3253
X4.2973 Y2.3238
X4.293 Y2.3222
X4.2887 Y2.3206
X4.2845 Y2.319
X4.2804 Y2.3173
X4.2762 Y2.3156
X4.2722 Y2.3138
X4.2682 Y2.3121
X4.2643 Y2.3103
X4.2605 Y2.3084
X4.2568 Y2.3065
X4.2531 Y2.3046
X4.2495 Y2.3027
X4.2461 Y2.3007
X4.2427 Y2.2986
X4.2395 Y2.2966
X4.2364 Y2.2945
X4.2333 Y2.2923
X4.2304 Y2.2902
X4.2277 Y2.288
X4.2249 Y2.2857
X4.2224 Y2.2834
X4.2199 Y2.2811
X4.2176 Y2.2787
X4.2153 Y2.2762
X4.2131 Y2.2738
X4.211 Y2.2714
X4.2089 Y2.2688
X4.2069 Y2.2664
X4.205 Y2.2639
X4.2031 Y2.2614
X4.2012 Y2.2589
X4.1995 Y2.2565
X4.1994 Y2.2563
X4.1976 Y2.2538
X4.1959 Y2.2515
X4.1943 Y2.2492
X4.1941 Y2.2489
X4.1924 Y2.2466
X4.1923 Y2.2465
X4.1907 Y2.2443
X4.1906 Y2.2441
X4.1889 Y2.242
X4.1887 Y2.2416
X4.1871 Y2.2396
X4.1867 Y2.2392
X4.1851 Y2.2373
X4.1849 Y2.237
X4.1833 Y2.2352
X4.1828 Y2.2347
X4.1813 Y2.233
X4.1806 Y2.2323
X4.179 Y2.2308
X4.1783 Y2.2301
X4.1767 Y2.2287
X4.1758 Y2.2281
X4.1742 Y2.2268
X4.1735 Y2.2263
X4.1718 Y2.2251
X4.171 Y2.2246
X4.1693 Y2.2235
X4.1685 Y2.223
X4.1667 Y2.222
X4.1659 Y2.2215
X4.1641 Y2.2206
X4.1632 Y2.2202
X4.1613 Y2.2194
X4.1604 Y2.219
X4.1585 Y2.2183
X4.1575 Y2.218
X4.1556 Y2.2174
X4.1545 Y2.2171
X4.1525 Y2.2166
X4.1516 Y2.2164
X4.1496 Y2.216
X4.1486 Y2.2159
X4.1465 Y2.2156
X4.1455 Y2.2155
X4.1434 Y2.2153
X4.1424
X4.1403 Y2.2152
X4.1393
X4.1371 Y2.2153
X4.1362
X4.134 Y2.2155
X4.133 Y2.2156
X4.1308 Y2.2158
X4.1299 Y2.216
X4.1276 Y2.2164
X4.1267 Y2.2166
X4.1244 Y2.2171
X4.1236 Y2.2173
X4.1213 Y2.2179
X4.1204 Y2.2182
X4.118 Y2.219
X4.1174 Y2.2192
X4.115 Y2.2201
X4.1142 Y2.2204
X4.1117 Y2.2214
X4.1111 Y2.2217
X4.1086 Y2.2228
X4.108 Y2.2231
X4.1055 Y2.2244
X4.1048 Y2.2248
X4.1023 Y2.2262
X4.1017 Y2.2266
X4.0991 Y2.2281
X4.0985 Y2.2285
X4.0959 Y2.2302
X4.0956 Y2.2304
X4.0929 Y2.2323
X4.0925 Y2.2325
X4.0898 Y2.2345
X4.0895 Y2.2347
X4.0867 Y2.2368
X4.0866 Y2.2369
X4.0837 Y2.2391
X4.0835 Y2.2392
X4.0806 Y2.2415
X4.0805 Y2.2416
X4.0775 Y2.2439
X4.0745 Y2.2463
X4.0744 Y2.2464
X4.0713 Y2.2488
X4.0682 Y2.2513
X4.065 Y2.2537
X4.0618 Y2.2562
X4.0586 Y2.2587
X4.0553 Y2.2611
X4.0519 Y2.2635
X4.0486 Y2.2658
X4.0451 Y2.2681
X4.0416 Y2.2703
X4.0381 Y2.2724
X4.0345 Y2.2745
X4.0309 Y2.2764
X4.0272 Y2.2783
X4.0234 Y2.28
X4.0196 Y2.2817
X4.0157 Y2.2832
X4.0117 Y2.2846
X4.0078 Y2.2859
X4.0037 Y2.2871
X3.9997 Y2.2882
X3.9956 Y2.2892
X3.9915 Y2.29
X3.9874 Y2.2907
X3.9834 Y2.2913
X3.9793 Y2.2917
X3.9752 Y2.2921
X3.9712 Y2.2922
X3.9673 Y2.2923
X3.9634 Y2.2922
X3.9595 Y2.292
X3.9557 Y2.2917
X3.952 Y2.2912
X3.9484 Y2.2906
X3.9448 Y2.2899
X3.9414 Y2.2891
X3.9381 Y2.2881
X3.9348 Y2.287
X3.9317 Y2.2858
X3.9287 Y2.2844
X3.9258 Y2.2829
X3.9229 Y2.2813
X3.92 Y2.2796
X3.9172 Y2.2779
X3.9144 Y2.276
X3.9117 Y2.2741
X3.9091 Y2.2721
X3.9065 Y2.2701
X3.9039 Y2.2681
X3.9014 Y2.2661
X3.8989 Y2.264
X3.8965 Y2.2619
X3.894 Y2.2599
X3.8916 Y2.2579
X3.8915 Y2.2578
X3.8892 Y2.2559
X3.889 Y2.2558
X3.8868 Y2.254
X3.8865 Y2.2537
X3.8843 Y2.2521
X3.884 Y2.2518
X3.8818 Y2.2502
X3.8813 Y2.2499
X3.8793 Y2.2485
X3.8786 Y2.248
X3.8765 Y2.2468
X3.8757 Y2.2463
X3.8737 Y2.2452
X3.8726 Y2.2446
X3.8707 Y2.2437
X3.8695 Y2.2432
X3.8675 Y2.2424
X3.8664 Y2.242
X3.8644 Y2.2414
X3.8633 Y2.2411
X3.8612 Y2.2406
X3.8601 Y2.2404
X3.8581 Y2.24
X3.8569 Y2.2398
X3.8548 Y2.2396
X3.8538 Y2.2395
X3.8517 Y2.2393
X3.8506
X3.8485
X3.8474
X3.8453 Y2.2394
X3.8443 Y2.2395
X3.8421 Y2.2397
X3.8412 Y2.2398
X3.839 Y2.2402
X3.8381 Y2.2403
X3.8359 Y2.2408
X3.835 Y2.241
X3.8328 Y2.2415
X3.832 Y2.2418
X3.8298 Y2.2424
X3.829 Y2.2427
X3.8268 Y2.2435
X3.826 Y2.2438
X3.8238 Y2.2446
X3.8231 Y2.2449
X3.8209 Y2.2459
X3.8202 Y2.2463
X3.818 Y2.2473
X3.8174 Y2.2477
X3.8152 Y2.2489
X3.8146 Y2.2492
X3.8124 Y2.2505
X3.8119 Y2.2509
X3.8097 Y2.2523
X3.8091 Y2.2526
X3.807 Y2.2541
X3.8065 Y2.2545
X3.8043 Y2.2561
X3.8039 Y2.2564
X3.8017 Y2.2581
X3.8013 Y2.2585
X3.7992 Y2.2603
X3.7987 Y2.2607
X3.7966 Y2.2626
X3.7962 Y2.2629
X3.7942 Y2.2649
X3.7938 Y2.2653
X3.7918 Y2.2673
X3.7915 Y2.2676
X3.7895 Y2.2698
X3.7892 Y2.2701
X3.7872 Y2.2723
X3.787 Y2.2726
X3.785 Y2.2749
X3.7848 Y2.2751
X3.7828 Y2.2775
X3.7826 Y2.2777
X3.7806 Y2.2802
X3.7805 Y2.2803
X3.7785 Y2.2828
X3.7784 Y2.283
X3.7763 Y2.2856
X3.7762 Y2.2857
X3.7742 Y2.2883
X3.7741 Y2.2884
X3.772 Y2.2912
X3.7699 Y2.294
X3.7677 Y2.2968
X3.7655 Y2.2997
X3.7632 Y2.3026
X3.7609 Y2.3056
X3.7586 Y2.3086
X3.7562 Y2.3115
X3.7537 Y2.3146
X3.7512 Y2.3176
X3.7486 Y2.3207
X3.7459 Y2.3238
X3.7432 Y2.3269
X3.7403 Y2.3301
X3.7374 Y2.3332
X3.7344 Y2.3363
X3.7313 Y2.3394
X3.7282 Y2.3425
X3.7251 Y2.3457
X3.7219 Y2.3488
X3.7186 Y2.352
X3.7153 Y2.3551
X3.712 Y2.3583
X3.7086 Y2.3615
X3.7052 Y2.3648
X3.7017 Y2.368
Y2.3681
X3.6983 Y2.3713
Y2.3714
X3.6948 Y2.3747
X3.6913 Y2.3781
X3.6878 Y2.3815
X3.6877 Y2.3816
X3.6843 Y2.385
X3.6842 Y2.3851
X3.6808 Y2.3885
X3.6807 Y2.3886
X3.6773 Y2.3921
X3.6772 Y2.3922
X3.6738 Y2.3957
X3.6737 Y2.3958
X3.6703 Y2.3994
X3.6702 Y2.3996
X3.6668 Y2.4032
X3.6667 Y2.4034
X3.6634 Y2.407
X3.6632 Y2.4072
X3.66 Y2.4109
X3.6598 Y2.4111
X3.6566 Y2.4149
X3.6565 Y2.4151
X3.6533 Y2.4189
X3.6532 Y2.419
X3.65 Y2.4229
X3.6499 Y2.423
X3.6468 Y2.4269
X3.6467 Y2.4271
X3.6436 Y2.431
X3.6435 Y2.4311
X3.6405 Y2.435
X3.6404 Y2.4351
X3.6375 Y2.439
X3.6374 Y2.4391
X3.6345 Y2.443
X3.6344
X3.6315 Y2.4469
Y2.447
X3.6286 Y2.4508
Y2.4509
X3.6258 Y2.4547
X3.6257
X3.623 Y2.4585
X3.6202 Y2.4622
X3.6176 Y2.4659
X3.615 Y2.4695
X3.6124 Y2.4729
X3.6099 Y2.4763
X3.6075 Y2.4795
X3.6052 Y2.4827
X3.6029 Y2.4856
X3.6007 Y2.4885
X3.5985 Y2.4911
X3.5965 Y2.4936
X3.5945 Y2.4959
X3.5927 Y2.498
X3.5909 Y2.4999
X3.5891 Y2.5016
X3.5875 Y2.5031
X3.5859 Y2.5044
X3.5843 Y2.5055
X3.5828 Y2.5065
X3.5812 Y2.5073
X3.5795 Y2.5081
X3.5778 Y2.5087
X3.576 Y2.5092
X3.5741 Y2.5096
X3.5719 Y2.5099
X3.5696 Y2.5101
X3.5669 Y2.5102
X3.564
X3.5609 Y2.51
X3.5574 Y2.5096
X3.5536 Y2.5091
X3.5494 Y2.5085
X3.545 Y2.5077
X3.5402 Y2.5068
X3.5351 Y2.5058
X3.5297 Y2.5046
X3.524 Y2.5033
X3.5179 Y2.5018
X3.5116 Y2.5003
X3.505 Y2.4985
X3.4981 Y2.4967
X3.491 Y2.4947
X3.4838 Y2.4927
X3.4763 Y2.4905
X3.4687 Y2.4881
X3.4609 Y2.4857
X3.453 Y2.4831
X3.445 Y2.4805
X3.437 Y2.4777
X3.4288 Y2.4748
X3.4206 Y2.4719
X3.4124 Y2.4688
X3.4042 Y2.4656
X3.3959 Y2.4623
X3.3878 Y2.459
X3.3796 Y2.4555
X3.3715 Y2.452
X3.3679 Y2.4503
X3.367 Y2.4501
X3.366 Y2.4502
X3.3652 Y2.4508
X3.3643 Y2.4513
X3.3633 Y2.4514
X3.3624 Y2.4512
X3.3622
X3.3543 Y2.4474
X3.3465 Y2.4436
X3.3389 Y2.4397
X3.3313 Y2.4357
X3.3239 Y2.4317
X3.3166 Y2.4276
X3.3095 Y2.4234
X3.3025 Y2.4191
X3.2956 Y2.4148
X3.2889 Y2.4105
X3.2823 Y2.4061
X3.2759 Y2.4016
X3.2696 Y2.3971
X3.2634 Y2.3925
X3.2575 Y2.3879
X3.2516 Y2.3833
X3.2459 Y2.3786
X3.2404 Y2.3739
X3.2351 Y2.3691
X3.2299 Y2.3644
X3.2249 Y2.3596
X3.22 Y2.3548
X3.2153 Y2.35
X3.2108 Y2.3452
X3.2065 Y2.3404
X3.2023 Y2.3355
X3.1983 Y2.3307
X3.1944 Y2.3259
X3.1907 Y2.321
X3.1871 Y2.3162
X3.1837 Y2.3113
X3.1803 Y2.3065
X3.1771 Y2.3016
X3.1739 Y2.2968
X3.1708 Y2.2919
X3.1678 Y2.287
X3.1649 Y2.2822
X3.162 Y2.2773
X3.1591 Y2.2724
X3.1563 Y2.2675
X3.1535 Y2.2627
X3.1507 Y2.2578
X3.1479 Y2.253
X3.145 Y2.2481
X3.1422 Y2.2433
X3.1421 Y2.2432
X3.1393 Y2.2384
Y2.2383
X3.1364 Y2.2336
X3.1363 Y2.2335
X3.1334 Y2.2288
X3.1333 Y2.2287
X3.1304 Y2.224
X3.1303 Y2.2238
X3.1273 Y2.2192
X3.1271 Y2.2191
X3.1241 Y2.2145
X3.1239 Y2.2143
X3.1208 Y2.2098
X3.1206 Y2.2095
X3.1174 Y2.2051
X3.1172 Y2.2048
X3.1138 Y2.2004
X3.1136 Y2.2001
X3.1101 Y2.1957
X3.1099 Y2.1954
X3.1063 Y2.1911
X3.106 Y2.1908
X3.1023 Y2.1865
X3.102 Y2.1862
X3.098 Y2.182
X3.0977 Y2.1816
X3.0936 Y2.1775
X3.0933 Y2.1771
X3.089 Y2.1731
X3.0886 Y2.1727
X3.0841 Y2.1687
X3.0837 Y2.1684
X3.079 Y2.1645
X3.0786 Y2.1641
X3.0736 Y2.1603
X3.0732 Y2.16
X3.068 Y2.1562
X3.0676 Y2.1559
X3.0621 Y2.1522
X3.0617 Y2.1519
X3.0559 Y2.1483
X3.0555 Y2.148
X3.0494 Y2.1445
X3.049 Y2.1442
X3.0427 Y2.1408
X3.0422 Y2.1405
X3.0355 Y2.1372
X3.0351 Y2.137
X3.0281 Y2.1337
X3.0277 Y2.1335
X3.0203 Y2.1303
X3.0199 Y2.1302
X3.0122 Y2.1271
X3.0118 Y2.1269
X3.0037 Y2.124
X3.0033 Y2.1238
X2.9948 Y2.121
X2.9944 Y2.1208
X2.9856 Y2.1181
X2.9852 Y2.118
X2.976 Y2.1154
X2.9757 Y2.1153
X2.9662 Y2.1128
X2.9659 Y2.1127
X2.9562 Y2.1105
X2.9559 Y2.1104
X2.946 Y2.1083
X2.9457 Y2.1082
X2.9357 Y2.1063
X2.9353 Y2.1062
X2.9252 Y2.1045
X2.9248
X2.9146 Y2.103
X2.9142
X2.904 Y2.1018
X2.9036 Y2.1017
X2.8934 Y2.1008
X2.8931 Y2.1007
X2.8829 Y2.1
X2.8825
X2.8725 Y2.0996
X2.8721
X2.8622 Y2.0994
X2.8618
X2.8521 Y2.0995
X2.8516
X2.8422 Y2.0999
X2.8417
X2.8326 Y2.1006
X2.832 Y2.1007
X2.8232 Y2.1017
X2.8226 Y2.1018
X2.8142 Y2.1031
X2.8135 Y2.1032
X2.8055 Y2.1048
X2.8047 Y2.105
X2.7972 Y2.1069
X2.7963 Y2.1072
X2.7893 Y2.1094
X2.7882 Y2.1098
X2.7818 Y2.1124
X2.7806 Y2.113
X2.7748 Y2.1159
X2.7735 Y2.1166
X2.7683 Y2.1199
X2.7671 Y2.1207
X2.7624 Y2.1243
X2.7612 Y2.1253
X2.757 Y2.1292
X2.7559 Y2.1303
X2.7521 Y2.1345
X2.7512 Y2.1356
X2.7478 Y2.1402
X2.747 Y2.1413
X2.744 Y2.1463
X2.7433 Y2.1473
X2.7406 Y2.1526
X2.7401 Y2.1537
X2.7377 Y2.1594
X2.7374 Y2.1603
X2.7353 Y2.1663
X2.735 Y2.1672
X2.7333 Y2.1735
X2.7331 Y2.1742
X2.7316 Y2.1808
X2.7314 Y2.1815
X2.7302 Y2.1883
X2.7301 Y2.1889
X2.7292 Y2.196
X2.7291 Y2.1966
X2.7283 Y2.2039
Y2.2043
X2.7277 Y2.2119
Y2.2123
X2.7273 Y2.22
Y2.2203
X2.7271 Y2.2282
Y2.2285
X2.727 Y2.2365
Y2.2367
X2.7271 Y2.2449
Y2.2451
X2.7272 Y2.2534
Y2.2535
X2.7274 Y2.2619
X2.7275 Y2.262
X2.7277 Y2.2705
X2.728 Y2.279
X2.7284 Y2.2876
X2.7287 Y2.2961
X2.729 Y2.3046
X2.7293 Y2.3131
X2.7297 Y2.3215
X2.73 Y2.3298
X2.7301 Y2.3299
X2.7305 Y2.338
Y2.3382
X2.731 Y2.3462
Y2.3464
X2.7316 Y2.3542
Y2.3545
X2.7324 Y2.3622
Y2.3625
X2.7332 Y2.37
X2.7333 Y2.3703
X2.7342 Y2.3776
X2.7343 Y2.378
X2.7354 Y2.385
X2.7355 Y2.3854
X2.7367 Y2.3923
X2.7368 Y2.3927
X2.7382 Y2.3993
X2.7384 Y2.3998
X2.74 Y2.4061
X2.7401 Y2.4067
X2.7419 Y2.4128
X2.7421 Y2.4134
X2.7441 Y2.4192
X2.7444 Y2.4199
X2.7466 Y2.4254
X2.7469 Y2.4262
X2.7493 Y2.4313
X2.7498 Y2.4322
X2.7524 Y2.437
X2.7529 Y2.4379
X2.7558 Y2.4424
X2.7565 Y2.4434
X2.7596 Y2.4475
X2.7604 Y2.4486
X2.7638 Y2.4523
X2.7648 Y2.4533
X2.7684 Y2.4567
X2.7694 Y2.4576
X2.7728 Y2.4603
X2.7737 Y2.4609
X2.7774 Y2.4634
X2.7782 Y2.4639
X2.7821 Y2.4662
X2.783 Y2.4667
X2.7872 Y2.4687
X2.788 Y2.4691
X2.7924 Y2.471
X2.7932 Y2.4713
X2.7979 Y2.473
X2.7986 Y2.4733
X2.8036 Y2.4748
X2.8042 Y2.475
X2.8094 Y2.4763
X2.8099 Y2.4765
X2.8153 Y2.4777
X2.8158 Y2.4778
X2.8214 Y2.4788
X2.8219 Y2.4789
X2.8276 Y2.4797
X2.828 Y2.4798
X2.834 Y2.4806
X2.8344
X2.8405 Y2.4812
X2.8408 Y2.4813
X2.8471 Y2.4818
X2.8473
X2.8538 Y2.4822
X2.854
X2.8606 Y2.4825
X2.8608
X2.8674 Y2.4828
X2.8676
X2.8744 Y2.483
X2.8745
X2.8814 Y2.4831
X2.8815
X2.8885
X2.8886
X2.8957
X2.9028
X2.9029
X2.91
X2.9173 Y2.483
X2.9245
X2.9317 Y2.4829
X2.9389
X2.946
X2.9531 Y2.483
X2.9602 Y2.4831
X2.9671 Y2.4832
X2.974 Y2.4835
X2.9808 Y2.4838
X2.9874 Y2.4842
X2.9939 Y2.4847
X3.0003 Y2.4854
X3.0065 Y2.4862
X3.0125 Y2.4871
X3.0183 Y2.4882
X3.0239 Y2.4894
X3.0293 Y2.4908
X3.0344 Y2.4923
X3.0393 Y2.494
X3.0439 Y2.4959
X3.0481 Y2.4979
X3.052 Y2.5001
X3.0557 Y2.5025
X3.059 Y2.5052
X3.062 Y2.508
X3.0647 Y2.511
X3.0671 Y2.5142
X3.0691 Y2.5176
X3.0708 Y2.5212
X3.0721 Y2.5251
X3.0731 Y2.5292
X3.0737 Y2.5336
X3.0739 Y2.5395
X3.0736 Y2.5458
X3.0727 Y2.5525
X3.0714 Y2.5596
X3.0696 Y2.5671
X3.0674 Y2.5749
X3.0648 Y2.5831
X3.0618 Y2.5914
X3.0585 Y2.6
X3.055 Y2.6088
X3.0512 Y2.6177
X3.0473 Y2.6267
X3.0432 Y2.6358
X3.0389 Y2.6449
X3.0346 Y2.654
X3.0303 Y2.6631
X3.0259 Y2.6721
X3.0216 Y2.6811
X3.0174 Y2.6898
Y2.6899
X3.0132 Y2.6985
X3.0093 Y2.7069
X3.0092 Y2.707
X3.0055 Y2.7151
X3.0054 Y2.7153
X3.0019 Y2.7231
X3.0018 Y2.7233
X2.9986 Y2.7308
X2.9984 Y2.7311
X2.9955 Y2.7382
X2.9954 Y2.7385
X2.9928 Y2.7454
X2.9927 Y2.7457
X2.9903 Y2.7522
X2.9902 Y2.7525
X2.9881 Y2.7588
X2.988 Y2.7591
X2.9861 Y2.7651
X2.986 Y2.7654
X2.9843 Y2.7711
X2.9842 Y2.7714
X2.9827 Y2.7769
Y2.7772
X2.9813 Y2.7824
Y2.7827
X2.9801 Y2.7877
X2.98 Y2.788
X2.979 Y2.7928
Y2.793
X2.978 Y2.7977
Y2.7978
X2.9771 Y2.8023
Y2.8024
X2.9763 Y2.8067
Y2.8068
X2.9756 Y2.811
X2.9749 Y2.815
X2.9742 Y2.8188
X2.9735 Y2.8225
X2.9728 Y2.826
X2.972 Y2.8293
X2.9713 Y2.8325
X2.9704 Y2.8356
X2.9695 Y2.8386
X2.9685 Y2.8416
X2.9673 Y2.8445
X2.9661 Y2.8473
X2.9647 Y2.8501
X2.9632 Y2.8528
X2.9616 Y2.8554
X2.9598 Y2.858
X2.9579 Y2.8605
X2.9559 Y2.8629
X2.9538 Y2.8653
X2.9516 Y2.8675
X2.9492 Y2.8697
X2.9468 Y2.8717
X2.9443 Y2.8737
X2.9417 Y2.8755
X2.9389 Y2.8772
X2.9362 Y2.8788
X2.9333 Y2.8802
X2.9303 Y2.8815
X2.9273 Y2.8827
X2.9242 Y2.8837
X2.921 Y2.8846
X2.9178 Y2.8853
X2.9145 Y2.8858
X2.9111 Y2.8862
X2.9076 Y2.8864
X2.9041 Y2.8865
X2.9005 Y2.8863
X2.8968 Y2.886
X2.893 Y2.8856
X2.8891 Y2.8851
X2.8851 Y2.8845
X2.8811 Y2.8838
X2.8771 Y2.883
X2.873 Y2.8822
X2.8689 Y2.8814
X2.8647 Y2.8805
X2.8606 Y2.8797
X2.8605 Y2.8796
X2.8564 Y2.8788
X2.8563
X2.8522 Y2.878
X2.852
X2.848 Y2.8773
X2.8477 Y2.8772
X2.8437 Y2.8766
X2.8434 Y2.8765
X2.8394 Y2.876
X2.839 Y2.8759
X2.8351 Y2.8755
X2.8346
X2.8308 Y2.8752
X2.8302 Y2.8751
X2.8264 Y2.875
X2.8257
X2.822
X2.8212
X2.8176 Y2.8752
X2.8167 Y2.8753
X2.8131 Y2.8757
X2.8121 Y2.8758
X2.8086 Y2.8764
X2.8076 Y2.8766
X2.8041 Y2.8774
X2.8032 Y2.8777
X2.7997 Y2.8787
X2.7988 Y2.879
X2.7953 Y2.8803
X2.7946 Y2.8806
X2.7911 Y2.8821
X2.7904 Y2.8825
X2.787 Y2.8842
X2.7863 Y2.8846
X2.7829 Y2.8864
X2.7823 Y2.8868
X2.779 Y2.8889
X2.7784 Y2.8893
X2.7751 Y2.8916
X2.7746 Y2.892
X2.7714 Y2.8944
X2.7709 Y2.8948
X2.7678 Y2.8974
X2.7673 Y2.8979
X2.7643 Y2.9006
X2.7638 Y2.9011
X2.761 Y2.9039
X2.7605 Y2.9044
X2.7578 Y2.9074
X2.7573 Y2.9079
X2.7547 Y2.911
X2.7543 Y2.9115
X2.7518 Y2.9148
X2.7514 Y2.9153
X2.749 Y2.9187
X2.7486 Y2.9192
X2.7464 Y2.9227
X2.746 Y2.9233
X2.744 Y2.9268
X2.7437 Y2.9274
X2.7418 Y2.931
X2.7414 Y2.9317
X2.7397 Y2.9354
X2.7394 Y2.9361
X2.7379 Y2.9398
X2.7376 Y2.9405
X2.7363 Y2.9443
X2.7361 Y2.9451
X2.7349 Y2.949
X2.7347 Y2.9497
X2.7338 Y2.9536
X2.7336 Y2.9545
X2.7329 Y2.9584
X2.7328 Y2.9592
X2.7323 Y2.9632
X2.7322 Y2.964
X2.732 Y2.968
X2.7319 Y2.9688
X2.7318 Y2.9728
Y2.9736
X2.732 Y2.9777
Y2.9785
X2.7323 Y2.9826
X2.7324 Y2.9833
X2.7329 Y2.9875
X2.733 Y2.9882
X2.7337 Y2.9924
X2.7338 Y2.9931
X2.7347 Y2.9973
X2.7349 Y2.9979
X2.736 Y3.0022
X2.7361 Y3.0028
X2.7374 Y3.0071
X2.7376 Y3.0077
X2.7391 Y3.012
X2.7393 Y3.0125
X2.7409 Y3.0168
X2.7411 Y3.0173
X2.743 Y3.0217
X2.7432 Y3.0222
X2.7452 Y3.0265
X2.7455 Y3.027
X2.7477 Y3.0314
X2.7479 Y3.0318
X2.7503 Y3.0361
X2.7505 Y3.0366
X2.7531 Y3.0409
X2.7533 Y3.0413
X2.756 Y3.0457
X2.7563 Y3.046
X2.7592 Y3.0504
X2.7594 Y3.0507
X2.7625 Y3.0551
X2.7627 Y3.0554
X2.766 Y3.0597
X2.7662 Y3.0601
X2.7697 Y3.0644
X2.7699 Y3.0647
X2.7735 Y3.0689
X2.7737 Y3.0692
X2.7775 Y3.0735
X2.7777 Y3.0738
X2.7816 Y3.078
X2.7818 Y3.0782
X2.7859 Y3.0824
X2.7861 Y3.0827
X2.7903 Y3.0868
X2.7905 Y3.087
X2.7948 Y3.0912
X2.795 Y3.0914
X2.7994 Y3.0955
X2.7996 Y3.0957
X2.8041 Y3.0998
X2.8043 Y3.0999
X2.8089 Y3.104
X2.8091 Y3.1041
X2.8138 Y3.1082
X2.814 Y3.1083
X2.8188 Y3.1123
X2.8189 Y3.1124
X2.8238 Y3.1164
X2.8239 Y3.1165
X2.8289 Y3.1205
X2.829 Y3.1206
X2.834 Y3.1245
X2.8341 Y3.1246
X2.8392 Y3.1285
X2.8393 Y3.1286
X2.8444 Y3.1325
X2.8445
X2.8496 Y3.1364
X2.8497 Y3.1365
X2.8548 Y3.1403
X2.8549
X2.8601 Y3.1442
X2.8653 Y3.148
X2.8705 Y3.1518
X2.8757 Y3.1555
X2.8808 Y3.1592
X2.886 Y3.1629
X2.891 Y3.1665
X2.896 Y3.1701
X2.901 Y3.1737
X2.9059 Y3.1772
X2.9107 Y3.1806
X2.9108 Y3.1807
X2.9156 Y3.184
X2.9157 Y3.1841
X2.9204 Y3.1873
X2.9205 Y3.1874
X2.9252 Y3.1905
X2.9254 Y3.1906
X2.93 Y3.1936
X2.9302 Y3.1937
X2.9348 Y3.1966
X2.935 Y3.1968
X2.9396 Y3.1996
X2.9399 Y3.1997
X2.9445 Y3.2024
X2.9448 Y3.2025
X2.9493 Y3.205
X2.9497 Y3.2052
X2.9543 Y3.2076
X2.9547 Y3.2078
X2.9592 Y3.21
X2.9597 Y3.2102
X2.9642 Y3.2122
X2.9647 Y3.2124
X2.9693 Y3.2143
X2.9699 Y3.2145
X2.9745 Y3.2161
X2.975 Y3.2163
X2.9797 Y3.2178
X2.9803 Y3.218
X2.985 Y3.2193
X2.9857 Y3.2195
X2.9904 Y3.2206
X2.9911 Y3.2207
X2.9959 Y3.2216
X2.9966 Y3.2217
X3.0015 Y3.2224
X3.0022
X3.0071 Y3.2229
X3.0079
X3.0129 Y3.2231
X3.0136
X3.0187
X3.0194 Y3.223
X3.0246 Y3.2227
X3.0253
X3.0306 Y3.2221
X3.0313
X3.0366 Y3.2213
X3.0373 Y3.2212
X3.0427 Y3.2201
X3.0433 Y3.22
X3.0488 Y3.2187
X3.0494 Y3.2185
X3.0549 Y3.217
X3.0555 Y3.2168
X3.0611 Y3.215
X3.0617 Y3.2149
X3.0673 Y3.2128
X3.0678 Y3.2126
X3.0735 Y3.2103
X3.074 Y3.2101
X3.0797 Y3.2076
X3.0802 Y3.2073
X3.0858 Y3.2045
X3.0863 Y3.2043
X3.092 Y3.2012
X3.0924 Y3.201
X3.0981 Y3.1977
X3.0985 Y3.1974
X3.1041 Y3.1939
X3.1046 Y3.1936
X3.1102 Y3.1898
X3.1106 Y3.1894
X3.1161 Y3.1854
X3.1165 Y3.1851
X3.122 Y3.1808
X3.1224 Y3.1804
X3.1278 Y3.1759
X3.1282 Y3.1755
X3.1335 Y3.1707
X3.1339 Y3.1703
X3.1392 Y3.1653
X3.1395 Y3.1649
X3.1447 Y3.1596
X3.145 Y3.1592
X3.1501 Y3.1536
X3.1504 Y3.1532
X3.1553 Y3.1473
X3.1557 Y3.1469
X3.1605 Y3.1408
X3.1608 Y3.1405
X3.1655 Y3.1341
X3.1657 Y3.1338
X3.1703 Y3.1272
X3.1705 Y3.1269
X3.175 Y3.1201
X3.1752 Y3.1198
X3.1796 Y3.1128
X3.1798 Y3.1126
X3.1841 Y3.1055
X3.1842 Y3.1052
X3.1885 Y3.098
X3.1886 Y3.0978
X3.1927 Y3.0905
X3.1928 Y3.0903
X3.1969 Y3.0829
X3.197 Y3.0827
X3.201 Y3.0753
X3.2011 Y3.0752
X3.2051 Y3.0677
Y3.0676
X3.209 Y3.0601
X3.2091 Y3.06
X3.2129 Y3.0526
X3.2168 Y3.0451
X3.2206 Y3.0378
X3.2244 Y3.0306
X3.2281 Y3.0235
X3.2319 Y3.0166
X3.2356 Y3.0099
X3.2392 Y3.0035
X3.2429 Y2.9973
X3.2466 Y2.9914
X3.2502 Y2.9858
X3.2538 Y2.9806
X3.2574 Y2.9757
X3.261 Y2.9712
X3.2647 Y2.9671
X3.2683 Y2.9633
X3.272 Y2.9599
X3.2757 Y2.9569
X3.2795 Y2.9542
X3.2833 Y2.9519
X3.2872 Y2.9499
X3.2912 Y2.9482
X3.2953 Y2.9468
X3.2996 Y2.9458
X3.304 Y2.9451
X3.3086 Y2.9446
X3.3134 Y2.9445
X3.3185 Y2.9448
X3.3239 Y2.9453
X3.3295 Y2.9462
X3.3354 Y2.9475
X3.3416 Y2.9491
X3.3482 Y2.951
X3.3549 Y2.9533
X3.362 Y2.956
X3.3694 Y2.959
X3.3771 Y2.9624
X3.3851 Y2.9661
X3.3934 Y2.9702
X3.4019 Y2.9745
X3.4107 Y2.9791
X3.4196 Y2.9839
X3.4286 Y2.989
X3.4377 Y2.9943
X3.447 Y2.9998
X3.4563 Y3.0054
X3.4656 Y3.0112
X3.4749 Y3.017
X3.4841 Y3.023
X3.4933 Y3.0291
X3.5024 Y3.0352
X3.5114 Y3.0413
X3.5203 Y3.0475
X3.529 Y3.0536
X3.5374 Y3.0598
X3.5457 Y3.0658
X3.5536 Y3.0718
X3.5613 Y3.0777
X3.5687 Y3.0834
X3.5757 Y3.089
X3.5823 Y3.0945
X3.5885 Y3.0998
X3.5944 Y3.1049
X3.5999 Y3.1099
X3.6051 Y3.1147
X3.6099 Y3.1195
X3.6144 Y3.1241
X3.6186 Y3.1286
X3.6224 Y3.133
X3.626 Y3.1372
X3.6292 Y3.1414
X3.6321 Y3.1455
X3.6347 Y3.1494
X3.637 Y3.1533
X3.6391 Y3.1571
X3.6409 Y3.1607
X3.6425 Y3.1644
X3.6438 Y3.1679
X3.6449 Y3.1714
X3.6457 Y3.1748
X3.6464 Y3.1782
X3.6469 Y3.1816
X3.6472 Y3.185
Y3.1884
Y3.1919
X3.6469 Y3.1954
X3.6465 Y3.1989
X3.6459 Y3.2024
X3.6451 Y3.2059
X3.6442 Y3.2094
X3.6432 Y3.2128
X3.642 Y3.2162
X3.6407 Y3.2194
X3.6393 Y3.2226
X3.6377 Y3.2257
X3.636 Y3.2286
X3.6343 Y3.2315
X3.6324 Y3.2341
X3.6304 Y3.2367
X3.6284 Y3.239
X3.6262 Y3.2412
X3.624 Y3.2433
X3.6218 Y3.2451
X3.6194 Y3.2468
X3.6171 Y3.2482
X3.6147 Y3.2495
X3.6122 Y3.2506
X3.6097 Y3.2515
X3.6072 Y3.2522
X3.6047 Y3.2527
X3.6021 Y3.253
X3.5994 Y3.2531
X3.5966
X3.5937 Y3.253
X3.5907 Y3.2528
X3.5876 Y3.2524
X3.5844 Y3.2521
X3.5811 Y3.2516
X3.5778 Y3.2511
X3.5743 Y3.2506
X3.5709 Y3.25
X3.5707
X3.5673 Y3.2495
X3.5671
X3.5636 Y3.249
X3.5633
X3.5598 Y3.2486
X3.5594
X3.5559 Y3.2483
X3.5554 Y3.2482
X3.5519 Y3.248
X3.5513
X3.5477 Y3.2479
X3.5471
X3.5435 Y3.248
X3.5428
X3.5391 Y3.2482
X3.5384 Y3.2483
X3.5347 Y3.2487
X3.5339 Y3.2488
X3.5301 Y3.2493
X3.5293 Y3.2495
X3.5254 Y3.2503
X3.5246 Y3.2505
X3.5207 Y3.2515
X3.52 Y3.2517
X3.5159 Y3.253
X3.5152 Y3.2532
X3.511 Y3.2547
X3.5104 Y3.255
X3.5062 Y3.2567
X3.5056 Y3.257
X3.5013 Y3.259
X3.5008 Y3.2592
X3.4965 Y3.2614
X3.496 Y3.2617
X3.4917 Y3.264
X3.4913 Y3.2643
X3.487 Y3.2669
X3.4865 Y3.2672
X3.4823 Y3.2699
X3.4819 Y3.2702
X3.4777 Y3.2731
X3.4772 Y3.2734
X3.4731 Y3.2765
X3.4727 Y3.2768
X3.4686 Y3.28
X3.4683 Y3.2803
X3.4643 Y3.2836
X3.4639 Y3.2839
X3.4601 Y3.2874
X3.4597 Y3.2878
X3.456 Y3.2913
X3.4556 Y3.2917
X3.452 Y3.2954
X3.4516 Y3.2958
X3.4482 Y3.2995
X3.4478 Y3.3
X3.4446 Y3.3038
X3.4442 Y3.3043
X3.4412 Y3.3082
X3.4408 Y3.3087
X3.438 Y3.3127
X3.4376 Y3.3132
X3.435 Y3.3172
X3.4346 Y3.3179
X3.4323 Y3.3219
X3.4319 Y3.3226
X3.4298 Y3.3267
X3.4294 Y3.3275
X3.4277 Y3.3315
X3.4273 Y3.3324
X3.4258 Y3.3365
X3.4255 Y3.3374
X3.4243 Y3.3414
X3.4241 Y3.3423
X3.4231 Y3.3464
X3.4229 Y3.3474
X3.4222 Y3.3515
X3.422 Y3.3524
X3.4216 Y3.3566
X3.4215 Y3.3575
X3.4213 Y3.3617
Y3.3626
X3.4214 Y3.3668
Y3.3678
X3.4217 Y3.3719
X3.4218 Y3.3729
X3.4224 Y3.3771
X3.4226 Y3.378
X3.4234 Y3.3822
X3.4236 Y3.3831
X3.4247 Y3.3873
X3.425 Y3.3882
X3.4264 Y3.3924
X3.4267 Y3.3932
X3.4283 Y3.3974
X3.4286 Y3.3982
X3.4305 Y3.4023
X3.4309 Y3.4031
X3.4331 Y3.4073
X3.4335 Y3.4079
X3.4359 Y3.4121
X3.4363 Y3.4128
X3.439 Y3.4169
X3.4394 Y3.4175
X3.4424 Y3.4216
X3.4428 Y3.4222
X3.4461 Y3.4263
X3.4465 Y3.4268
