(1001)
(T1  D=0.0312 CR=0. - ZMIN=0. - FLAT END MILL)
G0 G90 G94 G17
G20
G53 G0 Z0.

(2D CONTOUR3)
M5
T1
S12000 M3
G4 P4.
G55
M8
G0 X3.8733 Y2.8405
Z0.6625
Z0.2625
G1 Z0.1319 F1.8
Z0.0356
X3.8734 Y2.8407 Z0.0344 F14.2
X3.8737 Y2.8413 Z0.0334
X3.8741 Y2.8422 Z0.0327
X3.8746 Y2.8433 Z0.0325
X3.876 Y2.8461
X3.8763 Y2.8473
X3.8761 Y2.8485
X3.8755 Y2.8495
X3.8745 Y2.8503
X3.8656 Y2.8546
X3.8548 Y2.8597
X3.8439 Y2.8646
X3.8328 Y2.8693
X3.8218 Y2.8738
X3.8106 Y2.8782
X3.7994 Y2.8824
X3.7881 Y2.8865
X3.7768 Y2.8903
X3.7654 Y2.8939
X3.7541 Y2.8974
X3.7427 Y2.9007
X3.7314 Y2.9037
X3.7201 Y2.9066
X3.7088 Y2.9092
X3.6975 Y2.9117
X3.6863 Y2.9139
X3.6752 Y2.9159
X3.6642 Y2.9177
X3.6532 Y2.9192
X3.6424 Y2.9205
X3.6317 Y2.9216
X3.6211 Y2.9225
X3.6106 Y2.9231
X3.6003 Y2.9235
X3.5902 Y2.9236
X3.5802 Y2.9235
X3.5704 Y2.9232
X3.5608 Y2.9227
X3.5514 Y2.9218
X3.5423 Y2.9208
X3.5334 Y2.9195
X3.5249 Y2.9179
X3.5168 Y2.9161
X3.509 Y2.9141
X3.5016 Y2.9117
X3.4946 Y2.9092
X3.4881 Y2.9064
X3.482 Y2.9034
X3.4766 Y2.9002
X3.4716 Y2.8968
X3.4673 Y2.8931
X3.4634 Y2.8893
X3.4601 Y2.8852
X3.4574 Y2.881
X3.4552 Y2.8767
X3.4536 Y2.8721
X3.4525 Y2.8674
X3.452 Y2.8625
X3.4521 Y2.8571
X3.4529 Y2.8512
X3.4543 Y2.8448
X3.4564 Y2.8381
X3.459 Y2.831
X3.4622 Y2.8236
X3.466 Y2.8159
X3.4702 Y2.808
X3.4748 Y2.7998
X3.4797 Y2.7914
X3.4849 Y2.7828
X3.4902 Y2.774
X3.4957 Y2.7652
X3.5013 Y2.7562
X3.5069 Y2.7472
X3.507
X3.5125 Y2.7382
X3.5126 Y2.738
X3.518 Y2.7291
X3.5181 Y2.7289
X3.5233 Y2.72
X3.5235 Y2.7198
X3.5285 Y2.7109
X3.5287 Y2.7106
X3.5334 Y2.7019
X3.5336 Y2.7015
X3.538 Y2.6929
X3.5382 Y2.6924
X3.5422 Y2.6839
X3.5425 Y2.6833
X3.546 Y2.675
X3.5463 Y2.6742
X3.5494 Y2.6661
X3.5497 Y2.6652
X3.5521 Y2.6573
X3.5524 Y2.6562
X3.5543 Y2.6485
X3.5545 Y2.6473
X3.5559 Y2.6399
X3.556 Y2.6387
X3.5568 Y2.6313
X3.5569 Y2.6301
X3.5572 Y2.6229
Y2.6217
X3.5571 Y2.6147
X3.557 Y2.6135
X3.5565 Y2.6066
X3.5564 Y2.6055
X3.5554 Y2.5987
X3.5552 Y2.5976
X3.5539 Y2.5909
X3.5537 Y2.59
X3.5521 Y2.5834
X3.5518 Y2.5825
X3.5499 Y2.576
X3.5496 Y2.5753
X3.5474 Y2.5688
X3.5471 Y2.5682
X3.5447 Y2.5619
X3.5444 Y2.5613
X3.5417 Y2.555
X3.5415 Y2.5545
X3.5386 Y2.5484
X3.5384 Y2.5479
X3.5354 Y2.5419
X3.5352 Y2.5415
X3.532 Y2.5356
X3.5318 Y2.5353
X3.5286 Y2.5294
X3.5285 Y2.5291
X3.5251 Y2.5233
X3.525 Y2.5232
X3.5217 Y2.5174
X3.5216 Y2.5173
X3.5183 Y2.5116
X3.5149 Y2.5059
X3.5116 Y2.5004
X3.5085 Y2.495
X3.5055 Y2.4897
X3.5027 Y2.4845
X3.5001 Y2.4794
X3.4976 Y2.4745
X3.4954 Y2.4696
X3.4933 Y2.4649
X3.4913 Y2.4602
X3.4896 Y2.4557
X3.488 Y2.4512
X3.4865 Y2.447
X3.4853 Y2.4428
X3.4842 Y2.4387
X3.4833 Y2.4348
X3.4825 Y2.431
X3.482 Y2.4273
X3.4815 Y2.4238
X3.4812 Y2.4204
X3.4811 Y2.4172
Y2.4141
X3.4813 Y2.4112
X3.4816 Y2.4083
X3.482 Y2.4057
X3.4825 Y2.4031
X3.4832 Y2.4007
X3.484 Y2.3984
X3.4848 Y2.3963
X3.4858 Y2.3944
X3.4868 Y2.3926
X3.488 Y2.3909
X3.4893 Y2.3893
X3.4906 Y2.3879
X3.4921 Y2.3866
X3.4937 Y2.3853
X3.4954 Y2.3842
X3.4972 Y2.3832
X3.4992 Y2.3823
X3.5014 Y2.3814
X3.5038 Y2.3807
X3.5064 Y2.3801
X3.5092 Y2.3796
X3.5122 Y2.3792
X3.5154 Y2.3789
X3.5188
X3.5224
X3.5263 Y2.3791
X3.5303 Y2.3795
X3.5345 Y2.3801
X3.5389 Y2.3808
X3.5435 Y2.3816
X3.5482 Y2.3827
X3.5532 Y2.3839
X3.5584 Y2.3853
X3.5638 Y2.3868
X3.5694 Y2.3884
X3.5751 Y2.3902
X3.5811 Y2.392
X3.5871 Y2.394
X3.5934 Y2.396
X3.5998 Y2.398
X3.6063 Y2.4001
X3.613 Y2.4022
X3.6131
X3.6198 Y2.4043
X3.6199
X3.6268 Y2.4064
X3.6269 Y2.4065
X3.6339 Y2.4085
X3.634 Y2.4086
X3.6411 Y2.4106
X3.6413
X3.6485 Y2.4126
X3.6487 Y2.4127
X3.6559 Y2.4145
X3.6562 Y2.4146
X3.6636 Y2.4164
X3.6638 Y2.4165
X3.6713 Y2.4182
X3.6716 Y2.4183
X3.6792 Y2.4199
X3.6795
X3.6872 Y2.4214
X3.6875 Y2.4215
X3.6953 Y2.4228
X3.6956 Y2.4229
X3.7035 Y2.424
X3.7039 Y2.4241
X3.7118 Y2.4251
X3.7122 Y2.4252
X3.7202 Y2.426
X3.7205 Y2.4261
X3.7286 Y2.4268
X3.7289
X3.737 Y2.4275
X3.7373
X3.7455 Y2.428
X3.7457
X3.7539 Y2.4284
X3.7541
X3.7623 Y2.4287
X3.7624
X3.7706 Y2.429
X3.7707
X3.7788 Y2.4292
X3.7789
X3.7869 Y2.4294
X3.787
X3.795 Y2.4295
X3.8028 Y2.4296
X3.8106 Y2.4298
X3.8182 Y2.43
X3.8256 Y2.4302
X3.8327 Y2.4304
X3.8397 Y2.4308
X3.8465 Y2.4312
X3.8529 Y2.4317
X3.8591 Y2.4323
X3.865 Y2.4331
X3.8706 Y2.4339
X3.8757 Y2.4349
X3.8805 Y2.436
X3.8849 Y2.4373
X3.8888 Y2.4387
X3.8925 Y2.4402
X3.896 Y2.4418
X3.8991 Y2.4435
X3.902 Y2.4453
X3.9048 Y2.4472
X3.9074 Y2.4493
X3.9099 Y2.4513
X3.9122 Y2.4535
X3.9145 Y2.4557
X3.9166 Y2.4579
X3.9187 Y2.4602
X3.9207 Y2.4625
X3.9227 Y2.4649
X3.9246 Y2.4672
X3.9266 Y2.4696
X3.9268 Y2.4698
X3.9287 Y2.4722
X3.9307 Y2.4744
X3.9311 Y2.4749
X3.933 Y2.477
X3.9334 Y2.4774
X3.9353 Y2.4794
X3.9358 Y2.4799
X3.9377 Y2.4818
X3.9387 Y2.4827
X3.9408 Y2.4844
X3.9415 Y2.485
X3.9436 Y2.4865
X3.9448 Y2.4874
X3.9471 Y2.4888
X3.9482 Y2.4894
X3.9506 Y2.4908
X3.9514 Y2.4912
X3.954 Y2.4924
X3.9549 Y2.4928
X3.9577 Y2.494
X3.9584 Y2.4943
X3.9614 Y2.4954
X3.962 Y2.4956
X3.9651 Y2.4966
X3.9657 Y2.4968
X3.969 Y2.4978
X3.9695 Y2.4979
X3.973 Y2.4989
X3.9733 Y2.499
X3.977 Y2.4999
X3.9772 Y2.5
X3.981 Y2.5009
X3.9813
X3.9853 Y2.5018
X3.9855 Y2.5019
X3.9895 Y2.5027
X3.9897 Y2.5028
X3.994 Y2.5036
X3.9984 Y2.5045
X4.0029 Y2.5054
X4.003
X4.0076 Y2.5063
X4.0123 Y2.5072
X4.0171 Y2.5081
X4.022 Y2.5091
X4.0269 Y2.5101
X4.0319 Y2.5112
X4.0369 Y2.5123
X4.0421 Y2.5135
X4.0473 Y2.5147
X4.0525 Y2.5161
X4.0578 Y2.5175
X4.0632 Y2.5189
X4.0687 Y2.5204
X4.0742 Y2.5218
Y2.5219
X4.0797 Y2.5233
X4.0799 Y2.5234
X4.0854 Y2.5248
X4.0856
X4.0911 Y2.5261
X4.0915 Y2.5262
X4.097 Y2.5274
X4.0973 Y2.5275
X4.1029 Y2.5286
X4.1034 Y2.5287
X4.1089 Y2.5297
X4.1094 Y2.5298
X4.115 Y2.5306
X4.1156 Y2.5307
X4.1212 Y2.5314
X4.1219
X4.1275 Y2.5319
X4.1282
X4.1339 Y2.5322
X4.1347
X4.1404
X4.1412
X4.147 Y2.532
X4.1479 Y2.5319
X4.1536 Y2.5314
X4.1546 Y2.5313
X4.1603 Y2.5305
X4.1613 Y2.5303
X4.1671 Y2.5292
X4.1682 Y2.529
X4.174 Y2.5275
X4.175 Y2.5273
X4.1809 Y2.5255
X4.1819 Y2.5251
X4.1878 Y2.5229
X4.1888 Y2.5225
X4.1948 Y2.5199
X4.1957 Y2.5195
X4.2017 Y2.5165
X4.2025 Y2.516
X4.2087 Y2.5126
X4.2095 Y2.5121
X4.2156 Y2.5083
X4.2162 Y2.5079
X4.2224 Y2.5037
X4.223 Y2.5032
X4.2292 Y2.4986
X4.2298 Y2.4982
X4.2359 Y2.4933
X4.2363 Y2.4929
X4.2424 Y2.4877
X4.2429 Y2.4873
X4.2489 Y2.4818
X4.2493 Y2.4814
X4.2552 Y2.4756
X4.2556 Y2.4753
X4.2613 Y2.4693
X4.2617 Y2.4689
X4.2673 Y2.4628
X4.2675 Y2.4625
X4.273 Y2.4562
X4.2733 Y2.4558
X4.2785 Y2.4495
X4.2788 Y2.4491
X4.2838 Y2.4427
X4.2842 Y2.4422
X4.2889 Y2.4357
X4.2892 Y2.4353
X4.2936 Y2.4288
X4.2939 Y2.4284
X4.2982 Y2.4219
X4.2985 Y2.4214
X4.3024 Y2.4149
X4.3026 Y2.4145
X4.3062 Y2.4082
X4.3066 Y2.4075
X4.3098 Y2.4013
X4.3101 Y2.4007
X4.3129 Y2.3946
X4.3132 Y2.3938
X4.3157 Y2.388
X4.316 Y2.387
X4.318 Y2.3814
X4.3184 Y2.3803
X4.3199 Y2.3749
X4.3202 Y2.3738
X4.3214 Y2.3687
X4.3216 Y2.3673
X4.3224 Y2.3624
X4.3225 Y2.3611
X4.3229 Y2.3564
X4.323 Y2.355
Y2.3504
Y2.3493
X4.3228 Y2.3449
X4.3227 Y2.3435
X4.3221 Y2.3392
X4.3219 Y2.3381
X4.3211 Y2.334
X4.3208 Y2.3327
X4.3198 Y2.3287
X4.3195 Y2.3277
X4.3182 Y2.3238
X4.3178 Y2.3227
X4.3164 Y2.3189
X4.3161 Y2.3183
X4.3145 Y2.3146
X4.3141 Y2.3137
X4.3123 Y2.31
X4.312 Y2.3095
X4.3101 Y2.3059
X4.3098 Y2.3054
X4.3077 Y2.3018
X4.3076 Y2.3015
X4.3054 Y2.298
X4.3053 Y2.2978
X4.3032 Y2.2943
X4.3031 Y2.2942
X4.3009 Y2.2907
X4.3008 Y2.2905
X4.2985 Y2.2871
X4.2964 Y2.2837
X4.2944 Y2.2804
X4.2924 Y2.2771
X4.2906 Y2.2739
X4.2889 Y2.2707
X4.2873 Y2.2676
X4.286 Y2.2646
X4.2849 Y2.2616
X4.284 Y2.2587
X4.2833 Y2.2558
X4.2828 Y2.2531
X4.2824 Y2.2503
X4.2822 Y2.2474
Y2.2448
X4.2824 Y2.2419
X4.2828 Y2.239
X4.2833 Y2.2362
X4.284 Y2.2332
X4.2849 Y2.2304
X4.286 Y2.2274
X4.2873 Y2.2243
X4.2888 Y2.2213
X4.2905 Y2.2182
X4.2925 Y2.215
X4.2947 Y2.2119
X4.2971 Y2.2086
X4.2997 Y2.2054
X4.3025 Y2.2022
X4.3056 Y2.1989
X4.309 Y2.1956
X4.3126 Y2.1922
X4.3163 Y2.1889
X4.3204 Y2.1855
X4.3246 Y2.182
X4.3289 Y2.1785
X4.3334 Y2.175
X4.3379 Y2.1714
X4.3424 Y2.1678
X4.3425 Y2.1677
X4.347 Y2.1641
X4.3472 Y2.164
X4.3516 Y2.1603
X4.3518 Y2.1602
X4.3561 Y2.1565
X4.3562 Y2.1564
X4.3605 Y2.1527
X4.3608 Y2.1524
X4.3648 Y2.1487
X4.3651 Y2.1484
X4.369 Y2.1447
X4.3693 Y2.1444
X4.373 Y2.1407
X4.3734 Y2.1402
X4.3769 Y2.1365
X4.3772 Y2.1361
X4.3805 Y2.1324
X4.3811 Y2.1317
X4.384 Y2.128
X4.3845 Y2.1273
X4.3872 Y2.1236
X4.3877 Y2.1228
X4.39 Y2.1191
X4.3907 Y2.118
X4.3927 Y2.1143
X4.3934 Y2.1129
X4.395 Y2.1092
X4.3955 Y2.1079
X4.3968 Y2.1043
X4.3974 Y2.1023
X4.3983 Y2.0987
X4.3986 Y2.0967
X4.3991 Y2.093
X4.3993 Y2.0912
X4.3994 Y2.0874
Y2.0861
X4.3992 Y2.0821
X4.3991 Y2.0805
X4.3986 Y2.0764
X4.3984 Y2.0751
X4.3975 Y2.0709
X4.3973 Y2.0699
X4.3962 Y2.0655
X4.396 Y2.0646
X4.3946 Y2.0601
X4.3944 Y2.0593
X4.3927 Y2.0547
X4.3925 Y2.0541
X4.3906 Y2.0493
X4.3904 Y2.0487
X4.3883 Y2.0439
X4.3882 Y2.0437
X4.386 Y2.0388
X4.3859 Y2.0385
X4.3836 Y2.0336
X4.3835 Y2.0333
X4.381 Y2.0283
X4.3785 Y2.0231
X4.3761 Y2.018
X4.3736 Y2.0129
X4.3713 Y2.0078
X4.3691 Y2.0027
X4.3669 Y1.9976
X4.365 Y1.9926
X4.3632 Y1.9876
X4.3617 Y1.9827
X4.3604 Y1.9778
X4.3594 Y1.973
X4.3586 Y1.9683
X4.3582 Y1.9636
X4.3579 Y1.9589
Y1.9542
X4.3581 Y1.9494
X4.3584 Y1.9446
X4.3588 Y1.9397
X4.3594 Y1.9349
X4.36 Y1.9301
X4.3607 Y1.9252
X4.3615 Y1.9203
Y1.9202
X4.3622 Y1.9153
X4.3629 Y1.9105
Y1.9104
X4.3636 Y1.9056
Y1.9052
X4.3642 Y1.9005
Y1.9002
X4.3647 Y1.8956
Y1.8951
X4.3651 Y1.8906
Y1.8898
X4.3653 Y1.8853
Y1.8846
Y1.8801
Y1.8791
X4.365 Y1.8747
X4.3649 Y1.8737
X4.3645 Y1.8693
X4.3643 Y1.8683
X4.3636 Y1.864
X4.3634 Y1.8627
X4.3623 Y1.8584
X4.362 Y1.8571
X4.3606 Y1.8529
X4.3602 Y1.8517
X4.3586 Y1.8475
X4.3581 Y1.8463
X4.3561 Y1.842
X4.3555 Y1.8409
X4.3532 Y1.8366
X4.3525 Y1.8356
X4.3498 Y1.8313
X4.3493 Y1.8305
X4.3462 Y1.8263
X4.3457 Y1.8255
X4.3424 Y1.8214
X4.3417 Y1.8206
X4.3381 Y1.8165
X4.3376 Y1.8159
X4.3337 Y1.8119
X4.333 Y1.8112
X4.3288 Y1.8073
X4.3283 Y1.8068
X4.3239 Y1.803
X4.3232 Y1.8024
X4.3185 Y1.7988
X4.3179 Y1.7983
X4.313 Y1.7949
X4.3124 Y1.7944
X4.3073 Y1.7912
X4.3066 Y1.7907
X4.3014 Y1.7877
X4.3006 Y1.7873
X4.2952 Y1.7844
X4.2944 Y1.784
X4.2888 Y1.7814
X4.288 Y1.7811
X4.2823 Y1.7787
X4.2815 Y1.7784
X4.2756 Y1.7763
X4.2747 Y1.776
X4.2687 Y1.7742
X4.2678 Y1.774
X4.2617 Y1.7725
X4.2607 Y1.7723
X4.2546 Y1.7712
X4.2535 Y1.771
X4.2473 Y1.7702
X4.2462 Y1.7701
X4.2399 Y1.7697
X4.2387
X4.2324
X4.2312
X4.2248 Y1.7701
X4.2238 Y1.7702
X4.2172 Y1.7709
X4.2162 Y1.7711
X4.2096 Y1.7722
X4.2087 Y1.7724
X4.202 Y1.7739
X4.2013 Y1.7741
X4.1944 Y1.7759
X4.1937 Y1.7761
X4.1867 Y1.7782
X4.1861 Y1.7784
X4.179 Y1.7808
X4.1785 Y1.781
X4.1712 Y1.7837
X4.1708 Y1.7838
X4.1634 Y1.7868
X4.163 Y1.7869
X4.1555 Y1.7901
X4.1552 Y1.7902
X4.1475 Y1.7936
X4.1473 Y1.7937
X4.1394 Y1.7973
X4.1392 Y1.7974
X4.1312 Y1.8011
X4.131 Y1.8012
X4.1228 Y1.8051
X4.1227
X4.1143 Y1.8091
X4.1057 Y1.8133
X4.097 Y1.8175
X4.0881 Y1.8217
X4.079 Y1.826
X4.0697 Y1.8303
X4.0603 Y1.8346
X4.0507 Y1.8389
X4.0408 Y1.8431
X4.0309 Y1.8473
X4.0207 Y1.8514
X4.0103 Y1.8553
X3.9997 Y1.8592
X3.9891 Y1.8629
X3.9783 Y1.8665
X3.9675 Y1.87
X3.9567 Y1.8733
X3.9459 Y1.8764
X3.9351 Y1.8793
X3.9245 Y1.8821
X3.9139 Y1.8847
X3.9036 Y1.887
X3.8934 Y1.8891
X3.8834 Y1.891
X3.8737 Y1.8926
X3.8643 Y1.8939
X3.8552 Y1.895
X3.8464 Y1.8957
X3.8381 Y1.8962
X3.8301 Y1.8963
X3.8227 Y1.8962
X3.8157 Y1.8957
X3.8093 Y1.8949
X3.8036 Y1.8938
X3.7986 Y1.8924
X3.7941 Y1.8908
X3.7902 Y1.8888
X3.7866 Y1.8867
X3.7835 Y1.8844
X3.7807 Y1.8818
X3.7783 Y1.8791
X3.7761 Y1.8761
X3.7741 Y1.8728
X3.7723 Y1.8693
X3.7706 Y1.8655
X3.7692 Y1.8614
X3.7678 Y1.8572
X3.7667 Y1.8528
X3.7656 Y1.8481
X3.7646 Y1.8433
X3.7637 Y1.8383
X3.7629 Y1.8332
X3.762 Y1.828
Y1.8279
X3.7611 Y1.8226
Y1.8224
X3.7602 Y1.8172
X3.7601 Y1.8169
X3.7591 Y1.8117
X3.759 Y1.8113
X3.7579 Y1.8061
X3.7578 Y1.8055
X3.7565 Y1.8005
X3.7563 Y1.7998
X3.7548 Y1.7948
X3.7546 Y1.7942
X3.753 Y1.7893
X3.7528 Y1.7886
X3.7509 Y1.7838
X3.7507 Y1.7831
X3.7487 Y1.7784
X3.7483 Y1.7777
X3.7462 Y1.7732
X3.7457 Y1.7724
X3.7434 Y1.7681
X3.7429 Y1.7672
X3.7404 Y1.7631
X3.7398 Y1.7622
X3.7371 Y1.7583
X3.7364 Y1.7574
X3.7335 Y1.7538
X3.7327 Y1.7528
X3.7296 Y1.7495
X3.7287 Y1.7486
X3.7255 Y1.7455
X3.7245 Y1.7446
X3.7211 Y1.7418
X3.7199 Y1.7409
X3.7163 Y1.7384
X3.7149 Y1.7375
X3.7111 Y1.7353
X3.7096 Y1.7345
X3.7055 Y1.7326
X3.7038 Y1.732
X3.6995 Y1.7305
X3.6978 Y1.73
X3.6932 Y1.7289
X3.6914 Y1.7285
X3.6865 Y1.7279
X3.6848 Y1.7277
X3.6796 Y1.7274
X3.678
X3.6725 Y1.7277
X3.671 Y1.7278
X3.6651 Y1.7285
X3.6637 Y1.7287
X3.6574 Y1.7299
X3.6563 Y1.7302
X3.6496 Y1.7319
X3.6485 Y1.7322
X3.6414 Y1.7345
X3.6405 Y1.7349
X3.6329 Y1.7378
X3.6321 Y1.7381
X3.6242 Y1.7416
X3.6235 Y1.742
X3.6152 Y1.746
X3.6147 Y1.7463
X3.606 Y1.7509
X3.6056 Y1.7512
X3.5967 Y1.7562
X3.5963 Y1.7564
X3.5871 Y1.7619
X3.5868 Y1.7621
X3.5775 Y1.7679
X3.5772 Y1.7681
X3.5677 Y1.7742
X3.5675 Y1.7744
X3.5578 Y1.7808
X3.5577 Y1.7809
X3.5479 Y1.7876
X3.5478
X3.538 Y1.7945
X3.5379
X3.528 Y1.8015
X3.5279
X3.518 Y1.8085
Y1.8086
X3.5081 Y1.8156
X3.4982 Y1.8226
X3.4885 Y1.8296
X3.4788 Y1.8364
X3.4693 Y1.843
X3.46 Y1.8493
X3.4509 Y1.8554
X3.442 Y1.8612
X3.4334 Y1.8666
X3.4251 Y1.8716
X3.4172 Y1.876
X3.4097 Y1.88
X3.4025 Y1.8834
X3.3957 Y1.8864
X3.3892 Y1.889
X3.3829 Y1.8912
X3.3769 Y1.893
X3.3712 Y1.8945
X3.3657 Y1.8958
X3.3604 Y1.8967
X3.3553 Y1.8974
X3.3503 Y1.898
X3.3455 Y1.8983
X3.3408 Y1.8985
X3.3361
X3.3315
X3.327 Y1.8983
X3.3224 Y1.8981
X3.3179 Y1.8979
X3.3133 Y1.8976
X3.3132
X3.3087 Y1.8973
X3.3085
X3.3041 Y1.8971
X3.3038
X3.2994 Y1.897
X3.2989
X3.2946
X3.294
X3.2897 Y1.8972
X3.289
X3.2846 Y1.8975
X3.284
X3.2795 Y1.898
X3.279 Y1.8981
X3.2744 Y1.8987
X3.2739
X3.2692 Y1.8995
X3.2687 Y1.8996
X3.2639 Y1.9005
X3.2635
X3.2586 Y1.9016
X3.2582 Y1.9017
X3.2532 Y1.9028
X3.2529 Y1.9029
X3.2477 Y1.9042
X3.2474
X3.2421 Y1.9056
X3.2418 Y1.9057
X3.2364 Y1.9072
X3.2362
X3.2305 Y1.9088
X3.2304 Y1.9089
X3.2246 Y1.9106
X3.2245
X3.2185 Y1.9124
X3.2184
X3.2123 Y1.9143
X3.2122
X3.2059 Y1.9162
X3.2058 Y1.9163
X3.1994 Y1.9183
X3.1927 Y1.9203
X3.1858 Y1.9225
X3.1788 Y1.9246
X3.1716 Y1.9269
X3.1641 Y1.9291
X3.1565 Y1.9314
X3.1487 Y1.9337
X3.1407 Y1.936
X3.1324 Y1.9383
X3.124 Y1.9406
X3.1154 Y1.9429
X3.1066 Y1.9452
X3.0977 Y1.9474
X3.0887 Y1.9495
X3.0797 Y1.9516
X3.0706 Y1.9536
X3.0614 Y1.9554
X3.0522 Y1.9571
X3.0431 Y1.9587
X3.0339 Y1.9601
X3.0248 Y1.9614
X3.0158 Y1.9625
X3.0069 Y1.9633
X2.9981 Y1.964
X2.9895 Y1.9644
X2.981 Y1.9646
X2.9727 Y1.9645
X2.9647 Y1.9641
X2.9569 Y1.9635
X2.9494 Y1.9626
X2.9422 Y1.9614
X2.9353 Y1.96
X2.9288 Y1.9582
X2.9225 Y1.9561
X2.9164 Y1.9538
X2.9106 Y1.9512
X2.9049 Y1.9484
X2.8993 Y1.9453
X2.8938 Y1.9421
X2.8884 Y1.9387
X2.883 Y1.9352
X2.8776 Y1.9316
X2.8723 Y1.9278
X2.8669 Y1.924
X2.8614 Y1.9202
Y1.9201
X2.8559 Y1.9163
X2.8557 Y1.9162
X2.8502 Y1.9124
X2.85 Y1.9122
X2.8444 Y1.9085
X2.8441 Y1.9083
X2.8384 Y1.9047
X2.8379 Y1.9044
X2.8321 Y1.9009
X2.8316 Y1.9006
X2.8256 Y1.8973
X2.825 Y1.897
X2.8188 Y1.8938
X2.8181 Y1.8935
X2.8116 Y1.8905
X2.8109 Y1.8902
X2.8042 Y1.8875
X2.8034 Y1.8872
X2.7964 Y1.8847
X2.7955 Y1.8844
X2.7882 Y1.8822
X2.7873 Y1.882
X2.7797 Y1.88
X2.7789 Y1.8799
X2.7708 Y1.8782
X2.7701 Y1.8781
X2.7616 Y1.8767
X2.761 Y1.8766
X2.7523 Y1.8755
X2.7517 Y1.8754
X2.7427 Y1.8745
X2.7422
X2.7329 Y1.8738
X2.7324 Y1.8737
X2.7229 Y1.8733
X2.7225 Y1.8732
X2.7128 Y1.873
X2.7124
X2.7025 Y1.8729
X2.7022
X2.6922 Y1.873
X2.6919
X2.6818 Y1.8732
X2.6815
X2.6714 Y1.8736
X2.6711
X2.6609 Y1.8741
X2.6607
X2.6505 Y1.8748
X2.6503
X2.6401 Y1.8756
X2.6399
X2.6298 Y1.8764
X2.6296
X2.6196 Y1.8774
X2.6194
X2.6095 Y1.8784
X2.6094
X2.5997 Y1.8795
X2.5995
X2.59 Y1.8806
X2.5899
X2.5805 Y1.8817
X2.5804
X2.5714 Y1.8829
X2.5713
X2.5625 Y1.8841
X2.5624
X2.554 Y1.8853
X2.5539
X2.5458 Y1.8864
X2.5379 Y1.8875
X2.5305 Y1.8886
X2.5233 Y1.8896
X2.5165 Y1.8905
X2.51 Y1.8913
X2.5038 Y1.8919
X2.4979 Y1.8925
X2.4922 Y1.8929
X2.4869 Y1.8932
X2.4817 Y1.8933
X2.4768 Y1.8932
X2.4721 Y1.8929
X2.4677 Y1.8925
X2.4634 Y1.8918
X2.4593 Y1.891
X2.4554 Y1.8899
X2.4516 Y1.8887
X2.448 Y1.8872
X2.4444 Y1.8855
X2.4409 Y1.8835
X2.4375 Y1.8813
X2.434 Y1.8787
X2.4306 Y1.8758
X2.4271 Y1.8724
X2.4235 Y1.8687
X2.42 Y1.8646
X2.4163 Y1.8602
X2.4127 Y1.8555
X2.4091 Y1.8505
X2.4055 Y1.8453
X2.402 Y1.8399
X2.3984 Y1.8343
X2.3949 Y1.8285
X2.3914 Y1.8226
X2.3879 Y1.8165
X2.3845 Y1.8103
X2.3811 Y1.8041
X2.3778 Y1.7978
X2.3744 Y1.7915
X2.3712 Y1.7852
X2.3679 Y1.7788
X2.3647 Y1.7725
X2.3616 Y1.7663
X2.3584 Y1.7602
X2.3554 Y1.7541
X2.3553
X2.3523 Y1.7482
Y1.7481
X2.3493 Y1.7424
X2.3492 Y1.7423
X2.3463 Y1.7368
Y1.7367
X2.3434 Y1.7313
X2.3433 Y1.7312
X2.3405 Y1.7261
X2.3404 Y1.7259
X2.3377 Y1.721
X2.3376 Y1.7208
X2.3348 Y1.716
Y1.7159
X2.3321 Y1.7112
X2.332 Y1.7111
X2.3293 Y1.7066
X2.3292 Y1.7064
X2.3266 Y1.7022
X2.3264 Y1.702
X2.3238 Y1.6979
X2.3237 Y1.6976
X2.3211 Y1.6937
X2.321 Y1.6935
X2.3185 Y1.6897
X2.3183 Y1.6895
X2.3158 Y1.6858
X2.3156 Y1.6856
X2.3131 Y1.6821
X2.3129 Y1.6818
X2.3104 Y1.6785
X2.3102 Y1.6782
X2.3077 Y1.6751
X2.3075 Y1.6748
X2.305 Y1.6718
X2.3048 Y1.6714
X2.3023 Y1.6686
X2.302 Y1.6682
X2.2996 Y1.6655
X2.2993 Y1.6652
X2.2968 Y1.6626
X2.2965 Y1.6622
X2.2941 Y1.6598
X2.2937 Y1.6594
X2.2912 Y1.6571
X2.2908 Y1.6567
X2.2884 Y1.6545
X2.2879 Y1.6542
X2.2855 Y1.6521
X2.285 Y1.6517
X2.2825 Y1.6498
X2.2821 Y1.6494
X2.2796 Y1.6476
X2.2791 Y1.6473
X2.2766 Y1.6456
X2.276 Y1.6452
X2.2736 Y1.6437
X2.273 Y1.6433
X2.2705 Y1.6419
X2.2699 Y1.6415
X2.2674 Y1.6402
X2.2668 Y1.6399
X2.2643 Y1.6387
X2.2637 Y1.6384
X2.2612 Y1.6373
X2.2605 Y1.637
X2.258 Y1.636
X2.2573 Y1.6357
X2.2548 Y1.6349
X2.2541 Y1.6346
X2.2516 Y1.6339
X2.2509 Y1.6337
X2.2484 Y1.633
X2.2476 Y1.6328
X2.2451 Y1.6323
X2.2443 Y1.6322
X2.2419 Y1.6317
X2.241 Y1.6316
X2.2386 Y1.6313
X2.2377 Y1.6312
X2.2353 Y1.6311
X2.2344 Y1.631
X2.232
X2.2311
X2.2287
X2.2278
X2.2255 Y1.6312
X2.2245 Y1.6313
X2.2222 Y1.6316
X2.2213 Y1.6317
X2.219 Y1.6321
X2.218 Y1.6323
X2.2158 Y1.6328
X2.2148 Y1.633
X2.2126 Y1.6336
X2.2117 Y1.6339
X2.2094 Y1.6347
X2.2086 Y1.635
X2.2064 Y1.6358
X2.2055 Y1.6362
X2.2033 Y1.6371
X2.2024 Y1.6376
X2.2003 Y1.6387
X2.1995 Y1.6391
X2.1974 Y1.6403
X2.1966 Y1.6408
X2.1945 Y1.6421
X2.1938 Y1.6426
X2.1917 Y1.6441
X2.191 Y1.6446
X2.189 Y1.6462
X2.1884 Y1.6467
X2.1864 Y1.6483
X2.1858 Y1.6489
X2.1839 Y1.6507
X2.1833 Y1.6512
X2.1814 Y1.6531
X2.1809 Y1.6537
X2.1791 Y1.6557
X2.1786 Y1.6563
X2.1768 Y1.6584
X2.1763 Y1.659
X2.1747 Y1.6612
X2.1742 Y1.6618
X2.1726 Y1.6641
X2.1722 Y1.6647
X2.1707 Y1.6671
X2.1703 Y1.6677
X2.1688 Y1.6702
X2.1685 Y1.6709
X2.1671 Y1.6734
X2.1668 Y1.6741
X2.1655 Y1.6767
X2.1652 Y1.6775
X2.1641 Y1.6801
X2.1638 Y1.6809
X2.1627 Y1.6836
X2.1625 Y1.6844
X2.1615 Y1.6872
X2.1613 Y1.688
X2.1605 Y1.6909
X2.1603 Y1.6917
X2.1595 Y1.6947
X2.1594 Y1.6954
X2.1588 Y1.6985
X2.1587 Y1.6993
X2.1582 Y1.7024
X2.1581 Y1.7032
X2.1578 Y1.7064
X2.1577 Y1.7072
X2.1575 Y1.7104
Y1.7112
X2.1574 Y1.7145
Y1.7152
Y1.7186
X2.1575 Y1.7192
X2.1576 Y1.7227
X2.1577 Y1.7233
X2.158 Y1.7269
Y1.7273
X2.1584 Y1.731
Y1.7315
X2.1589 Y1.7352
X2.159 Y1.7356
X2.1596 Y1.7394
X2.1597 Y1.7398
X2.1604 Y1.7436
Y1.744
X2.1612 Y1.7478
X2.1613 Y1.7482
X2.1622 Y1.7521
X2.1623 Y1.7524
X2.1632 Y1.7564
X2.1633 Y1.7567
X2.1643 Y1.7607
X2.1644 Y1.761
X2.1655 Y1.765
X2.1656 Y1.7653
X2.1668 Y1.7693
X2.1669 Y1.7696
X2.1681 Y1.7737
X2.1682 Y1.7739
X2.1695 Y1.7781
X2.1696 Y1.7783
X2.171 Y1.7824
Y1.7826
X2.1725 Y1.7868
X2.1726 Y1.787
X2.174 Y1.7912
X2.1741 Y1.7914
X2.1757 Y1.7956
Y1.7957
X2.1773 Y1.8
X2.1774 Y1.8001
X2.179 Y1.8044
Y1.8045
X2.1807 Y1.8087
Y1.8088
X2.1824 Y1.8131
X2.1825 Y1.8132
X2.1842 Y1.8174
X2.1859 Y1.8218
X2.1877 Y1.8261
X2.1894 Y1.8304
X2.1911 Y1.8346
X2.1929 Y1.8389
X2.1945 Y1.8431
X2.1962 Y1.8473
X2.1978 Y1.8514
X2.1993 Y1.8556
X2.2008 Y1.8597
X2.2023 Y1.8638
X2.2036 Y1.8678
X2.2049 Y1.8718
X2.2061 Y1.8758
X2.2072 Y1.8797
X2.2083 Y1.8836
X2.2092 Y1.8875
X2.2101 Y1.8913
X2.2108 Y1.895
X2.2114 Y1.8987
X2.2119 Y1.9023
X2.2123 Y1.9059
X2.2126 Y1.9094
X2.2127 Y1.9129
Y1.9164
X2.2126 Y1.9198
X2.2124 Y1.9233
X2.2122 Y1.9267
X2.2117 Y1.9301
X2.2112 Y1.9336
X2.2106 Y1.9371
X2.2099 Y1.9406
X2.2091 Y1.9441
X2.2081 Y1.9477
X2.2071 Y1.9514
X2.206 Y1.9551
X2.2047 Y1.9588
X2.2034 Y1.9626
X2.202 Y1.9665
X2.2004 Y1.9704
X2.1988 Y1.9744
X2.1971 Y1.9785
X2.1953 Y1.9826
X2.1934 Y1.9869
X2.1914 Y1.9912
X2.1893 Y1.9956
X2.1871 Y2.
X2.1849 Y2.0046
X2.1826 Y2.0091
X2.1802 Y2.0137
X2.1778 Y2.0183
X2.1753 Y2.0228
X2.1727 Y2.0273
X2.1701 Y2.0317
X2.1674 Y2.036
X2.1646 Y2.0402
X2.1617 Y2.0443
X2.1588 Y2.0482
X2.1558 Y2.0519
X2.1528 Y2.0555
X2.1497 Y2.0589
X2.1465 Y2.0621
X2.1433 Y2.065
X2.1401 Y2.0677
X2.1368 Y2.0701
X2.1334 Y2.0723
X2.13 Y2.0743
X2.1266 Y2.0759
X2.1231 Y2.0773
X2.1196 Y2.0785
X2.1161 Y2.0793
X2.1124 Y2.08
X2.1085 Y2.0804
X2.1046 Y2.0807
X2.1005 Y2.0808
X2.0962
X2.0918 Y2.0807
X2.0874 Y2.0806
X2.0829 Y2.0804
X2.0784 Y2.0801
X2.0739 Y2.0799
X2.0737
X2.0693 Y2.0797
X2.069
X2.0646 Y2.0796
X2.0642
X2.0599
X2.0593
X2.0551 Y2.0797
X2.0544 Y2.0798
X2.0502 Y2.08
X2.0494 Y2.0801
X2.0453 Y2.0805
X2.0443 Y2.0806
X2.0403 Y2.0813
X2.0392 Y2.0815
X2.0352 Y2.0824
X2.034 Y2.0826
X2.0301 Y2.0838
X2.0288 Y2.0842
X2.025 Y2.0856
X2.0236 Y2.0861
X2.0198 Y2.0878
X2.0185 Y2.0885
X2.0148 Y2.0905
X2.0135 Y2.0913
X2.0098 Y2.0938
X2.0088 Y2.0945
X2.005 Y2.0973
X2.0042 Y2.098
X2.0003 Y2.1013
X1.9997 Y2.1019
X1.9957 Y2.1055
X1.9952 Y2.106
X1.9912 Y2.11
X1.9908 Y2.1105
X1.9868 Y2.1148
X1.9864 Y2.1152
X1.9823 Y2.1198
X1.9821 Y2.1201
X1.9779 Y2.125
X1.9778 Y2.1252
X1.9735 Y2.1303
X1.9734 Y2.1304
X1.9691 Y2.1358
X1.969
X1.9646 Y2.1413
X1.96 Y2.147
X1.9553 Y2.1526
X1.9506 Y2.1583
X1.9457 Y2.164
X1.9407 Y2.1697
X1.9356 Y2.1754
X1.9303 Y2.1809
X1.9248 Y2.1864
X1.9192 Y2.1917
X1.9133 Y2.1968
X1.9073 Y2.2018
X1.9011 Y2.2065
X1.8946 Y2.211
X1.8879 Y2.2153
X1.881 Y2.2193
X1.8738 Y2.2231
X1.8664 Y2.2266
X1.8587 Y2.2299
X1.8509 Y2.233
X1.8428 Y2.2358
X1.8345 Y2.2384
X1.8261 Y2.2407
X1.8175 Y2.2428
X1.8087 Y2.2446
X1.7998 Y2.2462
X1.7907 Y2.2476
X1.7815 Y2.2487
X1.7722 Y2.2496
X1.7628 Y2.2502
X1.7533 Y2.2506
X1.7438 Y2.2508
X1.7342 Y2.2507
X1.7245 Y2.2504
X1.7147 Y2.2499
X1.705 Y2.2491
X1.6952 Y2.2481
X1.6855 Y2.2469
X1.6757 Y2.2455
X1.666 Y2.2438
X1.6563 Y2.2419
X1.6466 Y2.2398
X1.6369 Y2.2375
X1.6274 Y2.2349
X1.6178 Y2.2322
X1.6084 Y2.2292
X1.599 Y2.2261
X1.5897 Y2.2227
X1.5806 Y2.2191
X1.5715 Y2.2154
X1.5626 Y2.2114
X1.5537 Y2.2073
X1.5451 Y2.203
X1.5365 Y2.1985
X1.5282 Y2.1938
X1.5199 Y2.1889
X1.5119 Y2.1839
X1.504 Y2.1787
X1.4964 Y2.1733
X1.4889 Y2.1677
X1.4816 Y2.162
X1.4746 Y2.1562
X1.4678 Y2.1502
X1.4612 Y2.144
X1.4548 Y2.1377
X1.4486 Y2.1313
X1.4427 Y2.1248
X1.437 Y2.1182
X1.4315 Y2.1115
X1.4262 Y2.1047
X1.4212 Y2.0978
X1.4164 Y2.0909
X1.4118 Y2.0839
X1.4075 Y2.0769
X1.4033 Y2.0699
X1.3995 Y2.0629
X1.3958 Y2.0559
X1.3924 Y2.0489
X1.3892 Y2.0419
X1.3863 Y2.035
X1.3836 Y2.0281
X1.3811 Y2.0212
X1.3789 Y2.0145
X1.3769 Y2.0078
X1.3751 Y2.0013
X1.3736 Y1.9948
X1.3723 Y1.9886
X1.3713 Y1.9824
X1.3705 Y1.9763
X1.3699 Y1.9704
X1.3695 Y1.9647
X1.3694 Y1.959
X1.3695 Y1.9534
X1.3699 Y1.948
X1.3704 Y1.9427
X1.3711 Y1.9375
X1.3721 Y1.9325
X1.3732 Y1.9275
X1.3745 Y1.9227
X1.3761 Y1.918
X1.3778 Y1.9134
X1.3797 Y1.9089
X1.3818 Y1.9045
X1.3842 Y1.9002
X1.3867 Y1.896
X1.3894 Y1.8919
X1.3923 Y1.8879
X1.3953 Y1.884
X1.3986 Y1.8802
X1.4021 Y1.8765
X1.4058 Y1.8728
X1.4097 Y1.8692
X1.4138 Y1.8658
X1.418 Y1.8624
X1.4224 Y1.8592
X1.427 Y1.856
X1.4316 Y1.853
X1.4364 Y1.8501
X1.4413 Y1.8473
X1.4464 Y1.8446
X1.4515 Y1.8421
X1.4567 Y1.8397
X1.462 Y1.8375
X1.4673 Y1.8354
X1.4727 Y1.8334
X1.4781 Y1.8316
X1.4835 Y1.8299
X1.489 Y1.8284
X1.4945 Y1.8271
X1.4999 Y1.8259
X1.5054 Y1.8248
X1.5108 Y1.824
X1.5162 Y1.8233
X1.5215 Y1.8227
X1.5268 Y1.8223
X1.532 Y1.8221
X1.5372 Y1.822
X1.5424 Y1.8221
X1.5475 Y1.8222
X1.5526 Y1.8224
X1.5577 Y1.8228
X1.5627 Y1.8232
X1.5677 Y1.8237
X1.5727 Y1.8242
X1.5777 Y1.8248
X1.5826 Y1.8254
X1.5875 Y1.826
X1.5924 Y1.8266
X1.5925
X1.5973 Y1.8271
X1.5974 Y1.8272
X1.6021 Y1.8277
X1.6023
X1.607 Y1.8282
X1.6072
X1.6118 Y1.8286
X1.6121
X1.6167 Y1.829
X1.6171
X1.6215 Y1.8292
X1.622
X1.6264 Y1.8293
X1.6269
X1.6313
X1.6319
X1.6362 Y1.8292
X1.6369 Y1.8291
X1.6411 Y1.8288
X1.6418 Y1.8287
X1.646 Y1.8283
X1.6468 Y1.8281
X1.6509 Y1.8275
X1.6516 Y1.8274
X1.6557 Y1.8266
X1.6564 Y1.8264
X1.6604 Y1.8255
X1.6611 Y1.8253
X1.665 Y1.8242
X1.6657 Y1.824
X1.6696 Y1.8227
X1.6703 Y1.8225
X1.6741 Y1.8211
X1.6747 Y1.8209
X1.6784 Y1.8194
X1.6791 Y1.8191
X1.6827 Y1.8175
X1.6833 Y1.8172
X1.6868 Y1.8154
X1.6875 Y1.8151
X1.6909 Y1.8132
X1.6915 Y1.8129
X1.6948 Y1.8109
X1.6954 Y1.8105
X1.6986 Y1.8085
X1.6992 Y1.808
X1.7022 Y1.8059
X1.7029 Y1.8054
X1.7058 Y1.8032
X1.7064 Y1.8027
X1.7091 Y1.8004
X1.7098 Y1.7998
X1.7123 Y1.7974
X1.713 Y1.7967
X1.7153 Y1.7943
X1.716 Y1.7936
X1.7182 Y1.7911
X1.7188 Y1.7903
X1.7208 Y1.7877
X1.7215 Y1.7868
X1.7233 Y1.7842
X1.7239 Y1.7832
X1.7255 Y1.7805
X1.7261 Y1.7794
X1.7275 Y1.7767
X1.7281 Y1.7755
X1.7293 Y1.7728
X1.7298 Y1.7715
X1.7307 Y1.7688
X1.7311 Y1.7675
X1.7318 Y1.7647
X1.7321 Y1.7634
X1.7327 Y1.7605
X1.7329 Y1.7592
X1.7332 Y1.7563
X1.7334 Y1.7549
X1.7335 Y1.7519
Y1.7506
X1.7334 Y1.7476
X1.7333 Y1.7462
X1.733 Y1.7431
X1.7328 Y1.7418
X1.7323 Y1.7387
X1.7321 Y1.7374
X1.7313 Y1.7342
X1.7309 Y1.733
X1.7299 Y1.7297
X1.7295 Y1.7286
X1.7283 Y1.7253
X1.7278 Y1.7242
X1.7263 Y1.7209
X1.7258 Y1.7199
X1.724 Y1.7165
X1.7234 Y1.7156
X1.7214 Y1.7122
X1.7208 Y1.7113
X1.7184 Y1.7079
X1.7179 Y1.7071
X1.7152 Y1.7037
X1.7146 Y1.7029
X1.7117 Y1.6995
X1.7111 Y1.6988
X1.7078 Y1.6953
X1.7072 Y1.6947
X1.7037 Y1.6913
X1.7031 Y1.6907
X1.6992 Y1.6872
X1.6986 Y1.6867
X1.6944 Y1.6833
X1.6938 Y1.6828
X1.6893 Y1.6793
X1.6888 Y1.6789
X1.6839 Y1.6755
X1.6833 Y1.6751
X1.6781 Y1.6717
X1.6776 Y1.6714
X1.672 Y1.6679
X1.6715 Y1.6677
X1.6656 Y1.6643
X1.6652 Y1.6641
X1.659 Y1.6607
X1.6587 Y1.6605
X1.6522 Y1.6571
X1.6519 Y1.657
X1.6452 Y1.6537
X1.6451 Y1.6536
X1.6382 Y1.6502
X1.6381 Y1.6501
X1.6311 Y1.6468
X1.631 Y1.6467
X1.624 Y1.6434
X1.6169 Y1.64
X1.6098 Y1.6366
X1.6029 Y1.6332
X1.596 Y1.6298
X1.5894 Y1.6264
X1.5829 Y1.623
X1.5767 Y1.6197
X1.5709 Y1.6163
X1.5655 Y1.613
X1.5605 Y1.6096
X1.556 Y1.6062
X1.5521 Y1.6029
X1.5487 Y1.5995
X1.5459 Y1.5962
X1.5436 Y1.5929
X1.5418 Y1.5896
X1.5407 Y1.5866
X1.54 Y1.5836
X1.5397 Y1.5804
X1.5398 Y1.5771
X1.5404 Y1.5735
X1.5413 Y1.5697
X1.5427 Y1.5658
X1.5446 Y1.5617
X1.5468 Y1.5575
X1.5494 Y1.5533
X1.5524 Y1.5489
X1.5557 Y1.5445
X1.5592 Y1.54
X1.563 Y1.5356
X1.5671 Y1.5311
X1.5713 Y1.5267
X1.5757 Y1.5223
X1.5802 Y1.5179
X1.5848 Y1.5136
X1.5895 Y1.5093
X1.5942 Y1.5051
X1.5989 Y1.5009
X1.6036 Y1.4969
X1.6082 Y1.4928
X1.6126 Y1.4889
X1.617 Y1.4851
X1.6212 Y1.4814
X1.6213
X1.6254 Y1.4778
Y1.4777
X1.6293 Y1.4742
X1.6295 Y1.4741
X1.6332 Y1.4707
X1.6333 Y1.4706
X1.6369 Y1.4672
X1.6371 Y1.4671
X1.6404 Y1.4638
X1.6406 Y1.4636
X1.6438 Y1.4605
X1.6441 Y1.4602
X1.647 Y1.4571
X1.6473 Y1.4568
X1.65 Y1.4538
X1.6504 Y1.4534
X1.6529 Y1.4506
X1.6533 Y1.4501
X1.6555 Y1.4473
X1.6559 Y1.4467
X1.658 Y1.444
X1.6584 Y1.4434
X1.6602 Y1.4407
X1.6607 Y1.4399
X1.6623 Y1.4374
X1.6628 Y1.4364
X1.6642 Y1.4339
X1.6647 Y1.4327
X1.6658 Y1.4303
X1.6663 Y1.429
X1.6672 Y1.4265
X1.6676 Y1.4251
X1.6683 Y1.4227
X1.6687 Y1.4211
X1.6691 Y1.4186
X1.6693 Y1.417
X1.6695 Y1.4146
X1.6696 Y1.4129
Y1.4105
X1.6695 Y1.4089
X1.6693 Y1.4064
X1.6691 Y1.4048
X1.6687 Y1.4023
X1.6684 Y1.4009
X1.6677 Y1.3982
X1.6674 Y1.397
X1.6665 Y1.3941
X1.6661 Y1.393
X1.6649 Y1.39
X1.6645 Y1.3891
X1.6631 Y1.386
X1.6627 Y1.3852
X1.6611 Y1.3819
X1.6608 Y1.3813
X1.6589 Y1.3779
X1.6586 Y1.3774
X1.6565 Y1.3739
X1.6562 Y1.3735
X1.654 Y1.37
X1.6538 Y1.3696
X1.6513 Y1.366
X1.6511 Y1.3657
X1.6485 Y1.362
X1.6484 Y1.3618
X1.6457 Y1.358
X1.6455 Y1.3578
X1.6427 Y1.3539
X1.6426 Y1.3538
X1.6396 Y1.3498
X1.6395 Y1.3497
X1.6365 Y1.3457
X1.6364
X1.6333 Y1.3416
X1.6301 Y1.3374
X1.6269 Y1.3332
X1.6236 Y1.329
X1.6204 Y1.3248
X1.6172 Y1.3205
X1.614 Y1.3162
X1.6109 Y1.3119
X1.6078 Y1.3076
X1.6049 Y1.3033
X1.602 Y1.299
X1.5992 Y1.2946
X1.5965 Y1.2902
X1.5939 Y1.2858
X1.5914 Y1.2814
X1.5891 Y1.277
X1.5868 Y1.2725
X1.5847 Y1.268
X1.5826 Y1.2634
X1.5807 Y1.2589
X1.579 Y1.2543
X1.5774 Y1.2497
X1.5759 Y1.245
X1.5745 Y1.2404
X1.5734 Y1.2356
X1.5723 Y1.2309
X1.5714 Y1.2261
X1.5707 Y1.2213
X1.5702 Y1.2164
X1.5698 Y1.2115
X1.5696 Y1.2065
Y1.2015
X1.5698 Y1.1964
X1.5701 Y1.1913
X1.5706 Y1.186
X1.5713 Y1.1807
X1.5722 Y1.1753
X1.5731 Y1.1698
X1.5742 Y1.1642
X1.5754 Y1.1587
X1.5767 Y1.1531
X1.578 Y1.1475
X1.5794 Y1.1419
X1.5808 Y1.1363
X1.5823 Y1.1308
X1.5837 Y1.1252
X1.5852 Y1.1197
Y1.1196
X1.5866 Y1.1142
Y1.1141
X1.5879 Y1.1088
X1.588 Y1.1086
X1.5892 Y1.1034
X1.5893 Y1.1032
X1.5904 Y1.0981
X1.5905 Y1.0978
X1.5916 Y1.0928
Y1.0924
X1.5926 Y1.0875
X1.5927 Y1.0871
X1.5934 Y1.0823
X1.5935 Y1.0818
X1.5942 Y1.0771
Y1.0765
X1.5947 Y1.072
X1.5948 Y1.0713
X1.595 Y1.0669
Y1.0661
X1.5951 Y1.062
Y1.0611
X1.595 Y1.0571
Y1.0562
X1.5947 Y1.0523
X1.5946 Y1.0515
X1.5941 Y1.0477
X1.594 Y1.0468
X1.5934 Y1.0432
X1.5932 Y1.0423
X1.5925 Y1.0388
X1.5922 Y1.0379
X1.5913 Y1.0345
X1.5911 Y1.0336
X1.59 Y1.0304
X1.5897 Y1.0294
X1.5885 Y1.0263
X1.5881 Y1.0254
X1.5868 Y1.0224
X1.5863 Y1.0215
X1.5849 Y1.0187
X1.5844 Y1.0178
X1.5828 Y1.0151
X1.5823 Y1.0142
X1.5806 Y1.0117
X1.58 Y1.0108
X1.5782 Y1.0084
X1.5775 Y1.0076
X1.5756 Y1.0053
X1.5749 Y1.0045
X1.5729 Y1.0023
X1.5722 Y1.0016
X1.5701 Y0.9996
X1.5693 Y0.9989
X1.5671 Y0.997
X1.5663 Y0.9964
X1.564 Y0.9946
X1.5632 Y0.994
X1.5608 Y0.9924
X1.56 Y0.9919
X1.5576 Y0.9904
X1.5567 Y0.9899
X1.5542 Y0.9886
X1.5533 Y0.9881
X1.5507 Y0.987
X1.5498 Y0.9866
X1.5472 Y0.9855
X1.5463 Y0.9852
X1.5436 Y0.9843
X1.5426 Y0.984
X1.5399 Y0.9832
X1.5388 Y0.983
X1.5361 Y0.9824
X1.535 Y0.9822
X1.5323 Y0.9818
X1.5312 Y0.9817
X1.5284 Y0.9814
X1.5272 Y0.9813
X1.5244
X1.5232
X1.5203 Y0.9814
X1.519
X1.5161 Y0.9817
X1.5149 Y0.9819
X1.5119 Y0.9824
X1.5107 Y0.9826
X1.5076 Y0.9833
X1.5064 Y0.9837
X1.5033 Y0.9846
X1.5022 Y0.985
X1.499 Y0.9862
X1.4979 Y0.9866
X1.4947 Y0.988
X1.4937 Y0.9885
X1.4905 Y0.9902
X1.4895 Y0.9907
X1.4862 Y0.9927
X1.4853 Y0.9932
X1.482 Y0.9955
X1.4812 Y0.996
X1.4778 Y0.9986
X1.4771 Y0.9992
X1.4736 Y1.002
X1.473 Y1.0026
X1.4695 Y1.0057
X1.4689 Y1.0063
X1.4654 Y1.0098
X1.4649 Y1.0103
X1.4613 Y1.0142
X1.4608 Y1.0147
X1.4572 Y1.0189
X1.4568 Y1.0194
X1.4532 Y1.0239
X1.4528 Y1.0244
X1.4491 Y1.0294
X1.4488 Y1.0299
X1.4451 Y1.0352
X1.4447 Y1.0356
X1.4411 Y1.0413
X1.4408 Y1.0418
X1.4371 Y1.0478
X1.4368 Y1.0482
X1.4332 Y1.0546
X1.4329 Y1.055
X1.4293 Y1.0617
X1.4291 Y1.0621
X1.4256 Y1.0691
X1.4254 Y1.0695
X1.4219 Y1.0767
X1.4217 Y1.0771
X1.4184 Y1.0847
X1.4182 Y1.0851
X1.4149 Y1.0929
X1.4147 Y1.0933
X1.4116 Y1.1013
X1.4114 Y1.1017
X1.4084 Y1.11
X1.4082 Y1.1104
X1.4053 Y1.1189
X1.4052 Y1.1193
X1.4024 Y1.128
X1.4023 Y1.1284
X1.3997 Y1.1373
X1.3996 Y1.1377
X1.3972 Y1.1467
X1.3971 Y1.1472
X1.3949 Y1.1563
X1.3948 Y1.1568
X1.3928 Y1.1661
X1.3927 Y1.1666
X1.3909 Y1.176
X1.3908 Y1.1765
X1.3892 Y1.1861
Y1.1866
X1.3879 Y1.1962
X1.3878 Y1.1967
X1.3867 Y1.2064
Y1.207
X1.3859 Y1.2167
Y1.2173
X1.3854 Y1.2271
Y1.2277
X1.3852 Y1.2376
Y1.2381
X1.3853 Y1.248
Y1.2486
X1.3857 Y1.2585
Y1.259
X1.3864 Y1.2689
Y1.2694
X1.3873 Y1.2793
Y1.2797
X1.3884 Y1.2896
X1.3885 Y1.29
X1.3897 Y1.2999
X1.3898 Y1.3001
X1.3912 Y1.31
Y1.3102
X1.3927 Y1.32
X1.3928 Y1.3202
X1.3944 Y1.3298
Y1.33
X1.3962 Y1.3395
Y1.3397
X1.3979 Y1.349
Y1.3491
X1.3997 Y1.3583
Y1.3584
X1.4015 Y1.3674
X1.4032 Y1.3762
X1.4048 Y1.3847
X1.4062 Y1.393
X1.4076 Y1.401
X1.4087 Y1.4087
X1.4097 Y1.416
X1.4104 Y1.423
X1.4109 Y1.4296
X1.411 Y1.4358
Y1.4415
X1.4106 Y1.4467
X1.4099 Y1.4513
X1.409 Y1.4556
X1.4077 Y1.4595
X1.4063 Y1.4631
X1.4045 Y1.4665
X1.4026 Y1.4698
X1.4005 Y1.4728
X1.398 Y1.4759
X1.3953 Y1.4789
X1.3924 Y1.4819
X1.3893 Y1.4849
X1.386 Y1.4879
X1.3826 Y1.4909
X1.3789 Y1.4941
X1.3751 Y1.4974
X1.375 Y1.4975
X1.3712 Y1.5008
X1.371 Y1.501
X1.3671 Y1.5045
X1.3668 Y1.5048
X1.363 Y1.5084
X1.3626 Y1.5088
X1.3588 Y1.5126
X1.3583 Y1.5131
X1.3545 Y1.5172
X1.354 Y1.5177
X1.3502 Y1.5221
X1.3497 Y1.5227
X1.346 Y1.5274
X1.3455 Y1.5281
X1.3418 Y1.5331
X1.3413 Y1.5338
X1.3377 Y1.5393
X1.3373 Y1.54
X1.3337 Y1.546
X1.3334 Y1.5466
X1.3299 Y1.553
X1.3296 Y1.5536
X1.3261 Y1.5604
X1.3259 Y1.5609
X1.3225 Y1.5681
X1.3223 Y1.5686
X1.319 Y1.5762
X1.3188 Y1.5765
X1.3155 Y1.5844
X1.3154 Y1.5847
X1.3122 Y1.5928
X1.3121 Y1.5931
X1.3089 Y1.6014
X1.3088 Y1.6016
X1.3057 Y1.6102
X1.3056 Y1.6103
X1.3026 Y1.619
X1.3025 Y1.6191
X1.2995 Y1.6279
X1.2994 Y1.628
X1.2964 Y1.6368
Y1.6369
X1.2934 Y1.6457
Y1.6458
X1.2905 Y1.6546
X1.2875 Y1.6634
X1.2846 Y1.672
X1.2817 Y1.6805
X1.2788 Y1.6888
X1.276 Y1.6968
X1.2731 Y1.7045
X1.2703 Y1.712
X1.2674 Y1.719
X1.2646 Y1.7256
X1.2618 Y1.7318
X1.259 Y1.7374
X1.2562 Y1.7426
X1.2534 Y1.7474
X1.2505 Y1.7519
X1.2477 Y1.7561
X1.2448 Y1.76
X1.2419 Y1.7636
X1.2389 Y1.7672
X1.2359 Y1.7705
X1.2328 Y1.7738
X1.2296 Y1.7769
X1.2263 Y1.7801
X1.223 Y1.7833
X1.2195 Y1.7866
X1.2159 Y1.7899
X1.2158
X1.2122 Y1.7934
X1.2121 Y1.7935
X1.2083 Y1.797
X1.2082 Y1.7971
X1.2044 Y1.8008
X1.2041 Y1.801
X1.2002 Y1.8049
X1.2 Y1.8052
X1.196 Y1.8093
X1.1958 Y1.8096
X1.1917 Y1.814
X1.1914 Y1.8143
X1.1872 Y1.819
X1.1869 Y1.8193
X1.1826 Y1.8244
X1.1824 Y1.8247
X1.178 Y1.8302
X1.1777 Y1.8305
X1.1732 Y1.8364
X1.1729 Y1.8367
X1.1683 Y1.8431
X1.1681 Y1.8434
X1.1633 Y1.8501
X1.1631 Y1.8504
X1.1583 Y1.8576
X1.1581 Y1.8579
X1.1531 Y1.8655
X1.153 Y1.8658
X1.1479 Y1.8739
X1.1478 Y1.8741
X1.1427 Y1.8826
X1.1426 Y1.8829
X1.1374 Y1.8917
X1.1373 Y1.892
X1.1321 Y1.9013
X1.132 Y1.9015
X1.1268 Y1.9112
X1.1266 Y1.9115
X1.1214 Y1.9216
X1.1213 Y1.9218
X1.1161 Y1.9323
X1.1159 Y1.9325
X1.1107 Y1.9434
X1.1106 Y1.9436
X1.1054 Y1.9549
X1.1053 Y1.9551
X1.1001 Y1.9668
X1.1 Y1.967
X1.0948 Y1.979
X1.0947 Y1.9792
X1.0896 Y1.9916
X1.0895 Y1.9919
X1.0845 Y2.0046
X1.0844 Y2.0048
X1.0794 Y2.0179
X1.0793 Y2.0182
X1.0744 Y2.0316
X1.0743 Y2.0319
X1.0695 Y2.0456
Y2.0459
X1.0648 Y2.06
X1.0647 Y2.0603
X1.0601 Y2.0748
X1.06 Y2.075
X1.0556 Y2.0898
X1.0555 Y2.0901
X1.0512 Y2.1052
X1.0511 Y2.1054
X1.047 Y2.1209
X1.0469 Y2.1211
X1.0428 Y2.1368
Y2.1371
X1.0389 Y2.153
X1.0388 Y2.1532
X1.0351 Y2.1694
X1.035 Y2.1696
X1.0314 Y2.186
X1.0313 Y2.1862
X1.0278 Y2.2028
Y2.2029
X1.0244 Y2.2196
Y2.2198
X1.0211 Y2.2366
Y2.2368
X1.0179 Y2.2537
Y2.2538
X1.0149 Y2.2708
Y2.2709
X1.012 Y2.2879
Y2.2881
X1.0093 Y2.3051
Y2.3052
X1.0066 Y2.3221
Y2.3223
X1.0041 Y2.3392
Y2.3393
X1.0018 Y2.3561
X1.0017 Y2.3562
X0.9995 Y2.3729
Y2.3731
X0.9974 Y2.3896
Y2.3897
X0.9954 Y2.4061
Y2.4062
X0.9935 Y2.4224
Y2.4225
X0.9918 Y2.4385
Y2.4386
X0.9901 Y2.4543
Y2.4545
X0.9886 Y2.4699
Y2.47
X0.9873 Y2.4851
Y2.4852
X0.986 Y2.5
Y2.5001
X0.9849 Y2.5146
Y2.5147
X0.9839 Y2.5288
Y2.529
X0.983 Y2.5428
Y2.543
X0.9823 Y2.5565
Y2.5567
X0.9818 Y2.57
Y2.5702
X0.9815 Y2.5832
X0.9814 Y2.5834
X0.9813 Y2.5961
Y2.5964
Y2.6089
Y2.6092
X0.9815 Y2.6215
Y2.6218
X0.9819 Y2.6339
Y2.6342
X0.9825 Y2.6461
Y2.6465
X0.9833 Y2.6582
X0.9834 Y2.6586
X0.9844 Y2.6702
X0.9845 Y2.6706
X0.9857 Y2.682
X0.9858 Y2.6824
X0.9873 Y2.6937
X0.9874 Y2.6941
X0.9891 Y2.7053
X0.9892 Y2.7058
X0.9912 Y2.7169
X0.9913 Y2.7173
X0.9936 Y2.7283
X0.9937 Y2.7288
X0.9962 Y2.7398
X0.9963 Y2.7402
X0.9992 Y2.7511
X0.9993 Y2.7516
X1.0024 Y2.7625
X1.0026 Y2.7629
X1.006 Y2.7738
X1.0061 Y2.7742
X1.0098 Y2.7851
X1.01 Y2.7855
X1.014 Y2.7964
X1.0142 Y2.7968
X1.0185 Y2.8077
X1.0186 Y2.808
X1.0232 Y2.8189
X1.0233 Y2.8193
X1.0281 Y2.8301
X1.0283 Y2.8304
X1.0333 Y2.8413
X1.0334 Y2.8415
X1.0386 Y2.8523
X1.0387 Y2.8525
X1.044 Y2.8633
X1.0441 Y2.8635
X1.0496 Y2.8742
X1.0497 Y2.8744
X1.0552 Y2.885
X1.0553 Y2.8851
X1.0609 Y2.8957
X1.061 Y2.8958
X1.0666 Y2.9063
X1.0723 Y2.9167
X1.0779 Y2.927
X1.0835 Y2.9371
X1.089 Y2.9471
X1.0943 Y2.9568
X1.0995 Y2.9664
X1.1045 Y2.9757
X1.1093 Y2.9849
X1.1138 Y2.9937
X1.1181 Y3.0024
X1.1221 Y3.0107
X1.1257 Y3.0187
X1.1289 Y3.0264
X1.1318 Y3.0338
X1.1343 Y3.0409
X1.1365 Y3.0477
X1.1384 Y3.0543
X1.14 Y3.0606
X1.1414 Y3.0667
X1.1425 Y3.0727
X1.1435 Y3.0784
X1.1443 Y3.084
X1.1449 Y3.0895
X1.1454 Y3.0949
X1.1459 Y3.1002
X1.1462 Y3.1054
X1.1465 Y3.1106
X1.1467 Y3.1158
X1.147 Y3.121
Y3.1211
X1.1472 Y3.1262
Y3.1264
X1.1475 Y3.1315
Y3.1317
X1.1479 Y3.1368
Y3.1371
X1.1484 Y3.1421
Y3.1426
X1.149 Y3.1476
X1.1491 Y3.1481
X1.1498 Y3.1532
X1.1499 Y3.1537
X1.1507 Y3.1588
X1.1509 Y3.1595
X1.1519 Y3.1646
X1.1521 Y3.1652
X1.1534 Y3.1704
X1.1535 Y3.171
X1.155 Y3.1763
X1.1552 Y3.1769
X1.1569 Y3.1823
X1.157 Y3.1828
X1.1589 Y3.1883
X1.159 Y3.1887
X1.1611 Y3.1943
X1.1612 Y3.1947
X1.1634 Y3.2004
X1.1636 Y3.2007
X1.1659 Y3.2064
X1.1661 Y3.2067
X1.1685 Y3.2126
X1.1686 Y3.2128
X1.1713 Y3.2187
X1.1714 Y3.2189
X1.1741 Y3.2248
X1.1742 Y3.225
X1.177 Y3.2309
Y3.2311
X1.1799 Y3.237
X1.18 Y3.2371
X1.1829 Y3.2431
X1.183 Y3.2432
X1.186 Y3.2491
Y3.2492
X1.1891 Y3.2552
Y3.2553
X1.1922 Y3.2611
Y3.2612
X1.1953 Y3.2671
X1.1983 Y3.2729
X1.2014 Y3.2787
X1.2044 Y3.2843
X1.2073 Y3.2899
X1.2102 Y3.2954
X1.213 Y3.3007
X1.2157 Y3.3059
X1.2182 Y3.3109
X1.2207 Y3.3158
X1.2231 Y3.3206
X1.2232 Y3.3207
X1.2255 Y3.3253
X1.2256 Y3.3254
X1.2279 Y3.33
X1.228 Y3.3302
X1.2303 Y3.3346
X1.2305 Y3.3349
X1.2329 Y3.3392
X1.233 Y3.3395
X1.2354 Y3.3437
X1.2357 Y3.3441
X1.2382 Y3.3482
X1.2385 Y3.3487
X1.2411 Y3.3527
X1.2414 Y3.3532
X1.2442 Y3.3572
X1.2446 Y3.3577
X1.2475 Y3.3617
X1.2479 Y3.3622
X1.2511 Y3.3661
X1.2515 Y3.3667
X1.2549 Y3.3705
X1.2554 Y3.371
X1.259 Y3.3749
X1.2595 Y3.3754
X1.2634 Y3.3792
X1.2639 Y3.3797
X1.2681 Y3.3836
X1.2687 Y3.384
X1.2732 Y3.3879
X1.2737 Y3.3883
X1.2786 Y3.3921
X1.2791 Y3.3925
X1.2844 Y3.3964
X1.2849 Y3.3968
X1.2906 Y3.4007
X1.2911 Y3.401
X1.2973 Y3.405
X1.2977 Y3.4053
X1.3043 Y3.4094
X1.3047 Y3.4096
X1.3119 Y3.4138
X1.3123 Y3.414
X1.32 Y3.4182
X1.3203 Y3.4184
X1.3285 Y3.4227
X1.3288 Y3.4228
X1.3375 Y3.4272
X1.3378 Y3.4273
X1.347 Y3.4317
X1.3472 Y3.4318
X1.3568 Y3.4362
X1.357 Y3.4363
X1.367 Y3.4407
X1.3672 Y3.4408
X1.3775 Y3.4452
X1.3777 Y3.4453
X1.3883 Y3.4496
X1.3885 Y3.4497
X1.3994 Y3.4541
X1.3997
X1.4108 Y3.4584
X1.411 Y3.4585
X1.4224 Y3.4627
X1.4226 Y3.4628
X1.4342 Y3.467
X1.4344
X1.4461 Y3.4711
X1.4463 Y3.4712
X1.4582 Y3.4751
X1.4584 Y3.4752
X1.4704 Y3.4791
X1.4706
X1.4827 Y3.4829
X1.4829
X1.495 Y3.4865
X1.4952 Y3.4866
X1.5073 Y3.4901
X1.5075
X1.5196 Y3.4934
X1.5198 Y3.4935
X1.5319 Y3.4966
X1.5321
X1.5441 Y3.4996
X1.5443
X1.5561 Y3.5024
X1.5564
X1.5681 Y3.5049
X1.5684 Y3.505
X1.5799 Y3.5073
X1.5802
X1.5915 Y3.5094
X1.5918
X1.6029 Y3.5113
X1.6032
X1.6141 Y3.5129
X1.6144 Y3.513
X1.6251 Y3.5144
X1.6253
X1.6358 Y3.5156
X1.6361 Y3.5157
X1.6464 Y3.5167
X1.6467
X1.6568 Y3.5176
X1.657 Y3.5177
X1.6669 Y3.5184
X1.6672
X1.6768 Y3.519
X1.6771
X1.6866 Y3.5195
X1.6868
X1.696 Y3.5198
X1.6962
X1.7053 Y3.52
X1.7055
X1.7144 Y3.5202
X1.7145
X1.7232
X1.7234
X1.7318
X1.7319
X1.7402 Y3.5201
X1.7403
X1.7483 Y3.5199
X1.7484
X1.7562 Y3.5197
X1.7563
X1.7639 Y3.5195
X1.7713 Y3.5193
X1.7714
X1.7785 Y3.519
X1.7855 Y3.5188
X1.7922 Y3.5186
X1.7986 Y3.5184
X1.8048 Y3.5182
X1.8108 Y3.5181
X1.8165
X1.822 Y3.518
X1.8273
X1.8324 Y3.5181
X1.8373 Y3.5182
X1.842 Y3.5184
X1.8465 Y3.5186
X1.8508 Y3.5188
X1.855 Y3.5191
X1.8589 Y3.5195
X1.8627 Y3.5199
X1.8663 Y3.5204
X1.8698 Y3.5209
X1.8731 Y3.5214
X1.8762 Y3.5221
X1.8793 Y3.5227
X1.8822 Y3.5235
X1.8849 Y3.5242
X1.8876 Y3.5251
X1.8902 Y3.526
X1.8927 Y3.5269
X1.8951 Y3.5279
X1.8974 Y3.5289
X1.8996 Y3.5301
X1.9018 Y3.5312
X1.9038 Y3.5324
X1.9056 Y3.5337
X1.9074 Y3.535
X1.909 Y3.5364
X1.9106 Y3.5379
X1.912 Y3.5395
X1.9134 Y3.5412
X1.9148 Y3.5431
X1.9161 Y3.5451
X1.9173 Y3.5472
X1.9184 Y3.5495
X1.9195 Y3.552
X1.9205 Y3.5547
X1.9214 Y3.5576
X1.9222 Y3.5607
X1.9229 Y3.5641
X1.9235 Y3.5676
X1.9239 Y3.5714
X1.9243 Y3.5754
X1.9245 Y3.5796
Y3.5841
X1.9244 Y3.5889
X1.9242 Y3.594
X1.9238 Y3.5994
X1.9234 Y3.6051
X1.9228 Y3.6109
X1.9222 Y3.617
X1.9216 Y3.6232
X1.9209 Y3.6297
X1.9202 Y3.6361
X1.9195 Y3.6427
Y3.6428
X1.9188 Y3.6493
Y3.6494
X1.9182 Y3.656
Y3.6561
X1.9176 Y3.6626
Y3.6628
X1.9171 Y3.6692
Y3.6694
X1.9167 Y3.6757
Y3.676
X1.9163 Y3.6822
Y3.6825
X1.9161 Y3.6885
Y3.6889
X1.916 Y3.6947
Y3.6952
X1.9161 Y3.7008
Y3.7014
X1.9163 Y3.7067
Y3.7074
X1.9167 Y3.7125
X1.9168 Y3.7133
X1.9174 Y3.7181
X1.9175 Y3.7191
X1.9182 Y3.7235
X1.9185 Y3.7247
X1.9195 Y3.7288
X1.9198 Y3.73
X1.921 Y3.7339
X1.9214 Y3.735
X1.9228 Y3.7387
X1.9233 Y3.7398
X1.9249 Y3.7433
X1.9254 Y3.7444
X1.9272 Y3.7477
X1.9278 Y3.7488
X1.9298 Y3.752
X1.9305 Y3.753
X1.9327 Y3.756
X1.9333 Y3.7569
X1.9358 Y3.7599
X1.9364 Y3.7606
X1.939 Y3.7635
X1.9397 Y3.7642
X1.9425 Y3.767
X1.9431 Y3.7676
X1.946 Y3.7703
X1.9466 Y3.7708
X1.9498 Y3.7735
X1.9502 Y3.7739
X1.9536 Y3.7765
X1.954 Y3.7769
X1.9575 Y3.7795
X1.9579 Y3.7798
X1.9616 Y3.7823
X1.9619 Y3.7826
X1.9657 Y3.7852
X1.966 Y3.7853
X1.9699 Y3.7879
X1.9701 Y3.7881
X1.9743 Y3.7907
X1.9744 Y3.7908
X1.9787 Y3.7934
X1.9788 Y3.7935
X1.9832 Y3.7962
X1.9877 Y3.7989
X1.9924 Y3.8017
X1.9971 Y3.8046
X2.0019 Y3.8075
X2.0067 Y3.8105
X2.0116 Y3.8136
X2.0165 Y3.8168
X2.0215 Y3.82
X2.0265 Y3.8234
X2.0315 Y3.8268
X2.0365 Y3.8304
X2.0415 Y3.834
X2.0464 Y3.8377
X2.0514 Y3.8414
X2.0562 Y3.8453
X2.061 Y3.8491
X2.0658 Y3.8531
X2.0704 Y3.8571
X2.075 Y3.8612
X2.0795 Y3.8653
X2.0838 Y3.8695
X2.088 Y3.8738
X2.0921 Y3.878
X2.096 Y3.8823
X2.0998 Y3.8866
X2.1034 Y3.891
X2.1068 Y3.8954
X2.11 Y3.8998
X2.113 Y3.9042
X2.1157 Y3.9085
X2.1183 Y3.9129
X2.1206 Y3.9173
X2.1227 Y3.9217
X2.1245 Y3.9262
X2.1262 Y3.9307
X2.1277 Y3.9353
X2.1289 Y3.94
X2.13 Y3.9447
X2.1308 Y3.9496
X2.1315 Y3.9545
X2.1319 Y3.9596
X2.1321 Y3.9649
Y3.9702
X2.1319 Y3.9758
X2.1314 Y3.9815
X2.1307 Y3.9874
X2.1298 Y3.9935
X2.1287 Y3.9998
X2.1272 Y4.0062
X2.1256 Y4.0129
X2.1236 Y4.0198
X2.1214 Y4.0268
X2.119 Y4.0341
X2.1162 Y4.0417
X2.1132 Y4.0494
X2.11 Y4.0574
X2.1065 Y4.0655
X2.1027 Y4.0738
X2.0987 Y4.0823
X2.0944 Y4.091
X2.0899 Y4.0998
X2.0851 Y4.1086
X2.0801 Y4.1176
X2.0748 Y4.1267
X2.0693 Y4.1359
X2.0635 Y4.1451
X2.0575 Y4.1544
X2.0513 Y4.1637
X2.0448 Y4.1731
X2.0381 Y4.1824
X2.0311 Y4.1918
X2.0239 Y4.2011
X2.0165 Y4.2104
X2.0089 Y4.2197
X2.001 Y4.229
X1.9929 Y4.2382
X1.9845 Y4.2473
X1.976 Y4.2563
X1.9672 Y4.2652
X1.9582 Y4.2741
X1.949 Y4.2828
X1.9395 Y4.2914
X1.9298 Y4.2999
X1.9198 Y4.3083
X1.9096 Y4.3166
X1.8992 Y4.3247
X1.8885 Y4.3327
X1.8776 Y4.3405
X1.8665 Y4.3482
X1.8551 Y4.3557
X1.8434 Y4.3632
X1.8315 Y4.3704
X1.8193 Y4.3774
X1.8069 Y4.3843
X1.7942 Y4.391
X1.7812 Y4.3975
X1.7679 Y4.4038
X1.7545 Y4.4099
X1.7407 Y4.4158
X1.7266 Y4.4215
X1.7123 Y4.4269
X1.6977 Y4.4322
X1.6829 Y4.4372
X1.6678 Y4.4421
X1.6526 Y4.4467
X1.6373 Y4.4512
X1.6219 Y4.4554
X1.6065 Y4.4594
X1.5911 Y4.4633
X1.5757 Y4.4669
X1.5605 Y4.4704
X1.5454 Y4.4737
X1.5304 Y4.4768
X1.5157 Y4.4798
X1.5013 Y4.4826
X1.4873 Y4.4853
X1.4735 Y4.4877
X1.4602 Y4.4901
X1.4473 Y4.4923
X1.4349 Y4.4943
X1.4231 Y4.4962
X1.4118 Y4.498
X1.4011 Y4.4996
X1.3911 Y4.5011
X1.3817 Y4.5026
X1.3743 Y4.5037
X1.3674 Y4.5048
X1.3611 Y4.5057
X1.361
X1.3551 Y4.5066
X1.355
X1.3495 Y4.5075
X1.3446 Y4.5083
X1.34 Y4.509
X1.3398
X1.3356 Y4.5097
X1.3319 Y4.5104
X1.3318
X1.3283 Y4.511
X1.3282
X1.3251 Y4.5115
X1.325 Y4.5116
X1.3222 Y4.5121
X1.3221
X1.3196 Y4.5126
X1.3195
X1.3173 Y4.513
X1.3168 Y4.5131
X1.3151 Y4.5135
X1.3135 Y4.5139
X1.3125 Y4.5141
X1.3111 Y4.5145
X1.311
X1.3097 Y4.5149
X1.3086 Y4.5152
X1.3075 Y4.5156
X1.3064 Y4.516
X1.3047 Y4.5167
X1.3038 Y4.5171
X1.3034 Y4.5173
X1.3025 Y4.5178
X1.3017 Y4.5182
X1.3008 Y4.5186
X1.3003 Y4.5189
X1.2995 Y4.5194
X1.2988 Y4.5199
X1.2979 Y4.5205
X1.297 Y4.5211
X1.2968 Y4.5212
X1.2958 Y4.5219
X1.2954 Y4.5221
X1.2944 Y4.5228
X1.2931 Y4.5237
X1.2916 Y4.5247
X1.2913 Y4.5249
X1.2896 Y4.5261
X1.2895
X1.2877 Y4.5273
X1.2858 Y4.5286
X1.2857 Y4.5287
X1.2837 Y4.5301
X1.2836 Y4.5302
X1.2815 Y4.5316
X1.2813 Y4.5317
X1.2792 Y4.5332
X1.277 Y4.5348
X1.2768 Y4.5349
X1.2745 Y4.5366
X1.2722 Y4.5383
X1.272 Y4.5385
X1.2697 Y4.5402
X1.2696 Y4.5403
X1.2672 Y4.5421
X1.267 Y4.5423
X1.2646 Y4.5441
X1.2645 Y4.5442
X1.2621 Y4.5461
X1.2618 Y4.5463
X1.2594 Y4.5484
X1.2593
X1.2568 Y4.5505
X1.2567 Y4.5506
X1.2542 Y4.5527
X1.2541 Y4.5528
X1.2516 Y4.555
X1.2515 Y4.5551
X1.249 Y4.5573
X1.2487 Y4.5575
X1.2463 Y4.5598
X1.2461 Y4.56
X1.2437 Y4.5623
Y4.5624
X1.2413 Y4.5646
X1.241 Y4.565
X1.2387 Y4.5674
X1.2384 Y4.5676
X1.2362 Y4.57
X1.236 Y4.5702
X1.2338 Y4.5726
X1.2336 Y4.5729
X1.2315 Y4.5753
X1.2312 Y4.5756
X1.2291 Y4.5781
X1.2288 Y4.5785
X1.2268 Y4.581
X1.2266 Y4.5813
X1.2247 Y4.5838
X1.2243 Y4.5844
X1.2225 Y4.5869
X1.2222 Y4.5874
X1.2206 Y4.5899
X1.2202 Y4.5905
X1.2186 Y4.5931
X1.2183 Y4.5937
X1.2168 Y4.5964
X1.2164 Y4.5972
X1.2151 Y4.5999
X1.2148 Y4.6006
X1.2136 Y4.6034
X1.2133 Y4.6042
X1.2122 Y4.607
X1.2119 Y4.6079
X1.2109 Y4.6107
X1.2106 Y4.6117
X1.2099 Y4.6147
X1.2096 Y4.6156
X1.209 Y4.6186
X1.2088 Y4.6196
X1.2083 Y4.6226
X1.2082 Y4.6237
X1.2079 Y4.6269
X1.2078 Y4.6278
X1.2076 Y4.6311
Y4.6321
Y4.6354
Y4.6364
X1.2078 Y4.6398
X1.2079 Y4.6408
X1.2083 Y4.6443
X1.2084 Y4.6452
X1.209 Y4.6488
X1.2091 Y4.6497
X1.2099 Y4.6534
X1.2101 Y4.6543
X1.2111 Y4.6581
X1.2113 Y4.659
X1.2125 Y4.6629
X1.2128 Y4.6637
X1.2142 Y4.6677
X1.2145 Y4.6685
X1.2161 Y4.6726
X1.2164 Y4.6732
X1.2182 Y4.6774
X1.2186 Y4.6781
X1.2207 Y4.6822
X1.221 Y4.6829
X1.2233 Y4.687
X1.2237 Y4.6877
X1.2262 Y4.6918
X1.2266 Y4.6925
X1.2293 Y4.6966
X1.2297 Y4.6971
X1.2327 Y4.7012
X1.2332 Y4.7019
X1.2364 Y4.7059
X1.2368 Y4.7065
X1.2402 Y4.7104
X1.2408 Y4.711
X1.2444 Y4.7149
X1.2449 Y4.7155
X1.2488 Y4.7192
X1.2493 Y4.7197
X1.2534 Y4.7233
X1.254 Y4.7238
X1.2582 Y4.7273
X1.259 Y4.7279
X1.2634 Y4.7311
X1.2642 Y4.7317
X1.2689 Y4.7348
X1.2697 Y4.7352
X1.2746 Y4.7381
X1.2754 Y4.7386
X1.2804 Y4.7412
X1.2813 Y4.7417
X1.2866 Y4.7441
X1.2876 Y4.7445
X1.2931 Y4.7467
X1.294 Y4.747
X1.2997 Y4.7489
X1.3008 Y4.7493
X1.3067 Y4.7509
X1.3077 Y4.7511
X1.3139 Y4.7525
X1.3149 Y4.7527
X1.3213 Y4.7537
X1.3221 Y4.7538
X1.3287 Y4.7546
X1.3295
X1.3364 Y4.7552
X1.3372
X1.3443 Y4.7554
X1.3448
X1.3521 Y4.7555
X1.3526
X1.3601 Y4.7553
X1.3606
X1.3683 Y4.7549
X1.3687
X1.3765 Y4.7543
X1.3768
X1.3847 Y4.7535
X1.3852
X1.3932 Y4.7525
X1.3934
X1.4015 Y4.7514
X1.4018
X1.41 Y4.7502
X1.4103
X1.4185 Y4.7488
X1.4187
X1.427 Y4.7474
X1.4272 Y4.7473
X1.4356 Y4.7458
X1.4358
X1.4441 Y4.7442
X1.4442 Y4.7441
X1.4526 Y4.7425
X1.4528
X1.4611 Y4.7407
X1.4612
X1.4696 Y4.7389
X1.4779 Y4.7372
X1.478 Y4.7371
X1.4862 Y4.7353
X1.4944 Y4.7335
X1.5025 Y4.7317
X1.5104 Y4.73
X1.5182 Y4.7283
X1.5183
X1.526 Y4.7266
X1.5335 Y4.725
X1.5409 Y4.7235
X1.5482 Y4.722
X1.5483
X1.5555 Y4.7205
X1.5625 Y4.7191
X1.5694 Y4.7177
X1.5761 Y4.7165
X1.5827 Y4.7152
X1.5891 Y4.714
X1.5954 Y4.7129
X1.6015 Y4.7118
X1.6074 Y4.7108
X1.6131 Y4.7098
X1.6186 Y4.7089
X1.624 Y4.7081
X1.6292 Y4.7073
X1.6342 Y4.7067
X1.639 Y4.706
X1.6436 Y4.7055
X1.6479 Y4.705
X1.6519 Y4.7046
X1.6558 Y4.7043
X1.6595 Y4.704
X1.663 Y4.7039
X1.6663 Y4.7037
X1.6693
X1.6723
X1.675 Y4.7038
X1.6775 Y4.704
X1.6801 Y4.7042
X1.6825 Y4.7044
X1.6845 Y4.7047
X1.6865 Y4.705
X1.6886 Y4.7054
X1.6904 Y4.7058
X1.6921 Y4.7062
X1.6938 Y4.7067
X1.6953 Y4.7072
X1.6969 Y4.7078
X1.6984 Y4.7084
X1.6999 Y4.709
X1.7014 Y4.7096
X1.7029 Y4.7103
X1.7044 Y4.7111
X1.7059 Y4.7119
X1.7074 Y4.7127
X1.7091 Y4.7137
X1.7108 Y4.7146
X1.7125 Y4.7156
X1.7142 Y4.7166
X1.7157 Y4.7176
X1.7174 Y4.7186
X1.7192 Y4.7198
X1.721 Y4.7209
X1.7227 Y4.7219
X1.7243 Y4.723
X1.726 Y4.7241
X1.7276 Y4.7252
X1.7279 Y4.7254
X1.7296 Y4.7266
X1.7312 Y4.7276
X1.7328 Y4.7288
X1.733 Y4.7289
X1.7346 Y4.73
X1.7362 Y4.7311
X1.7364 Y4.7312
X1.7381 Y4.7324
X1.7397 Y4.7335
X1.7414 Y4.7346
X1.743 Y4.7358
X1.7432 Y4.7359
X1.7448 Y4.737
X1.7464 Y4.7381
Y4.7382
X1.748 Y4.7393
X1.7483 Y4.7394
X1.7498 Y4.7405
X1.7499
X1.7514 Y4.7415
X1.7515 Y4.7416
X1.753 Y4.7425
X1.7538 Y4.7431
X1.7553 Y4.7439
X1.7556 Y4.7441
X1.757 Y4.7449
X1.7575 Y4.7451
X1.7589 Y4.7459
X1.7599 Y4.7463
X1.7614 Y4.747
X1.7621 Y4.7473
X1.7637 Y4.7479
X1.7648 Y4.7483
X1.7665 Y4.7488
X1.7672 Y4.7491
X1.769 Y4.7496
X1.7696 Y4.7497
X1.7716 Y4.7502
X1.7729 Y4.7505
X1.775 Y4.7508
X1.7758 Y4.751
X1.7781 Y4.7512
X1.7791 Y4.7513
X1.7816 Y4.7515
X1.7822
X1.7848 Y4.7516
X1.7857
X1.7885
X1.789
X1.7921 Y4.7515
X1.7929 Y4.7514
X1.7962 Y4.7511
X1.7969
X1.8005 Y4.7506
X1.8009
X1.8048 Y4.75
X1.8052
X1.8094 Y4.7493
X1.8099 Y4.7492
X1.8145 Y4.7483
X1.8148
X1.8197 Y4.7472
X1.82
X1.8252 Y4.746
X1.8256 Y4.7459
X1.8311 Y4.7445
X1.8313
X1.8371 Y4.743
X1.8374 Y4.7429
X1.8435 Y4.7413
X1.8499 Y4.7395
X1.85
X1.8565 Y4.7376
X1.8567
X1.8634 Y4.7356
X1.8702 Y4.7336
X1.8703
X1.8772 Y4.7315
X1.8842 Y4.7294
X1.8913 Y4.7273
X1.8914
X1.8984 Y4.7251
X1.9055 Y4.723
X1.9126 Y4.7209
X1.9196 Y4.7188
X1.9265 Y4.7168
X1.9333 Y4.7149
X1.9399 Y4.7131
X1.9464 Y4.7114
X1.9527 Y4.7098
X1.9587 Y4.7083
X1.9645 Y4.707
X1.9699 Y4.7058
X1.9751 Y4.7049
X1.9799 Y4.7041
X1.9843 Y4.7035
X1.9884 Y4.7031
X1.9922 Y4.7028
X1.9958 Y4.7027
X1.9993 Y4.7026
X2.0025 Y4.7027
X2.0054 Y4.7029
X2.0083 Y4.7031
X2.011 Y4.7034
X2.0137 Y4.7038
X2.0163 Y4.7042
X2.0187 Y4.7046
X2.0211 Y4.7051
X2.0236 Y4.7056
X2.0238
X2.0263 Y4.7061
X2.0288 Y4.7066
X2.0293 Y4.7067
X2.0318 Y4.7071
X2.0343 Y4.7075
X2.0349
X2.0374 Y4.7079
X2.038
X2.0406 Y4.7082
X2.0412
X2.0438 Y4.7084
X2.0444
X2.0471 Y4.7085
X2.0482
X2.051 Y4.7084
X2.0517
X2.0548 Y4.7082
X2.0551 Y4.7081
X2.0584 Y4.7079
X2.0593 Y4.7077
X2.0628 Y4.7073
X2.0632 Y4.7072
X2.0669 Y4.7066
X2.0674 Y4.7065
X2.0713 Y4.7058
X2.0716 Y4.7057
X2.0757 Y4.7048
X2.0763 Y4.7047
X2.0806 Y4.7036
X2.081 Y4.7035
X2.0856 Y4.7023
X2.0859 Y4.7022
X2.0907 Y4.7009
X2.091 Y4.7008
X2.096 Y4.6992
X2.0964 Y4.6991
X2.1017 Y4.6974
X2.102 Y4.6973
X2.1076 Y4.6954
X2.1078 Y4.6953
X2.1136 Y4.6932
X2.1139 Y4.6931
X2.12 Y4.6907
X2.1202
X2.1265 Y4.6882
X2.1268 Y4.6881
X2.1335 Y4.6854
X2.1336 Y4.6853
X2.1405 Y4.6824
X2.1407 Y4.6823
X2.1479 Y4.6792
X2.1481 Y4.6791
X2.1556 Y4.6758
X2.1558 Y4.6757
X2.1636 Y4.6721
X2.1637
X2.1718 Y4.6683
X2.172 Y4.6682
X2.1804 Y4.6642
X2.1806 Y4.6641
X2.1893 Y4.6598
X2.1894
X2.1985 Y4.6552
X2.1986
X2.2079 Y4.6504
X2.208
X2.2177 Y4.6454
X2.2178 Y4.6453
X2.2278 Y4.6401
X2.2279 Y4.64
X2.2381 Y4.6345
X2.2382
X2.2487 Y4.6288
X2.2488 Y4.6287
X2.2595 Y4.6228
X2.2596
X2.2706 Y4.6167
X2.2707 Y4.6166
X2.2818 Y4.6103
X2.2819 Y4.6102
X2.2932 Y4.6037
X2.2933
X2.3048 Y4.597
X2.3049 Y4.5969
X2.3165 Y4.59
X2.3166
X2.3283 Y4.5829
X2.3284
X2.3402 Y4.5757
X2.3403 Y4.5756
X2.3522 Y4.5682
X2.3523 Y4.5681
X2.3643 Y4.5606
X2.3644 Y4.5605
X2.3764 Y4.5528
X2.3766
X2.3886 Y4.5449
X2.3887 Y4.5448
X2.4008 Y4.5368
X2.4009
X2.4129 Y4.5287
X2.413 Y4.5286
X2.425 Y4.5204
X2.4252 Y4.5203
X2.4372 Y4.512
X2.4373 Y4.5119
X2.4492 Y4.5034
X2.4493 Y4.5033
X2.4612 Y4.4948
X2.4613 Y4.4946
X2.473 Y4.486
X2.4732 Y4.4859
X2.4848 Y4.4771
X2.4849 Y4.477
X2.4964 Y4.4682
X2.4966 Y4.468
X2.5079 Y4.4591
X2.5081 Y4.459
X2.5193 Y4.45
X2.5194 Y4.4499
X2.5306 Y4.4408
X2.5307 Y4.4407
X2.5418 Y4.4315
X2.5419
X2.5528 Y4.4222
X2.5529 Y4.4221
X2.5637 Y4.4128
X2.5638
X2.5745 Y4.4034
X2.5746 Y4.4033
X2.5852 Y4.3939
X2.5853 Y4.3938
X2.5958 Y4.3844
X2.5959 Y4.3843
X2.6063 Y4.3748
X2.6064 Y4.3747
X2.6166 Y4.3652
X2.6167 Y4.3651
X2.6269 Y4.3555
X2.627 Y4.3554
X2.637 Y4.3459
X2.6371 Y4.3458
X2.6471 Y4.3362
X2.6472 Y4.3361
X2.657 Y4.3264
X2.6571
X2.6668 Y4.3167
X2.6669 Y4.3166
X2.6765 Y4.307
X2.6766 Y4.3069
X2.6862 Y4.2972
Y4.2971
X2.6957 Y4.2875
Y4.2874
X2.7051 Y4.2778
Y4.2777
X2.7144 Y4.268
X2.7236 Y4.2583
X2.7327 Y4.2486
X2.7417 Y4.239
Y4.2389
X2.7506 Y4.2294
Y4.2293
X2.7594 Y4.2197
X2.7682 Y4.2102
X2.7768 Y4.2007
X2.7769 Y4.2006
X2.7855 Y4.1912
X2.7941 Y4.1818
X2.8026 Y4.1724
X2.8111 Y4.1631
X2.8196 Y4.1538
X2.8281 Y4.1447
X2.8365 Y4.1355
X2.845 Y4.1265
X2.8535 Y4.1175
X2.862 Y4.1086
X2.8704 Y4.0998
X2.879 Y4.0911
X2.8875 Y4.0824
X2.8961 Y4.0739
X2.9048 Y4.0655
X2.9135 Y4.0571
X2.9223 Y4.0489
X2.9312 Y4.0407
X2.9402 Y4.0326
X2.9492 Y4.0247
X2.9583 Y4.0169
X2.9676 Y4.0091
X2.9768 Y4.0014
X2.9862 Y3.9939
X2.9956 Y3.9864
X3.0051 Y3.979
X3.0147 Y3.9717
X3.0243 Y3.9645
X3.034 Y3.9573
X3.0438 Y3.9502
X3.0536 Y3.9432
X3.0635 Y3.9363
X3.0734 Y3.9294
X3.0834 Y3.9225
X3.0934 Y3.9158
X3.1034 Y3.909
X3.1135 Y3.9024
X3.1236 Y3.8958
X3.1338 Y3.8892
X3.144 Y3.8827
X3.1542 Y3.8762
X3.1644 Y3.8697
X3.1747 Y3.8633
X3.1849 Y3.857
X3.1951 Y3.8507
X3.2053 Y3.8444
X3.2155 Y3.8383
X3.2256 Y3.8322
X3.2357 Y3.8263
X3.2456 Y3.8204
X3.2555 Y3.8147
X3.2653 Y3.8091
X3.2749 Y3.8037
X3.2844 Y3.7984
X3.2938 Y3.7932
X3.303 Y3.7883
X3.312 Y3.7835
X3.3208 Y3.7789
X3.3294 Y3.7746
X3.3378 Y3.7704
X3.346 Y3.7665
X3.3539 Y3.7628
X3.3615 Y3.7594
X3.3688 Y3.7562
X3.3759 Y3.7533
X3.3826 Y3.7507
X3.389 Y3.7484
X3.395 Y3.7463
X3.4008 Y3.7445
X3.4063 Y3.743
X3.4115 Y3.7417
X3.4166 Y3.7406
X3.4214 Y3.7396
X3.4261 Y3.7388
X3.4306 Y3.7382
X3.4349 Y3.7377
X3.4392 Y3.7374
X3.4434 Y3.7371
X3.4475 Y3.737
X3.4516 Y3.7369
X3.4557 Y3.7368
X3.4598 Y3.7369
X3.464
X3.4683 Y3.737
X3.4725 Y3.7371
X3.4726
X3.4769 Y3.7372
X3.477
X3.4814 Y3.7373
X3.4816
X3.486
X3.4862
X3.4908 Y3.7372
X3.4911
X3.4956 Y3.7371
X3.496
X3.5007 Y3.7369
X3.501
X3.5059 Y3.7366
X3.5062 Y3.7365
X3.5112 Y3.7362
X3.5115 Y3.7361
X3.5167 Y3.7356
X3.517
X3.5223 Y3.735
X3.5226
X3.528 Y3.7343
X3.5282
X3.5338 Y3.7335
X3.534
X3.5397 Y3.7326
X3.5399
X3.5457 Y3.7316
X3.5459
X3.5517 Y3.7305
X3.552
X3.5579 Y3.7293
X3.5581 Y3.7292
X3.5641 Y3.728
X3.5643 Y3.7279
X3.5704 Y3.7266
X3.5706 Y3.7265
X3.5767 Y3.725
X3.577
X3.5831 Y3.7234
X3.5833 Y3.7233
X3.5895 Y3.7217
X3.5897 Y3.7216
X3.5959 Y3.7198
X3.5962 Y3.7197
X3.6024 Y3.7179
X3.6027 Y3.7178
X3.6089 Y3.7158
X3.6092 Y3.7157
X3.6154 Y3.7136
X3.6157 Y3.7135
X3.6219 Y3.7113
X3.6222 Y3.7112
X3.6284 Y3.7089
X3.6287 Y3.7088
X3.6349 Y3.7064
X3.6352 Y3.7062
X3.6414 Y3.7037
X3.6417 Y3.7036
X3.6478 Y3.7009
X3.6481 Y3.7008
X3.6542 Y3.698
X3.6545 Y3.6979
X3.6606 Y3.695
X3.661 Y3.6948
X3.6671 Y3.6918
X3.6674 Y3.6916
X3.6735 Y3.6885
X3.6738 Y3.6883
X3.6799 Y3.6849
X3.6803 Y3.6847
X3.6864 Y3.6812
X3.6867 Y3.681
X3.6929 Y3.6773
X3.6932 Y3.6771
X3.6995 Y3.6732
X3.6998 Y3.673
X3.7061 Y3.6689
X3.7064 Y3.6687
X3.7128 Y3.6644
X3.7131 Y3.6642
X3.7195 Y3.6597
X3.7198 Y3.6595
X3.7264 Y3.6547
X3.7266 Y3.6545
X3.7333 Y3.6494
X3.7335 Y3.6492
X3.7403 Y3.6439
X3.7406 Y3.6438
X3.7475 Y3.6382
X3.7477 Y3.638
X3.7547 Y3.6322
X3.7549 Y3.632
X3.7621 Y3.6258
X3.7623 Y3.6257
X3.7697 Y3.6192
X3.7699 Y3.6191
X3.7774 Y3.6123
X3.7776 Y3.6122
X3.7853 Y3.6051
X3.7854 Y3.6049
X3.7933 Y3.5975
X3.7935 Y3.5974
X3.8016 Y3.5896
X3.8017 Y3.5895
X3.81 Y3.5814
X3.8101 Y3.5812
X3.8187 Y3.5728
X3.8188 Y3.5727
X3.8276 Y3.5638
Y3.5637
X3.8366 Y3.5546
X3.8367 Y3.5545
X3.8459 Y3.545
X3.8553 Y3.5352
X3.8554
X3.865 Y3.5251
X3.8748 Y3.5148
X3.8849 Y3.5043
X3.8951 Y3.4936
X3.9056 Y3.4826
X3.9162 Y3.4716
X3.927 Y3.4603
X3.938 Y3.449
X3.9492 Y3.4376
X3.9606 Y3.426
X3.9721 Y3.4144
X3.9838 Y3.4028
X3.9958 Y3.3911
X4.0078 Y3.3794
X4.0201 Y3.3678
X4.0325 Y3.3562
X4.0451 Y3.3446
X4.0578 Y3.3331
X4.0708 Y3.3216
X4.0839 Y3.3103
X4.097 Y3.2991
X4.1104 Y3.2881
X4.1239 Y3.2771
X4.1374 Y3.2663
X4.151 Y3.2557
X4.1647 Y3.2453
X4.1784 Y3.235
X4.1921 Y3.225
X4.2058 Y3.2151
X4.2195 Y3.2055
X4.2332 Y3.1961
X4.2467 Y3.1869
X4.2602 Y3.178
X4.2736 Y3.1694
X4.2869 Y3.1611
X4.3 Y3.153
X4.313 Y3.1453
X4.3257 Y3.1378
X4.3383 Y3.1307
X4.3506 Y3.1239
X4.3628 Y3.1175
X4.3746 Y3.1115
X4.3861 Y3.1058
X4.3974 Y3.1005
X4.4083 Y3.0956
X4.4191 Y3.091
X4.4295 Y3.0868
X4.4397 Y3.0829
X4.4498 Y3.0793
X4.4596 Y3.0761
X4.4692 Y3.0731
X4.4787 Y3.0704
X4.488 Y3.068
X4.4972 Y3.0659
X4.5063 Y3.0639
X4.5153 Y3.0622
X4.5243 Y3.0608
X4.5332 Y3.0595
X4.5421 Y3.0584
X4.551 Y3.0575
X4.5599 Y3.0568
X4.5688 Y3.0562
X4.5778 Y3.0558
X4.5868 Y3.0555
X4.5959 Y3.0553
X4.6052
X4.6145
X4.624 Y3.0555
X4.6336 Y3.0557
X4.6434 Y3.0559
X4.6533 Y3.0561
X4.6634 Y3.0564
X4.6736 Y3.0565
X4.6737
X4.6839 Y3.0567
X4.6841
X4.6944
X4.6946
X4.7051 Y3.0566
X4.7054
X4.7159 Y3.0564
X4.7162
X4.7269 Y3.056
X4.7272
X4.738 Y3.0554
X4.7384 Y3.0553
X4.7493 Y3.0545
X4.7497
X4.7607 Y3.0535
X4.7612 Y3.0534
X4.7723 Y3.0521
X4.7728 Y3.052
X4.7841 Y3.0504
X4.7846
X4.796 Y3.0484
X4.7965
X4.8081 Y3.0461
X4.8086 Y3.046
X4.8203 Y3.0433
X4.8208 Y3.0432
X4.8326 Y3.0402
X4.8332 Y3.04
X4.8451 Y3.0366
X4.8457 Y3.0364
X4.8578 Y3.0325
X4.8584 Y3.0324
X4.8706 Y3.028
X4.8712 Y3.0278
X4.8836 Y3.0229
X4.8841 Y3.0227
X4.8967 Y3.0174
X4.8972 Y3.0171
X4.91 Y3.0112
X4.9104 Y3.011
X4.9233 Y3.0046
X4.9237 Y3.0044
X4.9368 Y2.9976
X4.9372 Y2.9974
X4.9504 Y2.9901
X4.9507 Y2.9899
X4.9641 Y2.9822
X4.9644 Y2.9821
X4.978 Y2.9739
X4.9782 Y2.9738
X4.9919 Y2.9653
X4.9921 Y2.9651
X5.0059 Y2.9563
X5.0061 Y2.9562
X5.0201 Y2.947
X5.0203 Y2.9469
X5.0344 Y2.9374
X5.0346 Y2.9372
X5.0488 Y2.9275
X5.0489 Y2.9274
X5.0633 Y2.9173
X5.0634 Y2.9172
X5.0779 Y2.9069
X5.078 Y2.9068
X5.0926 Y2.8963
X5.0927
X5.1074 Y2.8855
X5.1075
X5.1224 Y2.8746
X5.1374 Y2.8635
X5.1525 Y2.8523
X5.1677 Y2.841
X5.1829 Y2.8296
X5.1983 Y2.8182
X5.2137 Y2.8067
X5.2292 Y2.7952
X5.2448 Y2.7837
X5.2604 Y2.7722
X5.2762 Y2.7608
X5.2919 Y2.7493
X5.3078 Y2.7377
X5.3237 Y2.7262
X5.3396 Y2.7146
X5.3556 Y2.7029
X5.3716 Y2.6912
X5.3876 Y2.6795
Y2.6794
X5.4036 Y2.6676
X5.4196 Y2.6557
X5.4356 Y2.6437
X5.4516 Y2.6316
X5.4517
X5.4676 Y2.6194
X5.4835 Y2.6071
X5.4836 Y2.607
X5.4994 Y2.5947
X5.4995 Y2.5946
X5.5153 Y2.5821
X5.5154 Y2.582
X5.5311 Y2.5694
X5.5312
X5.5469 Y2.5566
X5.547 Y2.5565
X5.5626 Y2.5436
X5.5627 Y2.5435
X5.5782 Y2.5305
X5.5783 Y2.5304
X5.5938 Y2.5172
X5.5939 Y2.5171
X5.6092 Y2.5037
X5.6093
X5.6155 Y2.4982
X5.6156
X5.6217 Y2.4927
X5.6278 Y2.4872
X5.6339 Y2.4817
X5.6401 Y2.4761
X5.6462 Y2.4705
X5.6463
X5.6523 Y2.4649
X5.6583 Y2.4593
X5.6584
X5.6644 Y2.4537
X5.6645 Y2.4536
X5.6705 Y2.448
X5.6765 Y2.4424
X5.6766 Y2.4423
X5.6825 Y2.4366
X5.6885 Y2.431
Y2.4309
X5.6945 Y2.4253
X5.7004 Y2.4196
X5.7005 Y2.4195
X5.7064 Y2.4138
X5.7123 Y2.4081
X5.7182 Y2.4024
X5.7183
X5.7241 Y2.3967
X5.73 Y2.391
X5.7359 Y2.3853
Y2.3852
X5.7417 Y2.3795
X5.7476 Y2.3739
X5.7534 Y2.3682
G2 X5.759 Y2.3548 I-0.0131 J-0.0134
G1 Y1.5762
G2 X5.7347 Y1.5583 I-0.0188 J0.
G1 X5.7312 Y1.5594
X5.7278 Y1.5605
X5.7244 Y1.5615
X5.721 Y1.5626
X5.7175 Y1.5636
X5.7141 Y1.5647
X5.7106 Y1.5657
X5.7072 Y1.5667
X5.7071 Y1.5668
X5.7037 Y1.5678
X5.7003 Y1.5688
X5.7002
X5.6968 Y1.5699
X5.6934 Y1.571
X5.6899 Y1.572
X5.6865 Y1.5731
X5.683 Y1.5742
X5.6829
X5.6795 Y1.5753
X5.676 Y1.5764
X5.6759
X5.6725 Y1.5775
X5.669 Y1.5786
X5.6689 Y1.5787
X5.6655 Y1.5798
X5.6654
X5.662 Y1.581
X5.6585 Y1.5822
X5.6583
X5.6549 Y1.5834
X5.6514 Y1.5846
X5.6512 Y1.5847
X5.6437 Y1.5874
X5.6435 Y1.5875
X5.6359 Y1.5903
X5.6357
X5.6281 Y1.5933
X5.6279
X5.6203 Y1.5963
X5.6202 Y1.5964
X5.6125 Y1.5994
X5.6124
X5.6048 Y1.6026
X5.6046
X5.597 Y1.6058
X5.5969
X5.5893 Y1.609
X5.5892
X5.5817 Y1.6122
X5.5816 Y1.6123
X5.5741 Y1.6155
X5.5666 Y1.6187
X5.5591 Y1.622
X5.5518 Y1.6252
X5.5445 Y1.6283
X5.5374 Y1.6315
X5.5303 Y1.6345
X5.5234 Y1.6375
X5.5167 Y1.6404
X5.51 Y1.6432
X5.5036 Y1.6459
X5.4973 Y1.6485
X5.4912 Y1.6509
X5.4853 Y1.6533
X5.4796 Y1.6554
X5.4742 Y1.6574
X5.4689 Y1.6592
X5.4639 Y1.6609
X5.459 Y1.6624
X5.4543 Y1.6637
X5.4496 Y1.6648
X5.4452 Y1.6658
X5.4408 Y1.6667
X5.4366 Y1.6673
X5.4324 Y1.6679
X5.4283 Y1.6683
X5.4242 Y1.6685
X5.4201 Y1.6686
X5.4161 Y1.6685
X5.412 Y1.6683
X5.4078 Y1.668
X5.4036 Y1.6675
X5.3993 Y1.6668
X5.3949 Y1.666
X5.3904 Y1.665
X5.3857 Y1.6639
X5.3809 Y1.6625
X5.3759 Y1.661
X5.3708 Y1.6593
X5.3654 Y1.6574
X5.3597 Y1.6554
X5.3539 Y1.6532
X5.348 Y1.6509
X5.3418 Y1.6484
X5.3355 Y1.6459
X5.3292 Y1.6433
X5.3227 Y1.6406
X5.3161 Y1.6379
X5.3094 Y1.6352
X5.3027 Y1.6325
X5.3026 Y1.6324
X5.2959 Y1.6297
X5.2958
X5.289 Y1.627
X5.2889 Y1.6269
X5.2821 Y1.6243
X5.282
X5.2752 Y1.6217
X5.275 Y1.6216
X5.2683 Y1.6191
X5.2681 Y1.619
X5.2613 Y1.6166
X5.2611
X5.2544 Y1.6143
X5.2542 Y1.6142
X5.2475 Y1.612
X5.2472 Y1.6119
X5.2406 Y1.6099
X5.2403 Y1.6098
X5.2338 Y1.6079
X5.2333 Y1.6078
X5.2269 Y1.6061
X5.2265 Y1.606
X5.2201 Y1.6045
X5.2196 Y1.6044
X5.2134 Y1.6031
X5.2128 Y1.603
X5.2067 Y1.6019
X5.2061 Y1.6018
X5.2001 Y1.6009
X5.1996
X5.1937 Y1.6002
X5.1931 Y1.6001
X5.1873 Y1.5997
X5.1866 Y1.5996
X5.181 Y1.5994
X5.1803
X5.1747 Y1.5993
X5.174
X5.1686 Y1.5995
X5.1678 Y1.5996
X5.1625 Y1.6
X5.1617
X5.1565 Y1.6006
X5.1557 Y1.6007
X5.1506 Y1.6016
X5.1497 Y1.6017
X5.1447 Y1.6027
X5.1439 Y1.6029
X5.1389 Y1.6042
X5.1381 Y1.6044
X5.1333 Y1.6059
X5.1325 Y1.6062
X5.1277 Y1.6078
X5.1269 Y1.6081
X5.1223 Y1.61
X5.1215 Y1.6104
X5.1169 Y1.6125
X5.1161 Y1.6129
X5.1116 Y1.6153
X5.1109 Y1.6157
X5.1065 Y1.6182
X5.1059 Y1.6186
X5.1015 Y1.6214
X5.1008 Y1.6219
X5.0966 Y1.6249
X5.0958 Y1.6255
X5.0917 Y1.6287
X5.0912 Y1.6291
X5.0871 Y1.6326
X5.0866 Y1.6331
X5.0826 Y1.6368
X5.0821 Y1.6372
X5.0782 Y1.6411
X5.0776 Y1.6417
X5.0738 Y1.6459
X5.0733 Y1.6464
X5.0696 Y1.6508
X5.0692 Y1.6512
X5.0655 Y1.6558
X5.0651 Y1.6564
X5.0615 Y1.6612
X5.0612 Y1.6616
X5.0578 Y1.6666
X5.0574 Y1.6672
X5.0541 Y1.6723
X5.0538 Y1.6727
X5.0506 Y1.678
X5.0503 Y1.6785
X5.0472 Y1.6839
X5.047 Y1.6843
X5.044 Y1.6899
X5.0437 Y1.6904
X5.0409 Y1.6961
X5.0407 Y1.6966
X5.038 Y1.7023
X5.0378 Y1.7027
X5.0353 Y1.7086
X5.0351 Y1.709
X5.0327 Y1.7149
X5.0325 Y1.7155
X5.0302 Y1.7214
X5.0301 Y1.7218
X5.028 Y1.7278
X5.0279 Y1.7283
X5.026 Y1.7343
X5.0258 Y1.7348
X5.0241 Y1.7408
X5.024 Y1.7413
X5.0225 Y1.7473
X5.0223 Y1.7478
X5.021 Y1.7538
X5.0209 Y1.7543
X5.0197 Y1.7602
X5.0196 Y1.7608
X5.0187 Y1.7666
X5.0186 Y1.7673
X5.0179 Y1.7731
X5.0178 Y1.7737
X5.0173 Y1.7794
Y1.7801
X5.017 Y1.7857
Y1.7864
X5.0169 Y1.7918
Y1.7926
X5.017 Y1.798
X5.0171 Y1.7986
X5.0174 Y1.8038
X5.0175 Y1.8047
X5.018 Y1.8098
X5.0181 Y1.8104
X5.0188 Y1.8155
X5.0189 Y1.8161
X5.0198 Y1.8211
X5.0199 Y1.8218
X5.021 Y1.8267
X5.0211 Y1.8274
X5.0223 Y1.8322
X5.0225 Y1.8328
X5.0239 Y1.8376
X5.0241 Y1.8382
X5.0256 Y1.8429
X5.0258 Y1.8435
X5.0275 Y1.8481
X5.0277 Y1.8486
X5.0295 Y1.8532
X5.0297 Y1.8536
X5.0316 Y1.8582
X5.0318 Y1.8587
X5.0339 Y1.8633
X5.0341 Y1.8637
X5.0363 Y1.8682
X5.0365 Y1.8684
X5.0387 Y1.8729
X5.039 Y1.8734
X5.0414 Y1.8778
X5.0415 Y1.878
X5.044 Y1.8824
X5.0442 Y1.8827
X5.0468 Y1.8872
X5.047 Y1.8875
X5.0497 Y1.8919
Y1.892
X5.0525 Y1.8965
X5.0526 Y1.8967
X5.0554 Y1.9011
X5.0555 Y1.9013
X5.0585 Y1.9058
X5.0586 Y1.9059
X5.0615 Y1.9104
X5.0645 Y1.9149
X5.0647 Y1.9151
X5.0677 Y1.9196
X5.0678
X5.0708 Y1.924
X5.0709 Y1.9242
X5.074 Y1.9286
X5.0742 Y1.9288
X5.0773 Y1.933
X5.0774 Y1.9332
X5.0806 Y1.9374
X5.0808 Y1.9377
X5.0841 Y1.9418
X5.0843 Y1.9421
X5.0875 Y1.9461
X5.0878 Y1.9464
X5.0912 Y1.9503
X5.0914 Y1.9506
X5.0948 Y1.9543
X5.0952 Y1.9548
X5.0987 Y1.9584
X5.0991 Y1.9588
X5.1027 Y1.9624
X5.1031 Y1.9627
X5.1067 Y1.9662
X5.1073 Y1.9666
X5.111 Y1.9699
X5.1116 Y1.9703
X5.1155 Y1.9735
X5.116 Y1.9739
X5.1201 Y1.9769
X5.1207 Y1.9773
X5.1248 Y1.9801
X5.1255 Y1.9806
X5.1298 Y1.9832
X5.1305 Y1.9836
X5.1349 Y1.9861
X5.1356 Y1.9865
X5.1402 Y1.9888
X5.1409 Y1.9891
X5.1456 Y1.9913
X5.1465 Y1.9916
X5.1513 Y1.9935
X5.1522 Y1.9938
X5.1573 Y1.9956
X5.1581 Y1.9958
X5.1633 Y1.9973
X5.1641 Y1.9975
X5.1696 Y1.9988
X5.1703 Y1.999
X5.176 Y2.0001
X5.1767 Y2.0002
X5.1826 Y2.0012
X5.1832
X5.1892 Y2.002
X5.1898
X5.196 Y2.0026
X5.1965
X5.2028 Y2.003
X5.2033 Y2.0031
X5.2097 Y2.0033
X5.21
X5.2165 Y2.0035
X5.2169
X5.2235
X5.2237
X5.2304 Y2.0034
X5.2307
X5.2373 Y2.0032
X5.2375
X5.2442 Y2.0029
X5.2444
X5.251 Y2.0026
X5.2512
X5.2578 Y2.0022
X5.2579
X5.2645 Y2.0018
X5.271 Y2.0014
X5.2775 Y2.001
X5.2838 Y2.0005
X5.2899 Y2.0001
X5.2959 Y1.9997
X5.3016 Y1.9994
X5.3071 Y1.9991
X5.3123 Y1.9989
X5.3172 Y1.9988
X5.3218
X5.3261 Y1.9989
X5.33 Y1.9991
X5.3337 Y1.9994
X5.337 Y1.9999
X5.3401 Y2.0005
X5.3429 Y2.0013
X5.3454 Y2.0022
X5.3477 Y2.0032
X5.3499 Y2.0044
X5.352 Y2.0058
X5.354 Y2.0074
X5.356 Y2.0092
X5.3579 Y2.0113
X5.3597 Y2.0137
X5.3615 Y2.0165
X5.3634 Y2.0197
X5.3653 Y2.0234
X5.3672 Y2.0274
X5.3691 Y2.0319
X5.371 Y2.0369
X5.3729 Y2.0423
X5.3749 Y2.0483
X5.3769 Y2.0546
X5.3789 Y2.0614
X5.381 Y2.0686
X5.383 Y2.0762
X5.3851 Y2.0842
X5.3872 Y2.0925
X5.3893 Y2.1011
X5.3914 Y2.1099
X5.3934 Y2.1189
X5.3955 Y2.1281
X5.3974 Y2.1374
X5.3993 Y2.1468
X5.4012 Y2.1563
X5.403 Y2.1658
X5.4047 Y2.1752
X5.4063 Y2.1846
X5.4079 Y2.1939
X5.4093 Y2.2031
X5.4107 Y2.2121
X5.4118 Y2.2209
X5.4129 Y2.2295
X5.4138 Y2.2378
X5.4146 Y2.2457
X5.4152 Y2.2533
X5.4157 Y2.2605
X5.416 Y2.2672
X5.4161 Y2.2735
Y2.2794
X5.4158 Y2.2848
X5.4154 Y2.29
X5.4148 Y2.2948
X5.4141 Y2.2993
X5.4132 Y2.3034
X5.412 Y2.3074
X5.4107 Y2.3111
X5.4093 Y2.3146
X5.4076 Y2.318
X5.4058 Y2.3214
X5.4038 Y2.3246
X5.4014 Y2.3279
X5.3988 Y2.3312
X5.396 Y2.3345
X5.3929 Y2.3379
X5.3896 Y2.3413
X5.3859 Y2.3448
X5.3819 Y2.3485
X5.3776 Y2.3523
X5.3731 Y2.3562
X5.3683 Y2.3603
X5.3632 Y2.3645
X5.3578 Y2.369
X5.3522 Y2.3736
X5.3464 Y2.3784
X5.3405 Y2.3832
X5.3344 Y2.3883
X5.3343
X5.3281 Y2.3934
X5.328 Y2.3935
X5.3218 Y2.3987
X5.3155 Y2.404
Y2.4041
X5.3092 Y2.4094
X5.3091 Y2.4095
X5.3028 Y2.4149
X5.3027 Y2.415
X5.2965 Y2.4204
X5.2964 Y2.4205
X5.2903 Y2.4259
X5.2902 Y2.426
X5.2842 Y2.4314
X5.2841 Y2.4315
X5.2782 Y2.4369
X5.278 Y2.4371
X5.2724 Y2.4425
X5.2721 Y2.4427
X5.2667 Y2.448
X5.2665 Y2.4482
X5.2613 Y2.4534
X5.261 Y2.4537
X5.2561 Y2.4588
X5.2558 Y2.4592
X5.2511 Y2.4642
X5.2508 Y2.4646
X5.2465 Y2.4695
X5.2461 Y2.4699
X5.2422 Y2.4748
X5.2417 Y2.4753
X5.2382 Y2.48
X5.2377 Y2.4807
X5.2345 Y2.4852
X5.2341 Y2.4859
X5.2313 Y2.4903
X5.2308 Y2.4912
X5.2284 Y2.4954
X5.228 Y2.4963
X5.226 Y2.5004
X5.2255 Y2.5013
X5.2238 Y2.5053
X5.2235 Y2.5062
X5.2221 Y2.5101
X5.2218 Y2.5109
X5.2206 Y2.5147
X5.2203 Y2.5157
X5.2194 Y2.5194
X5.2192 Y2.5201
X5.2184 Y2.5237
X5.2183 Y2.5246
X5.2177 Y2.5283
X5.2176 Y2.529
X5.2171 Y2.5327
Y2.5331
X5.2167 Y2.5367
Y2.5373
X5.2164 Y2.5409
Y2.5413
X5.2163 Y2.545
X5.2161 Y2.5486
X5.216 Y2.5522
X5.2158 Y2.5556
X5.2155 Y2.559
X5.2152 Y2.5622
X5.2148 Y2.5651
X5.2143 Y2.568
X5.2136 Y2.571
X5.2128 Y2.5738
X5.2117 Y2.5767
X5.2105 Y2.5796
X5.209 Y2.5826
X5.2072 Y2.5855
X5.2052 Y2.5885
X5.203 Y2.5916
X5.2004 Y2.5946
X5.1976 Y2.5978
X5.1944 Y2.6009
X5.191 Y2.6041
X5.1873 Y2.6073
X5.1834 Y2.6105
X5.1791 Y2.6137
X5.1745 Y2.6169
X5.1697 Y2.6201
X5.1646 Y2.6234
X5.1592 Y2.6267
X5.1536 Y2.6299
X5.1476 Y2.6332
X5.1415 Y2.6365
X5.1351 Y2.6398
X5.1283 Y2.6431
X5.1214 Y2.6464
X5.1143 Y2.6497
X5.1068 Y2.6531
X5.0992 Y2.6564
X5.0913 Y2.6598
X5.0833 Y2.6631
X5.075 Y2.6664
X5.0666 Y2.6697
X5.0581 Y2.673
X5.0495 Y2.6762
X5.0407 Y2.6793
X5.0319 Y2.6823
X5.023 Y2.6852
X5.0141 Y2.688
X5.0051 Y2.6907
X4.9962 Y2.6932
X4.9873 Y2.6956
X4.9785 Y2.6978
X4.9697 Y2.6999
X4.9611 Y2.7017
X4.9526 Y2.7034
X4.9442 Y2.7048
X4.9359 Y2.706
X4.9279 Y2.707
X4.9201 Y2.7077
X4.9125 Y2.7081
X4.9052 Y2.7083
X4.8982
X4.8915 Y2.7079
X4.8852 Y2.7073
X4.8792 Y2.7063
X4.8735 Y2.7052
X4.8682 Y2.7037
X4.8631 Y2.7019
X4.8585 Y2.6999
X4.8541 Y2.6977
X4.85 Y2.6951
X4.8462 Y2.6923
X4.8428 Y2.6893
X4.8397 Y2.686
X4.8368 Y2.6823
X4.8341 Y2.6784
X4.8317 Y2.674
X4.8295 Y2.6693
X4.8276 Y2.6642
X4.826 Y2.6587
X4.8247 Y2.6528
X4.8236 Y2.6465
X4.8229 Y2.6398
X4.8224 Y2.6327
Y2.6252
X4.8227 Y2.6173
X4.8233 Y2.6089
X4.8242 Y2.6002
X4.8255 Y2.5911
X4.827 Y2.5817
X4.8287 Y2.5719
X4.8307 Y2.5619
X4.8329 Y2.5517
X4.8353 Y2.5413
X4.8378 Y2.5307
X4.8404 Y2.52
X4.8431 Y2.5092
X4.8487 Y2.4874
X4.8515 Y2.4766
Y2.4765
X4.8543 Y2.4657
X4.857 Y2.455
Y2.4549
X4.8597 Y2.4443
Y2.4442
X4.8623 Y2.4337
X4.8624 Y2.4335
X4.8648 Y2.4233
Y2.4231
X4.8671 Y2.4131
Y2.4128
X4.8692 Y2.403
X4.8693 Y2.4027
X4.8711 Y2.3932
X4.8712 Y2.3928
X4.8728 Y2.3836
X4.8729 Y2.3833
X4.8742 Y2.3744
X4.8743 Y2.3738
X4.8754 Y2.3653
Y2.3649
X4.8763 Y2.3567
Y2.3561
X4.8768 Y2.3483
X4.8769 Y2.3477
X4.8771 Y2.3402
Y2.3395
Y2.3324
X4.877 Y2.3318
X4.8768 Y2.3251
X4.8767 Y2.3242
X4.8762 Y2.3178
X4.8761 Y2.317
X4.8753 Y2.311
X4.8751 Y2.3101
X4.8741 Y2.3044
X4.874 Y2.3036
X4.8727 Y2.2982
X4.8724 Y2.297
X4.8709 Y2.292
X4.8706 Y2.291
X4.8689 Y2.2863
X4.8685 Y2.2851
X4.8665 Y2.2807
X4.866 Y2.2796
X4.8639 Y2.2754
X4.8632 Y2.2741
X4.8608 Y2.2702
X4.86 Y2.269
X4.8573 Y2.2654
X4.8564 Y2.2643
X4.8536 Y2.2609
X4.8525 Y2.2598
X4.8494 Y2.2566
X4.8484 Y2.2558
X4.8451 Y2.2529
X4.8439 Y2.252
X4.8403 Y2.2493
X4.8393 Y2.2486
X4.8354 Y2.2461
X4.8344 Y2.2455
X4.8302 Y2.2432
X4.8293 Y2.2427
X4.8249 Y2.2406
X4.824 Y2.2402
X4.8193 Y2.2383
X4.8185 Y2.238
X4.8136 Y2.2362
X4.8127 Y2.2359
X4.8075 Y2.2344
X4.8067 Y2.2342
X4.8013 Y2.2328
X4.8006 Y2.2326
X4.795 Y2.2315
X4.7944 Y2.2313
X4.7886 Y2.2303
X4.788 Y2.2302
X4.7819 Y2.2294
X4.7814 Y2.2293
X4.7752 Y2.2286
X4.7748
X4.7684 Y2.228
X4.768
X4.7615 Y2.2276
X4.7611
X4.7544 Y2.2273
X4.7541
X4.7473 Y2.2271
X4.747
X4.74 Y2.227
X4.7398
X4.7327
X4.7325
X4.7252 Y2.2271
X4.725
X4.7177 Y2.2273
X4.7176
X4.7101 Y2.2276
X4.71
X4.7025 Y2.2279
X4.7024
X4.6948 Y2.2282
X4.6947 Y2.2283
X4.6871 Y2.2287
X4.687
X4.6793 Y2.2291
X4.6715 Y2.2296
X4.6637 Y2.23
X4.6558 Y2.2305
X4.648 Y2.231
X4.6403 Y2.2314
X4.6326 Y2.2319
X4.625 Y2.2323
X4.6175 Y2.2328
X4.6174
X4.6101 Y2.2333
X4.6099
X4.6028 Y2.2339
X4.6025
X4.5955 Y2.2346
X4.5952
X4.5883 Y2.2354
X4.588
X4.5813 Y2.2363
X4.5809
X4.5743 Y2.2373
X4.5737 Y2.2374
X4.5673 Y2.2386
X4.5667 Y2.2387
X4.5604 Y2.2401
X4.5598 Y2.2402
X4.5536 Y2.2417
X4.5529 Y2.2419
X4.5468 Y2.2437
X4.5461 Y2.2439
X4.5402 Y2.2459
X4.5393 Y2.2462
X4.5335 Y2.2484
X4.5328 Y2.2488
X4.5271 Y2.2513
X4.5262 Y2.2517
X4.5206 Y2.2545
X4.5197 Y2.255
X4.5143 Y2.2581
X4.5134 Y2.2586
X4.5081 Y2.2621
X4.5073 Y2.2626
X4.5021 Y2.2664
X4.5012 Y2.2671
X4.4962 Y2.2712
X4.4955 Y2.2719
X4.4905 Y2.2764
X4.4897 Y2.2772
X4.4849 Y2.2821
X4.4843 Y2.2828
X4.4795 Y2.2882
X4.479 Y2.2889
X4.4743 Y2.2947
X4.4738 Y2.2954
X4.4692 Y2.3017
X4.4688 Y2.3022
X4.4642 Y2.3089
X4.4639 Y2.3094
X4.4594 Y2.3165
X4.4592 Y2.3168
X4.4547 Y2.3243
X4.4544 Y2.3247
X4.4499 Y2.3326
X4.4498 Y2.3328
X4.4452 Y2.3409
X4.4451 Y2.3411
X4.4404 Y2.3496
Y2.3497
X4.4357 Y2.3585
X4.4356 Y2.3586
X4.4308 Y2.3676
X4.4259 Y2.3768
X4.4209 Y2.3862
X4.4157 Y2.3957
X4.4104 Y2.4053
X4.405 Y2.4151
X4.3993 Y2.4249
X4.3934 Y2.4347
X4.3874 Y2.4446
X4.3811 Y2.4545
X4.3745 Y2.4643
X4.3676 Y2.4742
X4.3605 Y2.4839
X4.353 Y2.4936
X4.3452 Y2.5031
X4.337 Y2.5126
X4.3286 Y2.522
X4.3198 Y2.5313
X4.3107 Y2.5405
X4.3014 Y2.5497
X4.2918 Y2.5587
X4.282 Y2.5677
X4.2719 Y2.5766
X4.2617 Y2.5854
X4.2513 Y2.5942
X4.2407 Y2.6028
X4.23 Y2.6114
X4.2192 Y2.6199
X4.2082 Y2.6284
X4.1972 Y2.6367
X4.1861 Y2.645
X4.175 Y2.6532
X4.1638 Y2.6614
X4.1527 Y2.6695
X4.1415 Y2.6775
X4.1304 Y2.6855
X4.1193 Y2.6934
X4.1083 Y2.7012
X4.0974 Y2.709
X4.0865 Y2.7167
X4.0757 Y2.7243
X4.065 Y2.7319
X4.0544 Y2.7394
X4.0438 Y2.7468
X4.0333 Y2.7541
X4.0228 Y2.7613
X4.0124 Y2.7684
X4.002 Y2.7754
X3.9916 Y2.7822
X3.9812 Y2.789
X3.9708 Y2.7956
X3.9604 Y2.8022
X3.95 Y2.8086
X3.9396 Y2.8148
X3.9291 Y2.821
X3.9187 Y2.8269
X3.9082 Y2.8328
X3.8976 Y2.8385
X3.887 Y2.844
X3.8763 Y2.8494
X3.8745 Y2.8503
X3.8734 Y2.8506
X3.8722 Y2.8504
X3.8711 Y2.8498
X3.8704 Y2.8488
X3.869 Y2.846
X3.8685 Y2.8449 Z0.0327
X3.868 Y2.844 Z0.0334
X3.8677 Y2.8434 Z0.0344
X3.8676 Y2.8432 Z0.0356
G0 Z0.2625
X3.8733 Y2.8405
G1 Z0.1019 F1.8
Z0.0194
X3.8734 Y2.8407 Z0.0182 F14.2
X3.8737 Y2.8413 Z0.0172
X3.8741 Y2.8422 Z0.0165
X3.8746 Y2.8433 Z0.0163
X3.876 Y2.8461
X3.8763 Y2.8473
X3.8761 Y2.8485
X3.8755 Y2.8495
X3.8745 Y2.8503
X3.8656 Y2.8546
X3.8548 Y2.8597
X3.8439 Y2.8646
X3.8328 Y2.8693
X3.8218 Y2.8738
X3.8106 Y2.8782
X3.7994 Y2.8824
X3.7881 Y2.8865
X3.7768 Y2.8903
X3.7654 Y2.8939
X3.7541 Y2.8974
X3.7427 Y2.9007
X3.7314 Y2.9037
X3.7201 Y2.9066
X3.7088 Y2.9092
X3.6975 Y2.9117
X3.6863 Y2.9139
X3.6752 Y2.9159
X3.6642 Y2.9177
X3.6532 Y2.9192
X3.6424 Y2.9205
X3.6317 Y2.9216
X3.6211 Y2.9225
X3.6106 Y2.9231
X3.6003 Y2.9235
X3.5902 Y2.9236
X3.5802 Y2.9235
X3.5704 Y2.9232
X3.5608 Y2.9227
X3.5514 Y2.9218
X3.5423 Y2.9208
X3.5334 Y2.9195
X3.5249 Y2.9179
X3.5168 Y2.9161
X3.509 Y2.9141
X3.5016 Y2.9117
X3.4946 Y2.9092
X3.4881 Y2.9064
X3.482 Y2.9034
X3.4766 Y2.9002
X3.4716 Y2.8968
X3.4673 Y2.8931
X3.4634 Y2.8893
X3.4601 Y2.8852
X3.4574 Y2.881
X3.4552 Y2.8767
X3.4536 Y2.8721
X3.4525 Y2.8674
X3.452 Y2.8625
X3.4521 Y2.8571
X3.4529 Y2.8512
X3.4543 Y2.8448
X3.4564 Y2.8381
X3.459 Y2.831
X3.4622 Y2.8236
X3.466 Y2.8159
X3.4702 Y2.808
X3.4748 Y2.7998
X3.4797 Y2.7914
X3.4849 Y2.7828
X3.4902 Y2.774
X3.4957 Y2.7652
X3.5013 Y2.7562
X3.5069 Y2.7472
X3.507
X3.5125 Y2.7382
X3.5126 Y2.738
X3.518 Y2.7291
X3.5181 Y2.7289
X3.5233 Y2.72
X3.5235 Y2.7198
X3.5285 Y2.7109
X3.5287 Y2.7106
X3.5334 Y2.7019
X3.5336 Y2.7015
X3.538 Y2.6929
X3.5382 Y2.6924
X3.5422 Y2.6839
X3.5425 Y2.6833
X3.546 Y2.675
X3.5463 Y2.6742
X3.5494 Y2.6661
X3.5497 Y2.6652
X3.5521 Y2.6573
X3.5524 Y2.6562
X3.5543 Y2.6485
X3.5545 Y2.6473
X3.5559 Y2.6399
X3.556 Y2.6387
X3.5568 Y2.6313
X3.5569 Y2.6301
X3.5572 Y2.6229
Y2.6217
X3.5571 Y2.6147
X3.557 Y2.6135
X3.5565 Y2.6066
X3.5564 Y2.6055
X3.5554 Y2.5987
X3.5552 Y2.5976
X3.5539 Y2.5909
X3.5537 Y2.59
X3.5521 Y2.5834
X3.5518 Y2.5825
X3.5499 Y2.576
X3.5496 Y2.5753
X3.5474 Y2.5688
X3.5471 Y2.5682
X3.5447 Y2.5619
X3.5444 Y2.5613
X3.5417 Y2.555
X3.5415 Y2.5545
X3.5386 Y2.5484
X3.5384 Y2.5479
X3.5354 Y2.5419
X3.5352 Y2.5415
X3.532 Y2.5356
X3.5318 Y2.5353
X3.5286 Y2.5294
X3.5285 Y2.5291
X3.5251 Y2.5233
X3.525 Y2.5232
X3.5217 Y2.5174
X3.5216 Y2.5173
X3.5183 Y2.5116
X3.5149 Y2.5059
X3.5116 Y2.5004
X3.5085 Y2.495
X3.5055 Y2.4897
X3.5027 Y2.4845
X3.5001 Y2.4794
X3.4976 Y2.4745
X3.4954 Y2.4696
X3.4933 Y2.4649
X3.4913 Y2.4602
X3.4896 Y2.4557
X3.488 Y2.4512
X3.4865 Y2.447
X3.4853 Y2.4428
X3.4842 Y2.4387
X3.4833 Y2.4348
X3.4825 Y2.431
X3.482 Y2.4273
X3.4815 Y2.4238
X3.4812 Y2.4204
X3.4811 Y2.4172
Y2.4141
X3.4813 Y2.4112
X3.4816 Y2.4083
X3.482 Y2.4057
X3.4825 Y2.4031
X3.4832 Y2.4007
X3.484 Y2.3984
X3.4848 Y2.3963
X3.4858 Y2.3944
X3.4868 Y2.3926
X3.488 Y2.3909
X3.4893 Y2.3893
X3.4906 Y2.3879
X3.4921 Y2.3866
X3.4937 Y2.3853
X3.4954 Y2.3842
X3.4972 Y2.3832
X3.4992 Y2.3823
X3.5014 Y2.3814
X3.5038 Y2.3807
X3.5064 Y2.3801
X3.5092 Y2.3796
X3.5122 Y2.3792
X3.5154 Y2.3789
X3.5188
X3.5224
X3.5263 Y2.3791
X3.5303 Y2.3795
X3.5345 Y2.3801
X3.5389 Y2.3808
X3.5435 Y2.3816
X3.5482 Y2.3827
X3.5532 Y2.3839
X3.5584 Y2.3853
X3.5638 Y2.3868
X3.5694 Y2.3884
X3.5751 Y2.3902
X3.5811 Y2.392
X3.5871 Y2.394
X3.5934 Y2.396
X3.5998 Y2.398
X3.6063 Y2.4001
X3.613 Y2.4022
X3.6131
X3.6198 Y2.4043
X3.6199
X3.6268 Y2.4064
X3.6269 Y2.4065
X3.6339 Y2.4085
X3.634 Y2.4086
X3.6411 Y2.4106
X3.6413
X3.6485 Y2.4126
X3.6487 Y2.4127
X3.6559 Y2.4145
X3.6562 Y2.4146
X3.6636 Y2.4164
X3.6638 Y2.4165
X3.6713 Y2.4182
X3.6716 Y2.4183
X3.6792 Y2.4199
X3.6795
X3.6872 Y2.4214
X3.6875 Y2.4215
X3.6953 Y2.4228
X3.6956 Y2.4229
X3.7035 Y2.424
X3.7039 Y2.4241
X3.7118 Y2.4251
X3.7122 Y2.4252
X3.7202 Y2.426
X3.7205 Y2.4261
X3.7286 Y2.4268
X3.7289
X3.737 Y2.4275
X3.7373
X3.7455 Y2.428
X3.7457
X3.7539 Y2.4284
X3.7541
X3.7623 Y2.4287
X3.7624
X3.7706 Y2.429
X3.7707
X3.7788 Y2.4292
X3.7789
X3.7869 Y2.4294
X3.787
X3.795 Y2.4295
X3.8028 Y2.4296
X3.8106 Y2.4298
X3.8182 Y2.43
X3.8256 Y2.4302
X3.8327 Y2.4304
X3.8397 Y2.4308
X3.8465 Y2.4312
X3.8529 Y2.4317
X3.8591 Y2.4323
X3.865 Y2.4331
X3.8706 Y2.4339
X3.8757 Y2.4349
X3.8805 Y2.436
X3.8849 Y2.4373
X3.8888 Y2.4387
X3.8925 Y2.4402
X3.896 Y2.4418
X3.8991 Y2.4435
X3.902 Y2.4453
X3.9048 Y2.4472
X3.9074 Y2.4493
X3.9099 Y2.4513
X3.9122 Y2.4535
X3.9145 Y2.4557
X3.9166 Y2.4579
X3.9187 Y2.4602
X3.9207 Y2.4625
X3.9227 Y2.4649
X3.9246 Y2.4672
X3.9266 Y2.4696
X3.9268 Y2.4698
X3.9287 Y2.4722
X3.9307 Y2.4744
X3.9311 Y2.4749
X3.933 Y2.477
X3.9334 Y2.4774
X3.9353 Y2.4794
X3.9358 Y2.4799
X3.9377 Y2.4818
X3.9387 Y2.4827
X3.9408 Y2.4844
X3.9415 Y2.485
X3.9436 Y2.4865
X3.9448 Y2.4874
X3.9471 Y2.4888
X3.9482 Y2.4894
X3.9506 Y2.4908
X3.9514 Y2.4912
X3.954 Y2.4924
X3.9549 Y2.4928
X3.9577 Y2.494
X3.9584 Y2.4943
X3.9614 Y2.4954
X3.962 Y2.4956
X3.9651 Y2.4966
X3.9657 Y2.4968
X3.969 Y2.4978
X3.9695 Y2.4979
X3.973 Y2.4989
X3.9733 Y2.499
X3.977 Y2.4999
X3.9772 Y2.5
X3.981 Y2.5009
X3.9813
X3.9853 Y2.5018
X3.9855 Y2.5019
X3.9895 Y2.5027
X3.9897 Y2.5028
X3.994 Y2.5036
X3.9984 Y2.5045
X4.0029 Y2.5054
X4.003
X4.0076 Y2.5063
X4.0123 Y2.5072
X4.0171 Y2.5081
X4.022 Y2.5091
X4.0269 Y2.5101
X4.0319 Y2.5112
X4.0369 Y2.5123
X4.0421 Y2.5135
X4.0473 Y2.5147
X4.0525 Y2.5161
X4.0578 Y2.5175
X4.0632 Y2.5189
X4.0687 Y2.5204
X4.0742 Y2.5218
Y2.5219
X4.0797 Y2.5233
X4.0799 Y2.5234
X4.0854 Y2.5248
X4.0856
X4.0911 Y2.5261
X4.0915 Y2.5262
X4.097 Y2.5274
X4.0973 Y2.5275
X4.1029 Y2.5286
X4.1034 Y2.5287
X4.1089 Y2.5297
X4.1094 Y2.5298
X4.115 Y2.5306
X4.1156 Y2.5307
X4.1212 Y2.5314
X4.1219
X4.1275 Y2.5319
X4.1282
X4.1339 Y2.5322
X4.1347
X4.1404
X4.1412
X4.147 Y2.532
X4.1479 Y2.5319
X4.1536 Y2.5314
X4.1546 Y2.5313
X4.1603 Y2.5305
X4.1613 Y2.5303
X4.1671 Y2.5292
X4.1682 Y2.529
X4.174 Y2.5275
X4.175 Y2.5273
X4.1809 Y2.5255
X4.1819 Y2.5251
X4.1878 Y2.5229
X4.1888 Y2.5225
X4.1948 Y2.5199
X4.1957 Y2.5195
X4.2017 Y2.5165
X4.2025 Y2.516
X4.2087 Y2.5126
X4.2095 Y2.5121
X4.2156 Y2.5083
X4.2162 Y2.5079
X4.2224 Y2.5037
X4.223 Y2.5032
X4.2292 Y2.4986
X4.2298 Y2.4982
X4.2359 Y2.4933
X4.2363 Y2.4929
X4.2424 Y2.4877
X4.2429 Y2.4873
X4.2489 Y2.4818
X4.2493 Y2.4814
X4.2552 Y2.4756
X4.2556 Y2.4753
X4.2613 Y2.4693
X4.2617 Y2.4689
X4.2673 Y2.4628
X4.2675 Y2.4625
X4.273 Y2.4562
X4.2733 Y2.4558
X4.2785 Y2.4495
X4.2788 Y2.4491
X4.2838 Y2.4427
X4.2842 Y2.4422
X4.2889 Y2.4357
X4.2892 Y2.4353
X4.2936 Y2.4288
X4.2939 Y2.4284
X4.2982 Y2.4219
X4.2985 Y2.4214
X4.3024 Y2.4149
X4.3026 Y2.4145
X4.3062 Y2.4082
X4.3066 Y2.4075
X4.3098 Y2.4013
X4.3101 Y2.4007
X4.3129 Y2.3946
X4.3132 Y2.3938
X4.3157 Y2.388
X4.316 Y2.387
X4.318 Y2.3814
X4.3184 Y2.3803
X4.3199 Y2.3749
X4.3202 Y2.3738
X4.3214 Y2.3687
X4.3216 Y2.3673
X4.3224 Y2.3624
X4.3225 Y2.3611
X4.3229 Y2.3564
X4.323 Y2.355
Y2.3504
Y2.3493
X4.3228 Y2.3449
X4.3227 Y2.3435
X4.3221 Y2.3392
X4.3219 Y2.3381
X4.3211 Y2.334
X4.3208 Y2.3327
X4.3198 Y2.3287
X4.3195 Y2.3277
X4.3182 Y2.3238
X4.3178 Y2.3227
X4.3164 Y2.3189
X4.3161 Y2.3183
X4.3145 Y2.3146
X4.3141 Y2.3137
X4.3123 Y2.31
X4.312 Y2.3095
X4.3101 Y2.3059
X4.3098 Y2.3054
X4.3077 Y2.3018
X4.3076 Y2.3015
X4.3054 Y2.298
X4.3053 Y2.2978
X4.3032 Y2.2943
X4.3031 Y2.2942
X4.3009 Y2.2907
X4.3008 Y2.2905
X4.2985 Y2.2871
X4.2964 Y2.2837
X4.2944 Y2.2804
X4.2924 Y2.2771
X4.2906 Y2.2739
X4.2889 Y2.2707
X4.2873 Y2.2676
X4.286 Y2.2646
X4.2849 Y2.2616
X4.284 Y2.2587
X4.2833 Y2.2558
X4.2828 Y2.2531
X4.2824 Y2.2503
X4.2822 Y2.2474
Y2.2448
X4.2824 Y2.2419
X4.2828 Y2.239
X4.2833 Y2.2362
X4.284 Y2.2332
X4.2849 Y2.2304
X4.286 Y2.2274
X4.2873 Y2.2243
X4.2888 Y2.2213
X4.2905 Y2.2182
X4.2925 Y2.215
X4.2947 Y2.2119
X4.2971 Y2.2086
X4.2997 Y2.2054
X4.3025 Y2.2022
X4.3056 Y2.1989
X4.309 Y2.1956
X4.3126 Y2.1922
X4.3163 Y2.1889
X4.3204 Y2.1855
X4.3246 Y2.182
X4.3289 Y2.1785
X4.3334 Y2.175
X4.3379 Y2.1714
X4.3424 Y2.1678
X4.3425 Y2.1677
X4.347 Y2.1641
X4.3472 Y2.164
X4.3516 Y2.1603
X4.3518 Y2.1602
X4.3561 Y2.1565
X4.3562 Y2.1564
X4.3605 Y2.1527
X4.3608 Y2.1524
X4.3648 Y2.1487
X4.3651 Y2.1484
X4.369 Y2.1447
X4.3693 Y2.1444
X4.373 Y2.1407
X4.3734 Y2.1402
X4.3769 Y2.1365
X4.3772 Y2.1361
X4.3805 Y2.1324
X4.3811 Y2.1317
X4.384 Y2.128
X4.3845 Y2.1273
X4.3872 Y2.1236
X4.3877 Y2.1228
X4.39 Y2.1191
X4.3907 Y2.118
X4.3927 Y2.1143
X4.3934 Y2.1129
X4.395 Y2.1092
X4.3955 Y2.1079
X4.3968 Y2.1043
X4.3974 Y2.1023
X4.3983 Y2.0987
X4.3986 Y2.0967
X4.3991 Y2.093
X4.3993 Y2.0912
X4.3994 Y2.0874
Y2.0861
X4.3992 Y2.0821
X4.3991 Y2.0805
X4.3986 Y2.0764
X4.3984 Y2.0751
X4.3975 Y2.0709
X4.3973 Y2.0699
X4.3962 Y2.0655
X4.396 Y2.0646
X4.3946 Y2.0601
X4.3944 Y2.0593
X4.3927 Y2.0547
X4.3925 Y2.0541
X4.3906 Y2.0493
X4.3904 Y2.0487
X4.3883 Y2.0439
X4.3882 Y2.0437
X4.386 Y2.0388
X4.3859 Y2.0385
X4.3836 Y2.0336
X4.3835 Y2.0333
X4.381 Y2.0283
X4.3785 Y2.0231
X4.3761 Y2.018
X4.3736 Y2.0129
X4.3713 Y2.0078
X4.3691 Y2.0027
X4.3669 Y1.9976
X4.365 Y1.9926
X4.3632 Y1.9876
X4.3617 Y1.9827
X4.3604 Y1.9778
X4.3594 Y1.973
X4.3586 Y1.9683
X4.3582 Y1.9636
X4.3579 Y1.9589
Y1.9542
X4.3581 Y1.9494
X4.3584 Y1.9446
X4.3588 Y1.9397
X4.3594 Y1.9349
X4.36 Y1.9301
X4.3607 Y1.9252
X4.3615 Y1.9203
Y1.9202
X4.3622 Y1.9153
X4.3629 Y1.9105
Y1.9104
X4.3636 Y1.9056
Y1.9052
X4.3642 Y1.9005
Y1.9002
X4.3647 Y1.8956
Y1.8951
X4.3651 Y1.8906
Y1.8898
X4.3653 Y1.8853
Y1.8846
Y1.8801
Y1.8791
X4.365 Y1.8747
X4.3649 Y1.8737
X4.3645 Y1.8693
X4.3643 Y1.8683
X4.3636 Y1.864
X4.3634 Y1.8627
X4.3623 Y1.8584
X4.362 Y1.8571
X4.3606 Y1.8529
X4.3602 Y1.8517
X4.3586 Y1.8475
X4.3581 Y1.8463
X4.3561 Y1.842
X4.3555 Y1.8409
X4.3532 Y1.8366
X4.3525 Y1.8356
X4.3498 Y1.8313
X4.3493 Y1.8305
X4.3462 Y1.8263
X4.3457 Y1.8255
X4.3424 Y1.8214
X4.3417 Y1.8206
X4.3381 Y1.8165
X4.3376 Y1.8159
X4.3337 Y1.8119
X4.333 Y1.8112
X4.3288 Y1.8073
X4.3283 Y1.8068
X4.3239 Y1.803
X4.3232 Y1.8024
X4.3185 Y1.7988
X4.3179 Y1.7983
X4.313 Y1.7949
X4.3124 Y1.7944
X4.3073 Y1.7912
X4.3066 Y1.7907
X4.3014 Y1.7877
X4.3006 Y1.7873
X4.2952 Y1.7844
X4.2944 Y1.784
X4.2888 Y1.7814
X4.288 Y1.7811
X4.2823 Y1.7787
X4.2815 Y1.7784
X4.2756 Y1.7763
X4.2747 Y1.776
X4.2687 Y1.7742
X4.2678 Y1.774
X4.2617 Y1.7725
X4.2607 Y1.7723
X4.2546 Y1.7712
X4.2535 Y1.771
X4.2473 Y1.7702
X4.2462 Y1.7701
X4.2399 Y1.7697
X4.2387
X4.2324
X4.2312
X4.2248 Y1.7701
X4.2238 Y1.7702
X4.2172 Y1.7709
X4.2162 Y1.7711
X4.2096 Y1.7722
X4.2087 Y1.7724
X4.202 Y1.7739
X4.2013 Y1.7741
X4.1944 Y1.7759
X4.1937 Y1.7761
X4.1867 Y1.7782
X4.1861 Y1.7784
X4.179 Y1.7808
X4.1785 Y1.781
X4.1712 Y1.7837
X4.1708 Y1.7838
X4.1634 Y1.7868
X4.163 Y1.7869
X4.1555 Y1.7901
X4.1552 Y1.7902
X4.1475 Y1.7936
X4.1473 Y1.7937
X4.1394 Y1.7973
X4.1392 Y1.7974
X4.1312 Y1.8011
X4.131 Y1.8012
X4.1228 Y1.8051
X4.1227
X4.1143 Y1.8091
X4.1057 Y1.8133
X4.097 Y1.8175
X4.0881 Y1.8217
X4.079 Y1.826
X4.0697 Y1.8303
X4.0603 Y1.8346
X4.0507 Y1.8389
X4.0408 Y1.8431
X4.0309 Y1.8473
X4.0207 Y1.8514
X4.0103 Y1.8553
X3.9997 Y1.8592
X3.9891 Y1.8629
X3.9783 Y1.8665
X3.9675 Y1.87
X3.9567 Y1.8733
X3.9459 Y1.8764
X3.9351 Y1.8793
X3.9245 Y1.8821
X3.9139 Y1.8847
X3.9036 Y1.887
X3.8934 Y1.8891
X3.8834 Y1.891
X3.8737 Y1.8926
X3.8643 Y1.8939
X3.8552 Y1.895
X3.8464 Y1.8957
X3.8381 Y1.8962
X3.8301 Y1.8963
X3.8227 Y1.8962
X3.8157 Y1.8957
X3.8093 Y1.8949
X3.8036 Y1.8938
X3.7986 Y1.8924
X3.7941 Y1.8908
X3.7902 Y1.8888
X3.7866 Y1.8867
X3.7835 Y1.8844
X3.7807 Y1.8818
X3.7783 Y1.8791
X3.7761 Y1.8761
X3.7741 Y1.8728
X3.7723 Y1.8693
X3.7706 Y1.8655
X3.7692 Y1.8614
X3.7678 Y1.8572
X3.7667 Y1.8528
X3.7656 Y1.8481
X3.7646 Y1.8433
X3.7637 Y1.8383
X3.7629 Y1.8332
X3.762 Y1.828
Y1.8279
X3.7611 Y1.8226
Y1.8224
X3.7602 Y1.8172
X3.7601 Y1.8169
X3.7591 Y1.8117
X3.759 Y1.8113
X3.7579 Y1.8061
X3.7578 Y1.8055
X3.7565 Y1.8005
X3.7563 Y1.7998
X3.7548 Y1.7948
X3.7546 Y1.7942
X3.753 Y1.7893
X3.7528 Y1.7886
X3.7509 Y1.7838
X3.7507 Y1.7831
X3.7487 Y1.7784
X3.7483 Y1.7777
X3.7462 Y1.7732
X3.7457 Y1.7724
X3.7434 Y1.7681
X3.7429 Y1.7672
X3.7404 Y1.7631
X3.7398 Y1.7622
X3.7371 Y1.7583
X3.7364 Y1.7574
X3.7335 Y1.7538
X3.7327 Y1.7528
X3.7296 Y1.7495
X3.7287 Y1.7486
X3.7255 Y1.7455
X3.7245 Y1.7446
X3.7211 Y1.7418
X3.7199 Y1.7409
X3.7163 Y1.7384
X3.7149 Y1.7375
X3.7111 Y1.7353
X3.7096 Y1.7345
X3.7055 Y1.7326
X3.7038 Y1.732
X3.6995 Y1.7305
X3.6978 Y1.73
X3.6932 Y1.7289
X3.6914 Y1.7285
X3.6865 Y1.7279
X3.6848 Y1.7277
X3.6796 Y1.7274
X3.678
X3.6725 Y1.7277
X3.671 Y1.7278
X3.6651 Y1.7285
X3.6637 Y1.7287
X3.6574 Y1.7299
X3.6563 Y1.7302
X3.6496 Y1.7319
X3.6485 Y1.7322
X3.6414 Y1.7345
X3.6405 Y1.7349
X3.6329 Y1.7378
X3.6321 Y1.7381
X3.6242 Y1.7416
X3.6235 Y1.742
X3.6152 Y1.746
X3.6147 Y1.7463
X3.606 Y1.7509
X3.6056 Y1.7512
X3.5967 Y1.7562
X3.5963 Y1.7564
X3.5871 Y1.7619
X3.5868 Y1.7621
X3.5775 Y1.7679
X3.5772 Y1.7681
X3.5677 Y1.7742
X3.5675 Y1.7744
X3.5578 Y1.7808
X3.5577 Y1.7809
X3.5479 Y1.7876
X3.5478
X3.538 Y1.7945
X3.5379
X3.528 Y1.8015
X3.5279
X3.518 Y1.8085
Y1.8086
X3.5081 Y1.8156
X3.4982 Y1.8226
X3.4885 Y1.8296
X3.4788 Y1.8364
X3.4693 Y1.843
X3.46 Y1.8493
X3.4509 Y1.8554
X3.442 Y1.8612
X3.4334 Y1.8666
X3.4251 Y1.8716
X3.4172 Y1.876
X3.4097 Y1.88
X3.4025 Y1.8834
X3.3957 Y1.8864
X3.3892 Y1.889
X3.3829 Y1.8912
X3.3769 Y1.893
X3.3712 Y1.8945
X3.3657 Y1.8958
X3.3604 Y1.8967
X3.3553 Y1.8974
X3.3503 Y1.898
X3.3455 Y1.8983
X3.3408 Y1.8985
X3.3361
X3.3315
X3.327 Y1.8983
X3.3224 Y1.8981
X3.3179 Y1.8979
X3.3133 Y1.8976
X3.3132
X3.3087 Y1.8973
X3.3085
X3.3041 Y1.8971
X3.3038
X3.2994 Y1.897
X3.2989
X3.2946
X3.294
X3.2897 Y1.8972
X3.289
X3.2846 Y1.8975
X3.284
X3.2795 Y1.898
X3.279 Y1.8981
X3.2744 Y1.8987
X3.2739
X3.2692 Y1.8995
X3.2687 Y1.8996
X3.2639 Y1.9005
X3.2635
X3.2586 Y1.9016
X3.2582 Y1.9017
X3.2532 Y1.9028
X3.2529 Y1.9029
X3.2477 Y1.9042
X3.2474
X3.2421 Y1.9056
X3.2418 Y1.9057
X3.2364 Y1.9072
X3.2362
X3.2305 Y1.9088
X3.2304 Y1.9089
X3.2246 Y1.9106
X3.2245
X3.2185 Y1.9124
X3.2184
X3.2123 Y1.9143
X3.2122
X3.2059 Y1.9162
X3.2058 Y1.9163
X3.1994 Y1.9183
X3.1927 Y1.9203
X3.1858 Y1.9225
X3.1788 Y1.9246
X3.1716 Y1.9269
X3.1641 Y1.9291
X3.1565 Y1.9314
X3.1487 Y1.9337
X3.1407 Y1.936
X3.1324 Y1.9383
X3.124 Y1.9406
X3.1154 Y1.9429
X3.1066 Y1.9452
X3.0977 Y1.9474
X3.0887 Y1.9495
X3.0797 Y1.9516
X3.0706 Y1.9536
X3.0614 Y1.9554
X3.0522 Y1.9571
X3.0431 Y1.9587
X3.0339 Y1.9601
X3.0248 Y1.9614
X3.0158 Y1.9625
X3.0069 Y1.9633
X2.9981 Y1.964
X2.9895 Y1.9644
X2.981 Y1.9646
X2.9727 Y1.9645
X2.9647 Y1.9641
X2.9569 Y1.9635
X2.9494 Y1.9626
X2.9422 Y1.9614
X2.9353 Y1.96
X2.9288 Y1.9582
X2.9225 Y1.9561
X2.9164 Y1.9538
X2.9106 Y1.9512
X2.9049 Y1.9484
X2.8993 Y1.9453
X2.8938 Y1.9421
X2.8884 Y1.9387
X2.883 Y1.9352
X2.8776 Y1.9316
X2.8723 Y1.9278
X2.8669 Y1.924
X2.8614 Y1.9202
Y1.9201
X2.8559 Y1.9163
X2.8557 Y1.9162
X2.8502 Y1.9124
X2.85 Y1.9122
X2.8444 Y1.9085
X2.8441 Y1.9083
X2.8384 Y1.9047
X2.8379 Y1.9044
X2.8321 Y1.9009
X2.8316 Y1.9006
X2.8256 Y1.8973
X2.825 Y1.897
X2.8188 Y1.8938
X2.8181 Y1.8935
X2.8116 Y1.8905
X2.8109 Y1.8902
X2.8042 Y1.8875
X2.8034 Y1.8872
X2.7964 Y1.8847
X2.7955 Y1.8844
X2.7882 Y1.8822
X2.7873 Y1.882
X2.7797 Y1.88
X2.7789 Y1.8799
X2.7708 Y1.8782
X2.7701 Y1.8781
X2.7616 Y1.8767
X2.761 Y1.8766
X2.7523 Y1.8755
X2.7517 Y1.8754
X2.7427 Y1.8745
X2.7422
X2.7329 Y1.8738
X2.7324 Y1.8737
X2.7229 Y1.8733
X2.7225 Y1.8732
X2.7128 Y1.873
X2.7124
X2.7025 Y1.8729
X2.7022
X2.6922 Y1.873
X2.6919
X2.6818 Y1.8732
X2.6815
X2.6714 Y1.8736
X2.6711
X2.6609 Y1.8741
X2.6607
X2.6505 Y1.8748
X2.6503
X2.6401 Y1.8756
X2.6399
X2.6298 Y1.8764
X2.6296
X2.6196 Y1.8774
X2.6194
X2.6095 Y1.8784
X2.6094
X2.5997 Y1.8795
X2.5995
X2.59 Y1.8806
X2.5899
X2.5805 Y1.8817
X2.5804
X2.5714 Y1.8829
X2.5713
X2.5625 Y1.8841
X2.5624
X2.554 Y1.8853
X2.5539
X2.5458 Y1.8864
X2.5379 Y1.8875
X2.5305 Y1.8886
X2.5233 Y1.8896
X2.5165 Y1.8905
X2.51 Y1.8913
X2.5038 Y1.8919
X2.4979 Y1.8925
X2.4922 Y1.8929
X2.4869 Y1.8932
X2.4817 Y1.8933
X2.4768 Y1.8932
X2.4721 Y1.8929
X2.4677 Y1.8925
X2.4634 Y1.8918
X2.4593 Y1.891
X2.4554 Y1.8899
X2.4516 Y1.8887
X2.448 Y1.8872
X2.4444 Y1.8855
X2.4409 Y1.8835
X2.4375 Y1.8813
X2.434 Y1.8787
X2.4306 Y1.8758
X2.4271 Y1.8724
X2.4235 Y1.8687
X2.42 Y1.8646
X2.4163 Y1.8602
X2.4127 Y1.8555
X2.4091 Y1.8505
X2.4055 Y1.8453
X2.402 Y1.8399
X2.3984 Y1.8343
X2.3949 Y1.8285
X2.3914 Y1.8226
X2.3879 Y1.8165
X2.3845 Y1.8103
X2.3811 Y1.8041
X2.3778 Y1.7978
X2.3744 Y1.7915
X2.3712 Y1.7852
X2.3679 Y1.7788
X2.3647 Y1.7725
X2.3616 Y1.7663
X2.3584 Y1.7602
X2.3554 Y1.7541
X2.3553
X2.3523 Y1.7482
Y1.7481
X2.3493 Y1.7424
X2.3492 Y1.7423
X2.3463 Y1.7368
Y1.7367
X2.3434 Y1.7313
X2.3433 Y1.7312
X2.3405 Y1.7261
X2.3404 Y1.7259
X2.3377 Y1.721
X2.3376 Y1.7208
X2.3348 Y1.716
Y1.7159
X2.3321 Y1.7112
X2.332 Y1.7111
X2.3293 Y1.7066
X2.3292 Y1.7064
X2.3266 Y1.7022
X2.3264 Y1.702
X2.3238 Y1.6979
X2.3237 Y1.6976
X2.3211 Y1.6937
X2.321 Y1.6935
X2.3185 Y1.6897
X2.3183 Y1.6895
X2.3158 Y1.6858
X2.3156 Y1.6856
X2.3131 Y1.6821
X2.3129 Y1.6818
X2.3104 Y1.6785
X2.3102 Y1.6782
X2.3077 Y1.6751
X2.3075 Y1.6748
X2.305 Y1.6718
X2.3048 Y1.6714
X2.3023 Y1.6686
X2.302 Y1.6682
X2.2996 Y1.6655
X2.2993 Y1.6652
X2.2968 Y1.6626
X2.2965 Y1.6622
X2.2941 Y1.6598
X2.2937 Y1.6594
X2.2912 Y1.6571
X2.2908 Y1.6567
X2.2884 Y1.6545
X2.2879 Y1.6542
X2.2855 Y1.6521
X2.285 Y1.6517
X2.2825 Y1.6498
X2.2821 Y1.6494
X2.2796 Y1.6476
X2.2791 Y1.6473
X2.2766 Y1.6456
X2.276 Y1.6452
X2.2736 Y1.6437
X2.273 Y1.6433
X2.2705 Y1.6419
X2.2699 Y1.6415
X2.2674 Y1.6402
X2.2668 Y1.6399
X2.2643 Y1.6387
X2.2637 Y1.6384
X2.2612 Y1.6373
X2.2605 Y1.637
X2.258 Y1.636
X2.2573 Y1.6357
X2.2548 Y1.6349
X2.2541 Y1.6346
X2.2516 Y1.6339
X2.2509 Y1.6337
X2.2484 Y1.633
X2.2476 Y1.6328
X2.2451 Y1.6323
X2.2443 Y1.6322
X2.2419 Y1.6317
X2.241 Y1.6316
X2.2386 Y1.6313
X2.2377 Y1.6312
X2.2353 Y1.6311
X2.2344 Y1.631
X2.232
X2.2311
X2.2287
X2.2278
X2.2255 Y1.6312
X2.2245 Y1.6313
X2.2222 Y1.6316
X2.2213 Y1.6317
X2.219 Y1.6321
X2.218 Y1.6323
X2.2158 Y1.6328
X2.2148 Y1.633
X2.2126 Y1.6336
X2.2117 Y1.6339
X2.2094 Y1.6347
X2.2086 Y1.635
X2.2064 Y1.6358
X2.2055 Y1.6362
X2.2033 Y1.6371
X2.2024 Y1.6376
X2.2003 Y1.6387
X2.1995 Y1.6391
X2.1974 Y1.6403
X2.1966 Y1.6408
X2.1945 Y1.6421
X2.1938 Y1.6426
X2.1917 Y1.6441
X2.191 Y1.6446
X2.189 Y1.6462
X2.1884 Y1.6467
X2.1864 Y1.6483
X2.1858 Y1.6489
X2.1839 Y1.6507
X2.1833 Y1.6512
X2.1814 Y1.6531
X2.1809 Y1.6537
X2.1791 Y1.6557
X2.1786 Y1.6563
X2.1768 Y1.6584
X2.1763 Y1.659
X2.1747 Y1.6612
X2.1742 Y1.6618
X2.1726 Y1.6641
X2.1722 Y1.6647
X2.1707 Y1.6671
X2.1703 Y1.6677
X2.1688 Y1.6702
X2.1685 Y1.6709
X2.1671 Y1.6734
X2.1668 Y1.6741
X2.1655 Y1.6767
X2.1652 Y1.6775
X2.1641 Y1.6801
X2.1638 Y1.6809
X2.1627 Y1.6836
X2.1625 Y1.6844
X2.1615 Y1.6872
X2.1613 Y1.688
X2.1605 Y1.6909
X2.1603 Y1.6917
X2.1595 Y1.6947
X2.1594 Y1.6954
X2.1588 Y1.6985
X2.1587 Y1.6993
X2.1582 Y1.7024
X2.1581 Y1.7032
X2.1578 Y1.7064
X2.1577 Y1.7072
X2.1575 Y1.7104
Y1.7112
X2.1574 Y1.7145
Y1.7152
Y1.7186
X2.1575 Y1.7192
X2.1576 Y1.7227
X2.1577 Y1.7233
X2.158 Y1.7269
Y1.7273
X2.1584 Y1.731
Y1.7315
X2.1589 Y1.7352
X2.159 Y1.7356
X2.1596 Y1.7394
X2.1597 Y1.7398
X2.1604 Y1.7436
Y1.744
X2.1612 Y1.7478
X2.1613 Y1.7482
X2.1622 Y1.7521
X2.1623 Y1.7524
X2.1632 Y1.7564
X2.1633 Y1.7567
X2.1643 Y1.7607
X2.1644 Y1.761
X2.1655 Y1.765
X2.1656 Y1.7653
X2.1668 Y1.7693
X2.1669 Y1.7696
X2.1681 Y1.7737
X2.1682 Y1.7739
X2.1695 Y1.7781
X2.1696 Y1.7783
X2.171 Y1.7824
Y1.7826
X2.1725 Y1.7868
X2.1726 Y1.787
X2.174 Y1.7912
X2.1741 Y1.7914
X2.1757 Y1.7956
Y1.7957
X2.1773 Y1.8
X2.1774 Y1.8001
X2.179 Y1.8044
Y1.8045
X2.1807 Y1.8087
Y1.8088
X2.1824 Y1.8131
X2.1825 Y1.8132
X2.1842 Y1.8174
X2.1859 Y1.8218
X2.1877 Y1.8261
X2.1894 Y1.8304
X2.1911 Y1.8346
X2.1929 Y1.8389
X2.1945 Y1.8431
X2.1962 Y1.8473
X2.1978 Y1.8514
X2.1993 Y1.8556
X2.2008 Y1.8597
X2.2023 Y1.8638
X2.2036 Y1.8678
X2.2049 Y1.8718
X2.2061 Y1.8758
X2.2072 Y1.8797
X2.2083 Y1.8836
X2.2092 Y1.8875
X2.2101 Y1.8913
X2.2108 Y1.895
X2.2114 Y1.8987
X2.2119 Y1.9023
X2.2123 Y1.9059
X2.2126 Y1.9094
X2.2127 Y1.9129
Y1.9164
X2.2126 Y1.9198
X2.2124 Y1.9233
X2.2122 Y1.9267
X2.2117 Y1.9301
X2.2112 Y1.9336
X2.2106 Y1.9371
X2.2099 Y1.9406
X2.2091 Y1.9441
X2.2081 Y1.9477
X2.2071 Y1.9514
X2.206 Y1.9551
X2.2047 Y1.9588
X2.2034 Y1.9626
X2.202 Y1.9665
X2.2004 Y1.9704
X2.1988 Y1.9744
X2.1971 Y1.9785
X2.1953 Y1.9826
X2.1934 Y1.9869
X2.1914 Y1.9912
X2.1893 Y1.9956
X2.1871 Y2.
X2.1849 Y2.0046
X2.1826 Y2.0091
X2.1802 Y2.0137
X2.1778 Y2.0183
X2.1753 Y2.0228
X2.1727 Y2.0273
X2.1701 Y2.0317
X2.1674 Y2.036
X2.1646 Y2.0402
X2.1617 Y2.0443
X2.1588 Y2.0482
X2.1558 Y2.0519
X2.1528 Y2.0555
X2.1497 Y2.0589
X2.1465 Y2.0621
X2.1433 Y2.065
X2.1401 Y2.0677
X2.1368 Y2.0701
X2.1334 Y2.0723
X2.13 Y2.0743
X2.1266 Y2.0759
X2.1231 Y2.0773
X2.1196 Y2.0785
X2.1161 Y2.0793
X2.1124 Y2.08
X2.1085 Y2.0804
X2.1046 Y2.0807
X2.1005 Y2.0808
X2.0962
X2.0918 Y2.0807
X2.0874 Y2.0806
X2.0829 Y2.0804
X2.0784 Y2.0801
X2.0739 Y2.0799
X2.0737
X2.0693 Y2.0797
X2.069
X2.0646 Y2.0796
X2.0642
X2.0599
X2.0593
X2.0551 Y2.0797
X2.0544 Y2.0798
X2.0502 Y2.08
X2.0494 Y2.0801
X2.0453 Y2.0805
X2.0443 Y2.0806
X2.0403 Y2.0813
X2.0392 Y2.0815
X2.0352 Y2.0824
X2.034 Y2.0826
X2.0301 Y2.0838
X2.0288 Y2.0842
X2.025 Y2.0856
X2.0236 Y2.0861
X2.0198 Y2.0878
X2.0185 Y2.0885
X2.0148 Y2.0905
X2.0135 Y2.0913
X2.0098 Y2.0938
X2.0088 Y2.0945
X2.005 Y2.0973
X2.0042 Y2.098
X2.0003 Y2.1013
X1.9997 Y2.1019
X1.9957 Y2.1055
X1.9952 Y2.106
X1.9912 Y2.11
X1.9908 Y2.1105
X1.9868 Y2.1148
X1.9864 Y2.1152
X1.9823 Y2.1198
X1.9821 Y2.1201
X1.9779 Y2.125
X1.9778 Y2.1252
X1.9735 Y2.1303
X1.9734 Y2.1304
X1.9691 Y2.1358
X1.969
X1.9646 Y2.1413
X1.96 Y2.147
X1.9553 Y2.1526
X1.9506 Y2.1583
X1.9457 Y2.164
X1.9407 Y2.1697
X1.9356 Y2.1754
X1.9303 Y2.1809
X1.9248 Y2.1864
X1.9192 Y2.1917
X1.9133 Y2.1968
X1.9073 Y2.2018
X1.9011 Y2.2065
X1.8946 Y2.211
X1.8879 Y2.2153
X1.881 Y2.2193
X1.8738 Y2.2231
X1.8664 Y2.2266
X1.8587 Y2.2299
X1.8509 Y2.233
X1.8428 Y2.2358
X1.8345 Y2.2384
X1.8261 Y2.2407
X1.8175 Y2.2428
X1.8087 Y2.2446
X1.7998 Y2.2462
X1.7907 Y2.2476
X1.7815 Y2.2487
X1.7722 Y2.2496
X1.7628 Y2.2502
X1.7533 Y2.2506
X1.7438 Y2.2508
X1.7342 Y2.2507
X1.7245 Y2.2504
X1.7147 Y2.2499
X1.705 Y2.2491
X1.6952 Y2.2481
X1.6855 Y2.2469
X1.6757 Y2.2455
X1.666 Y2.2438
X1.6563 Y2.2419
X1.6466 Y2.2398
X1.6369 Y2.2375
X1.6274 Y2.2349
X1.6178 Y2.2322
X1.6084 Y2.2292
X1.599 Y2.2261
X1.5897 Y2.2227
X1.5806 Y2.2191
X1.5715 Y2.2154
X1.5626 Y2.2114
X1.5537 Y2.2073
X1.5451 Y2.203
X1.5365 Y2.1985
X1.5282 Y2.1938
X1.5199 Y2.1889
X1.5119 Y2.1839
X1.504 Y2.1787
X1.4964 Y2.1733
X1.4889 Y2.1677
X1.4816 Y2.162
X1.4746 Y2.1562
X1.4678 Y2.1502
X1.4612 Y2.144
X1.4548 Y2.1377
X1.4486 Y2.1313
X1.4427 Y2.1248
X1.437 Y2.1182
X1.4315 Y2.1115
X1.4262 Y2.1047
X1.4212 Y2.0978
X1.4164 Y2.0909
X1.4118 Y2.0839
X1.4075 Y2.0769
X1.4033 Y2.0699
X1.3995 Y2.0629
X1.3958 Y2.0559
X1.3924 Y2.0489
X1.3892 Y2.0419
X1.3863 Y2.035
X1.3836 Y2.0281
X1.3811 Y2.0212
X1.3789 Y2.0145
X1.3769 Y2.0078
X1.3751 Y2.0013
X1.3736 Y1.9948
X1.3723 Y1.9886
X1.3713 Y1.9824
X1.3705 Y1.9763
X1.3699 Y1.9704
X1.3695 Y1.9647
X1.3694 Y1.959
X1.3695 Y1.9534
X1.3699 Y1.948
X1.3704 Y1.9427
X1.3711 Y1.9375
X1.3721 Y1.9325
X1.3732 Y1.9275
X1.3745 Y1.9227
X1.3761 Y1.918
X1.3778 Y1.9134
X1.3797 Y1.9089
X1.3818 Y1.9045
X1.3842 Y1.9002
X1.3867 Y1.896
X1.3894 Y1.8919
X1.3923 Y1.8879
X1.3953 Y1.884
X1.3986 Y1.8802
X1.4021 Y1.8765
X1.4058 Y1.8728
X1.4097 Y1.8692
X1.4138 Y1.8658
X1.418 Y1.8624
X1.4224 Y1.8592
X1.427 Y1.856
X1.4316 Y1.853
X1.4364 Y1.8501
X1.4413 Y1.8473
X1.4464 Y1.8446
X1.4515 Y1.8421
X1.4567 Y1.8397
X1.462 Y1.8375
X1.4673 Y1.8354
X1.4727 Y1.8334
X1.4781 Y1.8316
X1.4835 Y1.8299
X1.489 Y1.8284
X1.4945 Y1.8271
X1.4999 Y1.8259
X1.5054 Y1.8248
X1.5108 Y1.824
X1.5162 Y1.8233
X1.5215 Y1.8227
X1.5268 Y1.8223
X1.532 Y1.8221
X1.5372 Y1.822
X1.5424 Y1.8221
X1.5475 Y1.8222
X1.5526 Y1.8224
X1.5577 Y1.8228
X1.5627 Y1.8232
X1.5677 Y1.8237
X1.5727 Y1.8242
X1.5777 Y1.8248
X1.5826 Y1.8254
X1.5875 Y1.826
X1.5924 Y1.8266
X1.5925
X1.5973 Y1.8271
X1.5974 Y1.8272
X1.6021 Y1.8277
X1.6023
X1.607 Y1.8282
X1.6072
X1.6118 Y1.8286
X1.6121
X1.6167 Y1.829
X1.6171
X1.6215 Y1.8292
X1.622
X1.6264 Y1.8293
X1.6269
X1.6313
X1.6319
X1.6362 Y1.8292
X1.6369 Y1.8291
X1.6411 Y1.8288
X1.6418 Y1.8287
X1.646 Y1.8283
X1.6468 Y1.8281
X1.6509 Y1.8275
X1.6516 Y1.8274
X1.6557 Y1.8266
X1.6564 Y1.8264
X1.6604 Y1.8255
X1.6611 Y1.8253
X1.665 Y1.8242
X1.6657 Y1.824
X1.6696 Y1.8227
X1.6703 Y1.8225
X1.6741 Y1.8211
X1.6747 Y1.8209
X1.6784 Y1.8194
X1.6791 Y1.8191
X1.6827 Y1.8175
X1.6833 Y1.8172
X1.6868 Y1.8154
X1.6875 Y1.8151
X1.6909 Y1.8132
X1.6915 Y1.8129
X1.6948 Y1.8109
X1.6954 Y1.8105
X1.6986 Y1.8085
X1.6992 Y1.808
X1.7022 Y1.8059
X1.7029 Y1.8054
X1.7058 Y1.8032
X1.7064 Y1.8027
X1.7091 Y1.8004
X1.7098 Y1.7998
X1.7123 Y1.7974
X1.713 Y1.7967
X1.7153 Y1.7943
X1.716 Y1.7936
X1.7182 Y1.7911
X1.7188 Y1.7903
X1.7208 Y1.7877
X1.7215 Y1.7868
X1.7233 Y1.7842
X1.7239 Y1.7832
X1.7255 Y1.7805
X1.7261 Y1.7794
X1.7275 Y1.7767
X1.7281 Y1.7755
X1.7293 Y1.7728
X1.7298 Y1.7715
X1.7307 Y1.7688
X1.7311 Y1.7675
X1.7318 Y1.7647
X1.7321 Y1.7634
X1.7327 Y1.7605
X1.7329 Y1.7592
X1.7332 Y1.7563
X1.7334 Y1.7549
X1.7335 Y1.7519
Y1.7506
X1.7334 Y1.7476
X1.7333 Y1.7462
X1.733 Y1.7431
X1.7328 Y1.7418
X1.7323 Y1.7387
X1.7321 Y1.7374
X1.7313 Y1.7342
X1.7309 Y1.733
X1.7299 Y1.7297
X1.7295 Y1.7286
X1.7283 Y1.7253
X1.7278 Y1.7242
X1.7263 Y1.7209
X1.7258 Y1.7199
X1.724 Y1.7165
X1.7234 Y1.7156
X1.7214 Y1.7122
X1.7208 Y1.7113
X1.7184 Y1.7079
X1.7179 Y1.7071
X1.7152 Y1.7037
X1.7146 Y1.7029
X1.7117 Y1.6995
X1.7111 Y1.6988
X1.7078 Y1.6953
X1.7072 Y1.6947
X1.7037 Y1.6913
X1.7031 Y1.6907
X1.6992 Y1.6872
X1.6986 Y1.6867
X1.6944 Y1.6833
X1.6938 Y1.6828
X1.6893 Y1.6793
X1.6888 Y1.6789
X1.6839 Y1.6755
X1.6833 Y1.6751
X1.6781 Y1.6717
X1.6776 Y1.6714
X1.672 Y1.6679
X1.6715 Y1.6677
X1.6656 Y1.6643
X1.6652 Y1.6641
X1.659 Y1.6607
X1.6587 Y1.6605
X1.6522 Y1.6571
X1.6519 Y1.657
X1.6452 Y1.6537
X1.6451 Y1.6536
X1.6382 Y1.6502
X1.6381 Y1.6501
X1.6311 Y1.6468
X1.631 Y1.6467
X1.624 Y1.6434
X1.6169 Y1.64
X1.6098 Y1.6366
X1.6029 Y1.6332
X1.596 Y1.6298
X1.5894 Y1.6264
X1.5829 Y1.623
X1.5767 Y1.6197
X1.5709 Y1.6163
X1.5655 Y1.613
X1.5605 Y1.6096
X1.556 Y1.6062
X1.5521 Y1.6029
X1.5487 Y1.5995
X1.5459 Y1.5962
X1.5436 Y1.5929
X1.5418 Y1.5896
X1.5407 Y1.5866
X1.54 Y1.5836
X1.5397 Y1.5804
X1.5398 Y1.5771
X1.5404 Y1.5735
X1.5413 Y1.5697
X1.5427 Y1.5658
X1.5446 Y1.5617
X1.5468 Y1.5575
X1.5494 Y1.5533
X1.5524 Y1.5489
X1.5557 Y1.5445
X1.5592 Y1.54
X1.563 Y1.5356
X1.5671 Y1.5311
X1.5713 Y1.5267
X1.5757 Y1.5223
X1.5802 Y1.5179
X1.5848 Y1.5136
X1.5895 Y1.5093
X1.5942 Y1.5051
X1.5989 Y1.5009
X1.6036 Y1.4969
X1.6082 Y1.4928
X1.6126 Y1.4889
X1.617 Y1.4851
X1.6212 Y1.4814
X1.6213
X1.6254 Y1.4778
Y1.4777
X1.6293 Y1.4742
X1.6295 Y1.4741
X1.6332 Y1.4707
X1.6333 Y1.4706
X1.6369 Y1.4672
X1.6371 Y1.4671
X1.6404 Y1.4638
X1.6406 Y1.4636
X1.6438 Y1.4605
X1.6441 Y1.4602
X1.647 Y1.4571
X1.6473 Y1.4568
X1.65 Y1.4538
X1.6504 Y1.4534
X1.6529 Y1.4506
X1.6533 Y1.4501
X1.6555 Y1.4473
X1.6559 Y1.4467
X1.658 Y1.444
X1.6584 Y1.4434
X1.6602 Y1.4407
X1.6607 Y1.4399
X1.6623 Y1.4374
X1.6628 Y1.4364
X1.6642 Y1.4339
X1.6647 Y1.4327
X1.6658 Y1.4303
X1.6663 Y1.429
X1.6672 Y1.4265
X1.6676 Y1.4251
X1.6683 Y1.4227
X1.6687 Y1.4211
X1.6691 Y1.4186
X1.6693 Y1.417
X1.6695 Y1.4146
X1.6696 Y1.4129
Y1.4105
X1.6695 Y1.4089
X1.6693 Y1.4064
X1.6691 Y1.4048
X1.6687 Y1.4023
X1.6684 Y1.4009
X1.6677 Y1.3982
X1.6674 Y1.397
X1.6665 Y1.3941
X1.6661 Y1.393
X1.6649 Y1.39
X1.6645 Y1.3891
X1.6631 Y1.386
X1.6627 Y1.3852
X1.6611 Y1.3819
X1.6608 Y1.3813
X1.6589 Y1.3779
X1.6586 Y1.3774
X1.6565 Y1.3739
X1.6562 Y1.3735
X1.654 Y1.37
X1.6538 Y1.3696
X1.6513 Y1.366
X1.6511 Y1.3657
X1.6485 Y1.362
X1.6484 Y1.3618
X1.6457 Y1.358
X1.6455 Y1.3578
X1.6427 Y1.3539
X1.6426 Y1.3538
X1.6396 Y1.3498
X1.6395 Y1.3497
X1.6365 Y1.3457
X1.6364
X1.6333 Y1.3416
X1.6301 Y1.3374
X1.6269 Y1.3332
X1.6236 Y1.329
X1.6204 Y1.3248
X1.6172 Y1.3205
X1.614 Y1.3162
X1.6109 Y1.3119
X1.6078 Y1.3076
X1.6049 Y1.3033
X1.602 Y1.299
X1.5992 Y1.2946
X1.5965 Y1.2902
X1.5939 Y1.2858
X1.5914 Y1.2814
X1.5891 Y1.277
X1.5868 Y1.2725
X1.5847 Y1.268
X1.5826 Y1.2634
X1.5807 Y1.2589
X1.579 Y1.2543
X1.5774 Y1.2497
X1.5759 Y1.245
X1.5745 Y1.2404
X1.5734 Y1.2356
X1.5723 Y1.2309
X1.5714 Y1.2261
X1.5707 Y1.2213
X1.5702 Y1.2164
X1.5698 Y1.2115
X1.5696 Y1.2065
Y1.2015
X1.5698 Y1.1964
X1.5701 Y1.1913
X1.5706 Y1.186
X1.5713 Y1.1807
X1.5722 Y1.1753
X1.5731 Y1.1698
X1.5742 Y1.1642
X1.5754 Y1.1587
X1.5767 Y1.1531
X1.578 Y1.1475
X1.5794 Y1.1419
X1.5808 Y1.1363
X1.5823 Y1.1308
X1.5837 Y1.1252
X1.5852 Y1.1197
Y1.1196
X1.5866 Y1.1142
Y1.1141
X1.5879 Y1.1088
X1.588 Y1.1086
X1.5892 Y1.1034
X1.5893 Y1.1032
X1.5904 Y1.0981
X1.5905 Y1.0978
X1.5916 Y1.0928
Y1.0924
X1.5926 Y1.0875
X1.5927 Y1.0871
X1.5934 Y1.0823
X1.5935 Y1.0818
X1.5942 Y1.0771
Y1.0765
X1.5947 Y1.072
X1.5948 Y1.0713
X1.595 Y1.0669
Y1.0661
X1.5951 Y1.062
Y1.0611
X1.595 Y1.0571
Y1.0562
X1.5947 Y1.0523
X1.5946 Y1.0515
X1.5941 Y1.0477
X1.594 Y1.0468
X1.5934 Y1.0432
X1.5932 Y1.0423
X1.5925 Y1.0388
X1.5922 Y1.0379
X1.5913 Y1.0345
X1.5911 Y1.0336
X1.59 Y1.0304
X1.5897 Y1.0294
X1.5885 Y1.0263
X1.5881 Y1.0254
X1.5868 Y1.0224
X1.5863 Y1.0215
X1.5849 Y1.0187
X1.5844 Y1.0178
X1.5828 Y1.0151
X1.5823 Y1.0142
X1.5806 Y1.0117
X1.58 Y1.0108
X1.5782 Y1.0084
X1.5775 Y1.0076
X1.5756 Y1.0053
X1.5749 Y1.0045
X1.5729 Y1.0023
X1.5722 Y1.0016
X1.5701 Y0.9996
X1.5693 Y0.9989
X1.5671 Y0.997
X1.5663 Y0.9964
X1.564 Y0.9946
X1.5632 Y0.994
X1.5608 Y0.9924
X1.56 Y0.9919
X1.5576 Y0.9904
X1.5567 Y0.9899
X1.5542 Y0.9886
X1.5533 Y0.9881
X1.5507 Y0.987
X1.5498 Y0.9866
X1.5472 Y0.9855
X1.5463 Y0.9852
X1.5436 Y0.9843
X1.5426 Y0.984
X1.5399 Y0.9832
X1.5388 Y0.983
X1.5361 Y0.9824
X1.535 Y0.9822
X1.5323 Y0.9818
X1.5312 Y0.9817
X1.5284 Y0.9814
X1.5272 Y0.9813
X1.5244
X1.5232
X1.5203 Y0.9814
X1.519
X1.5161 Y0.9817
X1.5149 Y0.9819
X1.5119 Y0.9824
X1.5107 Y0.9826
X1.5076 Y0.9833
X1.5064 Y0.9837
X1.5033 Y0.9846
X1.5022 Y0.985
X1.499 Y0.9862
X1.4979 Y0.9866
X1.4947 Y0.988
X1.4937 Y0.9885
X1.4905 Y0.9902
X1.4895 Y0.9907
X1.4862 Y0.9927
X1.4853 Y0.9932
X1.482 Y0.9955
X1.4812 Y0.996
X1.4778 Y0.9986
X1.4771 Y0.9992
X1.4736 Y1.002
X1.473 Y1.0026
X1.4695 Y1.0057
X1.4689 Y1.0063
X1.4654 Y1.0098
X1.4649 Y1.0103
X1.4613 Y1.0142
X1.4608 Y1.0147
X1.4572 Y1.0189
X1.4568 Y1.0194
X1.4532 Y1.0239
X1.4528 Y1.0244
X1.4491 Y1.0294
X1.4488 Y1.0299
X1.4451 Y1.0352
X1.4447 Y1.0356
X1.4411 Y1.0413
X1.4408 Y1.0418
X1.4371 Y1.0478
X1.4368 Y1.0482
X1.4332 Y1.0546
X1.4329 Y1.055
X1.4293 Y1.0617
X1.4291 Y1.0621
X1.4256 Y1.0691
X1.4254 Y1.0695
X1.4219 Y1.0767
X1.4217 Y1.0771
X1.4184 Y1.0847
X1.4182 Y1.0851
X1.4149 Y1.0929
X1.4147 Y1.0933
X1.4116 Y1.1013
X1.4114 Y1.1017
X1.4084 Y1.11
X1.4082 Y1.1104
X1.4053 Y1.1189
X1.4052 Y1.1193
X1.4024 Y1.128
X1.4023 Y1.1284
X1.3997 Y1.1373
X1.3996 Y1.1377
X1.3972 Y1.1467
X1.3971 Y1.1472
X1.3949 Y1.1563
X1.3948 Y1.1568
X1.3928 Y1.1661
X1.3927 Y1.1666
X1.3909 Y1.176
X1.3908 Y1.1765
X1.3892 Y1.1861
Y1.1866
X1.3879 Y1.1962
X1.3878 Y1.1967
X1.3867 Y1.2064
Y1.207
X1.3859 Y1.2167
Y1.2173
X1.3854 Y1.2271
Y1.2277
X1.3852 Y1.2376
Y1.2381
X1.3853 Y1.248
Y1.2486
X1.3857 Y1.2585
Y1.259
X1.3864 Y1.2689
Y1.2694
X1.3873 Y1.2793
Y1.2797
X1.3884 Y1.2896
X1.3885 Y1.29
X1.3897 Y1.2999
X1.3898 Y1.3001
X1.3912 Y1.31
Y1.3102
X1.3927 Y1.32
X1.3928 Y1.3202
X1.3944 Y1.3298
Y1.33
X1.3962 Y1.3395
Y1.3397
X1.3979 Y1.349
Y1.3491
X1.3997 Y1.3583
Y1.3584
X1.4015 Y1.3674
X1.4032 Y1.3762
X1.4048 Y1.3847
X1.4062 Y1.393
X1.4076 Y1.401
X1.4087 Y1.4087
X1.4097 Y1.416
X1.4104 Y1.423
X1.4109 Y1.4296
X1.411 Y1.4358
Y1.4415
