(1001)
(T1  D=0.0312 CR=0. - ZMIN=0. - FLAT END MILL)
G0 G90 G94 G17
G20
G53 G0 Z0.

(2D CONTOUR2)
M5
T1
S12000 M3
G4 P4.
G55
M8
G0 X0.9731 Y1.6477
Z0.6625
Z0.2625
G1 Z0.1169 F1.8
Z0.0506
X0.9733 Z0.0494 F14.2
X0.974 Y1.6476 Z0.0484
X0.975 Y1.6475 Z0.0477
X0.9762 Y1.6473 Z0.0475
X0.9793 Y1.6469
X0.9805
X0.9816 Y1.6475
X0.9824 Y1.6484
X0.9828 Y1.6495
Y1.6497
X0.9835 Y1.6541
X0.9836 Y1.6548
X0.9844 Y1.659
X0.9846 Y1.6598
X0.9856 Y1.6639
X0.9858 Y1.6646
X0.9869 Y1.6687
X0.9872 Y1.6694
X0.9885 Y1.6735
X0.9887 Y1.6741
X0.9902 Y1.6781
X0.9904 Y1.6788
X0.9921 Y1.6828
X0.9923 Y1.6833
X0.9941 Y1.6874
X0.9943 Y1.6879
X0.9963 Y1.6919
X0.9965 Y1.6924
X0.9986 Y1.6965
X0.9988 Y1.6969
X1.0011 Y1.7011
X1.0013 Y1.7014
X1.0037 Y1.7057
X1.0039 Y1.706
X1.0065 Y1.7105
X1.0066 Y1.7107
X1.0094 Y1.7152
Y1.7154
X1.0124 Y1.7201
Y1.7202
X1.0155 Y1.7252
X1.0187 Y1.7304
X1.0221 Y1.7358
X1.0256 Y1.7414
X1.0293 Y1.7472
X1.033 Y1.7533
X1.037 Y1.7596
X1.041 Y1.7663
X1.0452 Y1.7732
X1.0495 Y1.7806
X1.0539 Y1.7883
X1.0585 Y1.7963
X1.0632 Y1.8048
X1.068 Y1.8135
X1.073 Y1.8226
X1.0781 Y1.832
X1.0834 Y1.8416
X1.0888 Y1.8516
X1.0943 Y1.8617
X1.0944 Y1.8618
X1.1 Y1.8721
X1.1001 Y1.8722
X1.1059 Y1.8827
X1.106 Y1.8828
X1.112 Y1.8935
Y1.8936
X1.1182 Y1.9045
Y1.9046
X1.1245 Y1.9156
X1.1246 Y1.9157
X1.1311 Y1.9268
X1.1312 Y1.927
X1.1379 Y1.9382
X1.138 Y1.9384
X1.1448 Y1.9497
X1.1449 Y1.9499
X1.152 Y1.9613
X1.1521 Y1.9614
X1.1593 Y1.9729
X1.1594 Y1.9731
X1.1669 Y1.9846
X1.167 Y1.9848
X1.1747 Y1.9963
X1.1748 Y1.9965
X1.1826 Y2.0081
X1.1828 Y2.0083
X1.1909 Y2.0198
X1.191 Y2.02
X1.1993 Y2.0315
X1.1995 Y2.0317
X1.208 Y2.0432
X1.2082 Y2.0434
X1.2169 Y2.0548
X1.2171 Y2.055
X1.226 Y2.0663
X1.2261 Y2.0665
X1.2352 Y2.0777
X1.2354 Y2.0779
X1.2446 Y2.089
X1.2447 Y2.0891
X1.2541 Y2.1001
X1.2542 Y2.1002
X1.2636 Y2.1112
X1.2637 Y2.1113
X1.2732 Y2.1221
X1.2733 Y2.1222
X1.2828 Y2.1329
X1.2829 Y2.133
X1.2924 Y2.1437
X1.302 Y2.1543
X1.3115 Y2.1648
X1.3209 Y2.1753
X1.3302 Y2.1856
X1.3393 Y2.1959
X1.3483 Y2.2061
X1.3571 Y2.2162
X1.3657 Y2.2262
X1.3741 Y2.2362
X1.3821 Y2.246
X1.3899 Y2.2558
X1.3974 Y2.2655
X1.4045 Y2.2751
X1.4112 Y2.2846
X1.4175 Y2.2941
X1.4235 Y2.3034
X1.429 Y2.3128
X1.4342 Y2.322
X1.4391 Y2.3312
X1.4436 Y2.3403
X1.4479 Y2.3493
X1.4519 Y2.3582
X1.4557 Y2.3669
X1.4593 Y2.3756
X1.4626 Y2.3842
X1.4658 Y2.3926
X1.4689 Y2.4009
X1.4718 Y2.4091
X1.4746 Y2.4171
X1.4774 Y2.4249
X1.4801 Y2.4326
X1.4828 Y2.4401
Y2.4402
X1.4854 Y2.4474
X1.4855 Y2.4476
X1.4881 Y2.4545
X1.4882 Y2.4548
X1.4909 Y2.4614
X1.491 Y2.4618
X1.4937 Y2.4682
X1.4939 Y2.4686
X1.4967 Y2.4748
X1.4969 Y2.4753
X1.4998 Y2.4811
X1.5001 Y2.4818
X1.5031 Y2.4873
X1.5035 Y2.4879
X1.5066 Y2.4932
X1.507 Y2.4939
X1.5102 Y2.4988
X1.5107 Y2.4995
X1.5141 Y2.5042
X1.5146 Y2.5049
X1.5181 Y2.5094
X1.5186 Y2.51
X1.5223 Y2.5143
X1.5229 Y2.5149
X1.5267 Y2.519
X1.5273 Y2.5196
X1.5312 Y2.5234
X1.5319 Y2.524
X1.536 Y2.5276
X1.5366 Y2.5281
X1.5408 Y2.5315
X1.5415 Y2.532
X1.5458 Y2.5352
X1.5465 Y2.5357
X1.551 Y2.5386
X1.5517 Y2.5391
X1.5563 Y2.5418
X1.557 Y2.5423
X1.5618 Y2.5448
X1.5625 Y2.5452
X1.5673 Y2.5476
X1.568 Y2.5479
X1.573 Y2.5501
X1.5737 Y2.5504
X1.5788 Y2.5524
X1.5795 Y2.5526
X1.5847 Y2.5545
X1.5853 Y2.5547
X1.5907 Y2.5564
X1.5913 Y2.5566
X1.5968 Y2.5581
X1.5974 Y2.5582
X1.603 Y2.5596
X1.6035 Y2.5597
X1.6093 Y2.5609
X1.6098 Y2.561
X1.6157 Y2.5621
X1.6162 Y2.5622
X1.6221 Y2.5631
X1.6226 Y2.5632
X1.6287 Y2.564
X1.6292
X1.6354 Y2.5647
X1.6358
X1.6422 Y2.5653
X1.6425
X1.649 Y2.5658
X1.6492
X1.6559 Y2.5662
X1.656
X1.6628 Y2.5665
X1.6697 Y2.5669
X1.6766 Y2.5672
X1.6836 Y2.5676
X1.6906 Y2.5681
X1.6977 Y2.5687
X1.7047 Y2.5694
X1.7118 Y2.5702
X1.7189 Y2.5712
X1.726 Y2.5724
X1.7332 Y2.5738
X1.7403 Y2.5755
X1.7474 Y2.5774
X1.7546 Y2.5796
X1.7617 Y2.5822
X1.7689 Y2.585
X1.7761 Y2.5882
X1.7832 Y2.5919
X1.7904 Y2.5959
X1.7977 Y2.6004
X1.8049 Y2.6054
X1.8122 Y2.6109
X1.8195 Y2.6168
X1.8269 Y2.6232
X1.8342 Y2.63
X1.8415 Y2.6372
X1.8489 Y2.6447
X1.8562 Y2.6526
X1.8635 Y2.6609
X1.8707 Y2.6694
X1.8779 Y2.6783
X1.8851 Y2.6874
X1.8922 Y2.6967
X1.8993 Y2.7063
X1.9064 Y2.7161
X1.9134 Y2.726
X1.9203 Y2.7361
X1.9271 Y2.7463
X1.9339 Y2.7567
X1.9407 Y2.7671
X1.9473 Y2.7776
X1.9539 Y2.7881
X1.9604 Y2.7987
X1.9669 Y2.8093
X1.9732 Y2.8198
X1.9795 Y2.8303
X1.9856 Y2.8408
X1.9917 Y2.8512
X1.9977 Y2.8616
X2.0037 Y2.872
X2.0096 Y2.8824
X2.0154 Y2.8927
X2.0211 Y2.903
X2.0268 Y2.9132
X2.0324 Y2.9234
X2.038 Y2.9336
X2.0436 Y2.9437
X2.0491 Y2.9538
X2.0545 Y2.9638
X2.06 Y2.9738
X2.0654 Y2.9837
X2.0707 Y2.9936
X2.0761 Y3.0035
X2.0814 Y3.0133
X2.0867 Y3.023
X2.092 Y3.0327
X2.0973 Y3.0424
X2.1026 Y3.052
X2.1079 Y3.0615
X2.1132 Y3.071
X2.1185 Y3.0803
Y3.0804
X2.1238 Y3.0896
Y3.0897
X2.1291 Y3.0988
Y3.0989
X2.1344 Y3.1079
Y3.108
X2.1397 Y3.1169
X2.1398 Y3.117
X2.145 Y3.1257
X2.1451 Y3.1258
X2.1503 Y3.1343
X2.1504 Y3.1345
X2.1557 Y3.1428
X2.1558 Y3.143
X2.161 Y3.1512
X2.1611 Y3.1513
X2.1663 Y3.1593
X2.1664 Y3.1595
X2.1717 Y3.1672
X2.1718 Y3.1674
X2.177 Y3.175
X2.1772 Y3.1752
X2.1824 Y3.1825
X2.1825 Y3.1827
X2.1877 Y3.1898
X2.1879 Y3.19
X2.1931 Y3.1968
X2.1933 Y3.1971
X2.1985 Y3.2036
X2.1987 Y3.2039
X2.2039 Y3.2101
X2.2042 Y3.2104
X2.2093 Y3.2163
X2.2096 Y3.2167
X2.2148 Y3.2223
X2.2151 Y3.2227
X2.2202 Y3.2279
X2.2207 Y3.2284
X2.2258 Y3.2333
X2.2263 Y3.2337
X2.2313 Y3.2383
X2.2319 Y3.2388
X2.237 Y3.243
X2.2376 Y3.2435
X2.2427 Y3.2474
X2.2434 Y3.2479
X2.2485 Y3.2514
X2.2492 Y3.2519
X2.2543 Y3.255
X2.2552 Y3.2555
X2.2603 Y3.2583
X2.2612 Y3.2588
X2.2663 Y3.2613
X2.2672 Y3.2617
X2.2724 Y3.2638
X2.2734 Y3.2642
X2.2786 Y3.266
X2.2798 Y3.2664
X2.285 Y3.2678
X2.2861 Y3.2681
X2.2914 Y3.2693
X2.2926 Y3.2695
X2.298 Y3.2703
X2.2992 Y3.2704
X2.3047 Y3.2708
X2.3059 Y3.2709
X2.3114
X2.3126
X2.3182 Y3.2706
X2.3194 Y3.2705
X2.325 Y3.2698
X2.3262 Y3.2697
X2.3319 Y3.2686
X2.333 Y3.2684
X2.3389 Y3.267
X2.3399 Y3.2667
X2.3458 Y3.2649
X2.3468 Y3.2646
X2.3528 Y3.2624
X2.3537 Y3.2621
X2.3599 Y3.2595
X2.3606 Y3.2591
X2.367 Y3.2561
X2.3677 Y3.2558
X2.3741 Y3.2524
X2.3748 Y3.252
X2.3813 Y3.2483
X2.3819 Y3.2479
X2.3887 Y3.2437
X2.3892 Y3.2434
X2.3961 Y3.2387
X2.3965 Y3.2384
X2.4037 Y3.2334
X2.404 Y3.2331
X2.4113 Y3.2277
X2.4116 Y3.2275
X2.419 Y3.2217
X2.4193 Y3.2215
X2.4268 Y3.2154
X2.427 Y3.2153
X2.4347 Y3.2089
X2.4349 Y3.2088
X2.4426 Y3.2022
X2.4427 Y3.202
X2.4505 Y3.1952
X2.4507 Y3.1951
X2.4585 Y3.1881
X2.4587 Y3.188
X2.4665 Y3.1809
X2.4666 Y3.1808
X2.4746 Y3.1736
Y3.1735
X2.4825 Y3.1662
X2.4826 Y3.1661
X2.4905 Y3.1587
X2.4984 Y3.1513
Y3.1512
X2.5062 Y3.1438
X2.514 Y3.1365
X2.5216 Y3.1292
X2.5292 Y3.122
X2.5366 Y3.115
X2.5438 Y3.1082
X2.5508 Y3.1015
X2.5577 Y3.0952
X2.5643 Y3.0891
X2.5708 Y3.0833
X2.5769 Y3.0779
X2.5828 Y3.0728
X2.5886 Y3.068
X2.5942 Y3.0635
X2.5997 Y3.0593
X2.6051 Y3.0553
X2.6105 Y3.0515
X2.6158 Y3.0479
X2.6212 Y3.0445
X2.6266 Y3.0413
X2.6321 Y3.0382
X2.6377 Y3.0352
X2.6435 Y3.0323
X2.6496 Y3.0294
X2.6559 Y3.0266
X2.6624 Y3.0238
X2.6693 Y3.0211
X2.6765 Y3.0183
X2.6841 Y3.0155
X2.6921 Y3.0127
X2.7006 Y3.0098
X2.7095 Y3.0069
X2.7189 Y3.0039
X2.7289 Y3.0007
X2.7394 Y2.9975
X2.7505 Y2.9941
X2.762 Y2.9905
X2.7739 Y2.9869
X2.7862 Y2.9832
X2.7988 Y2.9793
X2.8117 Y2.9754
X2.8248 Y2.9714
X2.8249
X2.8381 Y2.9673
Y2.9672
X2.8515 Y2.9631
X2.8649 Y2.9588
X2.865
X2.8783 Y2.9545
X2.8784
X2.8917 Y2.9501
X2.8918
X2.9051 Y2.9457
X2.9052
X2.9182 Y2.9413
X2.9184 Y2.9412
X2.9312 Y2.9367
X2.9314
X2.944 Y2.9322
X2.9441 Y2.9321
X2.9564 Y2.9276
X2.9566
X2.9686 Y2.923
X2.9688 Y2.9229
X2.9803 Y2.9184
X2.9806 Y2.9183
X2.9917 Y2.9138
X2.992 Y2.9136
X3.0025 Y2.9091
X3.0029 Y2.909
X3.0129 Y2.9044
X3.0133 Y2.9043
X3.0227 Y2.8998
X3.0231 Y2.8995
X3.0319 Y2.8951
X3.0324 Y2.8948
X3.0405 Y2.8903
X3.041 Y2.89
X3.0485 Y2.8856
X3.0491 Y2.8852
X3.056 Y2.8807
X3.0566 Y2.8803
X3.063 Y2.8759
X3.0636 Y2.8753
X3.0694 Y2.8709
X3.0701 Y2.8703
X3.0754 Y2.8658
X3.0761 Y2.8651
X3.0809 Y2.8605
X3.0816 Y2.8598
X3.086 Y2.8552
X3.0867 Y2.8544
X3.0906 Y2.8496
X3.0913 Y2.8487
X3.0949 Y2.8439
X3.0956 Y2.8429
X3.0987 Y2.8379
X3.0993 Y2.8369
X3.1021 Y2.8318
X3.1027 Y2.8308
X3.1052 Y2.8255
X3.1056 Y2.8245
X3.1078 Y2.819
X3.1082 Y2.818
X3.1101 Y2.8123
X3.1104 Y2.8114
X3.1121 Y2.8055
X3.1123 Y2.8046
X3.1137 Y2.7984
X3.1138 Y2.7977
X3.115 Y2.7912
X3.1152 Y2.7906
X3.1162 Y2.7838
Y2.7832
X3.1171 Y2.7762
Y2.7757
X3.1178 Y2.7683
X3.1179 Y2.7679
X3.1184 Y2.7602
Y2.7598
X3.1189 Y2.7517
Y2.7515
X3.1193 Y2.7429
Y2.7427
X3.1195 Y2.7339
Y2.7337
X3.1198 Y2.7246
Y2.7245
X3.1199 Y2.7151
X3.1201 Y2.7054
X3.1203 Y2.6956
X3.1206 Y2.6858
X3.1209 Y2.6758
X3.1214 Y2.6658
X3.1219 Y2.6557
X3.1227 Y2.6457
X3.1236 Y2.6357
X3.1248 Y2.6258
X3.1262 Y2.6161
X3.1278 Y2.6065
X3.1298 Y2.5971
X3.1321 Y2.5879
X3.1346 Y2.579
X3.1376 Y2.5704
X3.1409 Y2.5621
X3.1446 Y2.5542
X3.1487 Y2.5466
X3.1532 Y2.5395
X3.1582 Y2.5327
X3.1636 Y2.5264
X3.1695 Y2.5204
X3.1759 Y2.5147
X3.1829 Y2.5093
X3.1904 Y2.5041
X3.1984 Y2.4991
X3.2069 Y2.4942
X3.2158 Y2.4894
X3.2253 Y2.4847
X3.2352 Y2.48
X3.2456 Y2.4754
X3.2564 Y2.4707
X3.2677 Y2.4659
X3.2793 Y2.461
X3.2914 Y2.4559
X3.3038 Y2.4506
X3.3039
X3.3166 Y2.4451
X3.3168 Y2.445
X3.3298 Y2.4393
X3.33 Y2.4392
X3.3433 Y2.4331
X3.3435 Y2.433
X3.3571 Y2.4266
X3.3574 Y2.4264
X3.3712 Y2.4196
X3.3716 Y2.4194
X3.3857 Y2.4121
X3.386 Y2.4119
X3.4004 Y2.4041
X3.4008 Y2.4039
X3.4155 Y2.3955
X3.4158 Y2.3953
X3.4307 Y2.3863
X3.4311 Y2.3861
X3.4462 Y2.3766
X3.4465 Y2.3764
X3.4618 Y2.3663
X3.4621 Y2.3661
X3.4776 Y2.3555
X3.4779 Y2.3553
X3.4935 Y2.3443
X3.4938 Y2.3441
X3.5095 Y2.3326
X3.5097 Y2.3324
X3.5255 Y2.3205
X3.5257 Y2.3203
X3.5416 Y2.308
X3.5418 Y2.3079
X3.5576 Y2.2953
X3.5578 Y2.2951
X3.5736 Y2.2822
X3.5738 Y2.282
X3.5895 Y2.2688
X3.5897 Y2.2686
X3.6053 Y2.2552
X3.6055 Y2.255
X3.621 Y2.2414
X3.6211 Y2.2412
X3.6364 Y2.2274
X3.6366 Y2.2272
X3.6517 Y2.2132
X3.6519 Y2.2131
X3.6668 Y2.199
X3.6669 Y2.1988
X3.6816 Y2.1846
X3.6817 Y2.1845
X3.696 Y2.1702
X3.6962 Y2.1701
X3.7102 Y2.1558
X3.7103 Y2.1557
X3.724 Y2.1414
X3.7241 Y2.1413
X3.7373 Y2.1271
X3.7375 Y2.1269
X3.7503 Y2.1128
X3.7505 Y2.1126
X3.7628 Y2.0987
X3.7629 Y2.0985
X3.7747 Y2.0846
X3.7749 Y2.0844
X3.7862 Y2.0708
X3.7864 Y2.0706
X3.7972 Y2.0571
X3.7974 Y2.0569
X3.8077 Y2.0436
X3.8079 Y2.0434
X3.8178 Y2.0303
X3.8179 Y2.0302
X3.8275 Y2.0173
X3.8276 Y2.0172
X3.8369 Y2.0045
X3.837 Y2.0044
X3.846 Y1.992
Y1.9919
X3.8548 Y1.9797
X3.8634 Y1.9678
X3.8718 Y1.9562
X3.88 Y1.9449
X3.8882 Y1.9339
X3.8963 Y1.9233
X3.9043 Y1.9131
X3.9124 Y1.9032
X3.9205 Y1.8937
X3.9287 Y1.8847
X3.937 Y1.876
X3.9455 Y1.8677
X3.9541 Y1.8599
X3.9631 Y1.8525
X3.9722 Y1.8455
X3.9818 Y1.8389
X3.9917 Y1.8327
X4.002 Y1.8269
X4.0128 Y1.8216
X4.0239 Y1.8166
X4.0354 Y1.812
X4.0471 Y1.8078
X4.0592 Y1.8039
X4.0715 Y1.8004
X4.084 Y1.7971
X4.0967 Y1.7941
X4.1096 Y1.7914
X4.1225 Y1.789
X4.1355 Y1.7868
X4.1486 Y1.7848
X4.1617 Y1.783
X4.1747 Y1.7813
X4.1876 Y1.7799
X4.2004 Y1.7785
X4.2132 Y1.7772
X4.2257 Y1.7761
X4.238 Y1.775
X4.2501 Y1.7739
X4.2619 Y1.7729
X4.262
X4.2734 Y1.7718
X4.2735
X4.2846 Y1.7708
X4.2847 Y1.7707
X4.2954 Y1.7697
X4.2955 Y1.7696
X4.3058 Y1.7685
X4.3059
X4.3159 Y1.7674
X4.3256 Y1.7663
X4.335 Y1.7652
X4.344 Y1.7642
X4.3528 Y1.7633
X4.3612 Y1.7625
X4.3694 Y1.7618
X4.3774 Y1.7612
X4.3851 Y1.7608
X4.3925 Y1.7605
X4.3998
X4.4068 Y1.7606
X4.4136 Y1.761
X4.4203 Y1.7615
X4.4268 Y1.7624
X4.4332 Y1.7635
X4.4396 Y1.7649
X4.4458 Y1.7665
X4.452 Y1.7685
X4.4582 Y1.7708
X4.4644 Y1.7735
X4.4707 Y1.7766
X4.477 Y1.7801
X4.4835 Y1.784
X4.49 Y1.7883
X4.4965 Y1.7929
X4.5032 Y1.7978
X4.5098 Y1.803
X4.5165 Y1.8084
X4.5232 Y1.8141
X4.5299 Y1.8199
X4.5366 Y1.8258
X4.5432 Y1.8319
X4.5499 Y1.838
X4.5565 Y1.8442
X4.563 Y1.8503
X4.5695 Y1.8565
X4.576 Y1.8626
X4.5823 Y1.8685
X4.5824 Y1.8686
X4.5886 Y1.8744
X4.5887 Y1.8745
X4.5949 Y1.8801
Y1.8802
X4.6009 Y1.8856
X4.6012 Y1.8858
X4.6071 Y1.891
X4.6073 Y1.8912
X4.613 Y1.8961
X4.6134 Y1.8964
X4.6191 Y1.901
X4.6194 Y1.9012
X4.6248 Y1.9054
X4.6253 Y1.9058
X4.6307 Y1.9097
X4.6312 Y1.91
X4.6364 Y1.9135
X4.6369 Y1.9139
X4.642 Y1.917
X4.6426 Y1.9174
X4.6475 Y1.9202
X4.6482 Y1.9205
X4.6529 Y1.923
X4.6536 Y1.9233
X4.6581 Y1.9254
X4.6589 Y1.9258
X4.6633 Y1.9275
X4.6642 Y1.9279
X4.6684 Y1.9293
X4.6694 Y1.9296
X4.6733 Y1.9308
X4.6745 Y1.9311
X4.6782 Y1.9319
X4.6795 Y1.9321
X4.683 Y1.9326
X4.6843 Y1.9328
X4.6877 Y1.933
X4.6889 Y1.9331
X4.692
X4.6935
X4.6965 Y1.9329
X4.6981 Y1.9327
X4.7009 Y1.9322
X4.7028 Y1.9318
X4.7053 Y1.9311
X4.7073 Y1.9305
X4.7097 Y1.9295
X4.7116 Y1.9287
X4.7139 Y1.9274
X4.7158 Y1.9263
X4.7179 Y1.9248
X4.7194 Y1.9237
X4.7214 Y1.922
X4.7229 Y1.9205
X4.7248 Y1.9185
X4.7258 Y1.9175
X4.7276 Y1.9152
X4.7286 Y1.9139
X4.7303 Y1.9113
X4.731 Y1.9102
X4.7327 Y1.9073
X4.7332 Y1.9063
X4.7348 Y1.9031
X4.7353 Y1.902
X4.7368 Y1.8985
X4.7373 Y1.8972
X4.7385 Y1.8933
X4.7388 Y1.8925
X4.7399 Y1.8884
X4.7402 Y1.8873
X4.7411 Y1.8829
X4.7413 Y1.8819
X4.7421 Y1.8772
X4.7422 Y1.8765
X4.7428 Y1.8715
Y1.8707
X4.7432 Y1.8655
X4.7433 Y1.8648
X4.7435 Y1.8593
Y1.8585
X4.7434 Y1.8528
Y1.8522
X4.7432 Y1.8463
X4.7431 Y1.8456
X4.7427 Y1.8395
X4.7426 Y1.8389
X4.742 Y1.8326
X4.7419 Y1.8319
X4.7409 Y1.8253
X4.7408 Y1.8249
X4.7397 Y1.8182
X4.7396 Y1.8175
X4.7382 Y1.8106
X4.738 Y1.81
X4.7363 Y1.803
X4.7362 Y1.8025
X4.7343 Y1.7953
X4.7341 Y1.7948
X4.7319 Y1.7874
X4.7318 Y1.7869
X4.7293 Y1.7795
X4.7291 Y1.779
X4.7264 Y1.7714
X4.7262 Y1.7708
X4.7231 Y1.7631
X4.7229 Y1.7627
X4.7195 Y1.7549
X4.7193 Y1.7544
X4.7157 Y1.7465
X4.7154 Y1.7461
X4.7115 Y1.7381
X4.7112 Y1.7377
X4.7069 Y1.7296
X4.7067 Y1.7293
X4.7022 Y1.7211
X4.7019 Y1.7208
X4.6971 Y1.7126
X4.6969 Y1.7123
X4.6918 Y1.7041
X4.6916 Y1.7037
X4.6862 Y1.6955
X4.6859 Y1.6952
X4.6803 Y1.6869
X4.6801 Y1.6866
X4.6742 Y1.6783
X4.674 Y1.678
X4.6679 Y1.6697
X4.6677 Y1.6694
X4.6613 Y1.6611
X4.6611 Y1.6609
X4.6545 Y1.6526
X4.6543 Y1.6524
X4.6475 Y1.6441
X4.6473 Y1.6438
X4.6403 Y1.6356
X4.6401 Y1.6354
X4.6329 Y1.6272
X4.6327 Y1.6269
X4.6253 Y1.6188
X4.6251 Y1.6185
X4.6175 Y1.6104
X4.6173 Y1.6103
X4.6096 Y1.6022
X4.6094 Y1.602
X4.6015 Y1.5941
X4.6013 Y1.5939
X4.5933 Y1.586
X4.593 Y1.5858
X4.5848 Y1.578
X4.5846 Y1.5779
X4.5763 Y1.5702
X4.5761 Y1.57
X4.5676 Y1.5624
X4.5674 Y1.5623
X4.5588 Y1.5548
X4.5586 Y1.5546
X4.5499 Y1.5474
X4.5497 Y1.5472
X4.5409 Y1.5401
X4.5407 Y1.5399
X4.5318 Y1.5329
X4.5315 Y1.5327
X4.5224 Y1.5258
X4.5221 Y1.5256
X4.5129 Y1.5189
X4.5126 Y1.5187
X4.5031 Y1.5121
X4.5028 Y1.5119
X4.493 Y1.5055
X4.4927 Y1.5052
X4.4827 Y1.4989
X4.4823 Y1.4987
X4.472 Y1.4926
X4.4716 Y1.4923
X4.4609 Y1.4863
X4.4605 Y1.4861
X4.4495 Y1.4803
X4.4491 Y1.48
X4.4376 Y1.4743
X4.4372 Y1.4741
X4.4253 Y1.4685
X4.4249 Y1.4683
X4.4125 Y1.4629
X4.4121 Y1.4627
X4.3991 Y1.4574
X4.3987 Y1.4572
X4.3853 Y1.452
X4.3849 Y1.4519
X4.3708 Y1.4468
X4.3705 Y1.4467
X4.3558 Y1.4417
X4.3554 Y1.4416
X4.3401 Y1.4368
X4.3398 Y1.4366
X4.3238 Y1.4319
X4.3235 Y1.4318
X4.3067 Y1.4273
X4.3064 Y1.4272
X4.289 Y1.4227
X4.2887 Y1.4226
X4.2704 Y1.4183
X4.2701 Y1.4182
X4.2511 Y1.414
X4.2508 Y1.4139
X4.2309 Y1.4098
X4.2307
X4.2099 Y1.4058
X4.2096 Y1.4057
X4.188 Y1.4019
X4.1878 Y1.4018
X4.1654 Y1.3981
X4.1652
X4.1419 Y1.3945
X4.1418
X4.1178 Y1.391
X4.1176
X4.0929 Y1.3878
X4.0927 Y1.3877
X4.0673 Y1.3846
X4.0672
X4.0411 Y1.3817
X4.041
X4.0143 Y1.3789
X4.0141
X3.9869 Y1.3764
X3.9867
X3.9588 Y1.3741
X3.9587 Y1.374
X3.9303 Y1.3719
X3.9302
X3.9013 Y1.37
X3.9011
X3.8718 Y1.3683
X3.8716
X3.8418 Y1.3669
X3.8416
X3.8114 Y1.3657
X3.8112
X3.7806 Y1.3647
X3.7804
X3.7495 Y1.3641
X3.7493
X3.718 Y1.3636
X3.7178
X3.6863 Y1.3635
X3.6861
X3.6542 Y1.3636
X3.654
X3.622 Y1.3641
X3.6218
X3.5895 Y1.3648
X3.5893
X3.5568 Y1.3659
X3.5566
X3.524 Y1.3673
X3.5239
X3.4911 Y1.3689
X3.491
X3.4582 Y1.3709
X3.4581
X3.4254 Y1.3731
X3.4252
X3.3926 Y1.3755
X3.3925
X3.36 Y1.3781
X3.3599
X3.3276 Y1.3809
X3.3275
X3.2954 Y1.3839
X3.2953
X3.2636 Y1.3869
X3.2635 Y1.387
X3.2322 Y1.3902
X3.2321
X3.2012 Y1.3935
X3.2011
X3.1707 Y1.3968
X3.1408 Y1.4003
X3.1115 Y1.4037
X3.0829 Y1.4071
Y1.4072
X3.0551 Y1.4106
X3.028 Y1.4139
X3.0018 Y1.4173
X2.9765 Y1.4205
X2.9522 Y1.4236
X2.9289 Y1.4266
X2.9068 Y1.4294
X2.8858 Y1.432
X2.866 Y1.4345
X2.8475 Y1.4367
X2.8302 Y1.4387
X2.8141 Y1.4404
X2.7991 Y1.4419
X2.7852 Y1.4431
X2.7722 Y1.444
X2.7602 Y1.4447
X2.7491 Y1.4451
X2.7389 Y1.4452
X2.7294 Y1.4449
X2.7206 Y1.4444
X2.7125 Y1.4435
X2.7049 Y1.4423
X2.6979 Y1.4408
X2.6914 Y1.439
X2.6852 Y1.4369
X2.6794 Y1.4345
X2.6737 Y1.4318
X2.6683 Y1.4287
X2.6628 Y1.4252
X2.6574 Y1.4213
X2.652 Y1.417
X2.6464 Y1.4122
X2.6408 Y1.407
X2.6348 Y1.4012
X2.6287 Y1.3949
X2.6223 Y1.3883
X2.6157 Y1.3812
X2.6088 Y1.3738
X2.6017 Y1.3661
X2.5943 Y1.358
X2.5867 Y1.3497
X2.5788 Y1.3412
X2.5787 Y1.3411
X2.5706 Y1.3324
X2.5705 Y1.3323
X2.5621 Y1.3235
X2.562 Y1.3233
X2.5533 Y1.3144
X2.5531 Y1.3142
X2.5441 Y1.3051
X2.5439 Y1.3049
X2.5346 Y1.2958
X2.5344 Y1.2956
X2.5247 Y1.2863
X2.5245 Y1.2861
X2.5144 Y1.2768
X2.5142 Y1.2766
X2.5038 Y1.2673
X2.5035 Y1.2671
X2.4927 Y1.2578
X2.4925 Y1.2575
X2.4813 Y1.2483
X2.481 Y1.248
X2.4694 Y1.2388
X2.4691 Y1.2386
X2.4571 Y1.2295
X2.4567 Y1.2292
X2.4443 Y1.2202
X2.4439 Y1.22
X2.431 Y1.2111
X2.4306 Y1.2109
X2.4173 Y1.2022
X2.4169 Y1.2019
X2.403 Y1.1934
X2.4027 Y1.1932
X2.3884 Y1.1848
X2.388 Y1.1846
X2.3733 Y1.1765
X2.373 Y1.1763
X2.3579 Y1.1683
X2.3576 Y1.1682
X2.3421 Y1.1603
X2.3418 Y1.1602
X2.326 Y1.1525
X2.3258 Y1.1524
X2.3097 Y1.1449
X2.3095 Y1.1448
X2.2932 Y1.1374
X2.293
X2.2764 Y1.1301
X2.2762
X2.2595 Y1.123
X2.2594 Y1.1229
X2.2425 Y1.116
X2.2424
X2.2254 Y1.1092
X2.2253 Y1.1091
X2.2083 Y1.1025
X2.2081 Y1.1024
X2.1911 Y1.0959
X2.191
X2.1739 Y1.0895
X2.1738
X2.1568 Y1.0833
X2.1567 Y1.0832
X2.1398 Y1.0771
X2.1397
X2.1229 Y1.0711
X2.1228 Y1.071
X2.1061 Y1.0651
X2.0896 Y1.0593
X2.0733 Y1.0537
X2.0572 Y1.0481
X2.0415 Y1.0426
X2.026 Y1.0373
X2.011 Y1.032
X1.9963 Y1.0268
X1.9962
X1.9819 Y1.0218
X1.9818
X1.9678 Y1.017
X1.9676 Y1.0169
X1.9539 Y1.0123
X1.9538
X1.9403 Y1.0079
X1.9401 Y1.0078
X1.9269 Y1.0037
X1.9267
X1.9138 Y0.9998
X1.9134 Y0.9997
X1.9007 Y0.9962
X1.9004 Y0.9961
X1.8878 Y0.9929
X1.8874 Y0.9928
X1.8751 Y0.99
X1.8746 Y0.9898
X1.8624 Y0.9874
X1.8618 Y0.9873
X1.8497 Y0.9852
X1.8491 Y0.9851
X1.8371 Y0.9835
X1.8364 Y0.9834
X1.8245 Y0.9822
X1.8238
X1.8119 Y0.9815
X1.8111
X1.7993 Y0.9813
X1.7985
X1.7867 Y0.9816
X1.7858
X1.7739 Y0.9825
X1.7731 Y0.9826
X1.7612 Y0.9841
X1.7603 Y0.9842
X1.7483 Y0.9863
X1.7474 Y0.9864
X1.7354 Y0.9891
X1.7345 Y0.9894
X1.7224 Y0.9927
X1.7215 Y0.9929
X1.7092 Y0.997
X1.7084 Y0.9972
X1.6959 Y1.002
X1.6952 Y1.0022
X1.6825 Y1.0076
X1.6819 Y1.0079
X1.6691 Y1.0139
X1.6685 Y1.0142
X1.6556 Y1.0208
X1.6551 Y1.0211
X1.642 Y1.0282
X1.6416 Y1.0284
X1.6285 Y1.036
X1.6282 Y1.0362
X1.6149 Y1.0443
X1.6146 Y1.0444
X1.6014 Y1.0528
X1.6011 Y1.053
X1.5878 Y1.0617
X1.5876 Y1.0619
X1.5744 Y1.0708
X1.5742 Y1.071
X1.5609 Y1.0802
X1.5608 Y1.0803
X1.5475 Y1.0896
X1.5474 Y1.0897
X1.5343 Y1.0992
X1.5342
X1.5211 Y1.1088
X1.521
X1.508 Y1.1183
Y1.1184
X1.4951 Y1.1278
X1.4824 Y1.1372
X1.4699 Y1.1464
X1.4576 Y1.1554
X1.4455 Y1.1641
X1.4337 Y1.1725
X1.4222 Y1.1805
X1.411 Y1.188
X1.4002 Y1.1951
X1.3897 Y1.2016
X1.3795 Y1.2076
X1.3696 Y1.2132
X1.3601 Y1.2183
X1.3508 Y1.2229
X1.3419 Y1.2272
X1.3332 Y1.2311
X1.3248 Y1.2346
X1.3167 Y1.2378
X1.3088 Y1.2407
X1.3012 Y1.2434
X1.2939 Y1.2458
X1.2868 Y1.2479
X1.28 Y1.2499
X1.2733 Y1.2517
X1.2669 Y1.2534
X1.2607 Y1.2549
X1.2547 Y1.2563
X1.2489 Y1.2577
X1.2433 Y1.259
X1.2378 Y1.2602
X1.2377 Y1.2603
X1.2325 Y1.2615
X1.2323 Y1.2616
X1.2274 Y1.2628
X1.227 Y1.2629
X1.2223 Y1.2642
X1.2219 Y1.2643
X1.2174 Y1.2657
X1.217 Y1.2658
X1.2126 Y1.2672
X1.2122 Y1.2673
X1.208 Y1.2688
X1.2075 Y1.269
X1.2034 Y1.2706
X1.2029 Y1.2708
X1.199 Y1.2724
X1.1984 Y1.2727
X1.1946 Y1.2744
X1.194 Y1.2747
X1.1903 Y1.2766
X1.1897 Y1.2769
X1.1861 Y1.2788
X1.1855 Y1.2792
X1.182 Y1.2813
X1.1814 Y1.2817
X1.1779 Y1.2839
X1.1773 Y1.2843
X1.1739 Y1.2867
X1.1734 Y1.2871
X1.17 Y1.2896
X1.1695 Y1.29
X1.1661 Y1.2928
X1.1656 Y1.2931
X1.1622 Y1.296
X1.1618 Y1.2964
X1.1584 Y1.2995
X1.158 Y1.2999
X1.1546 Y1.3032
X1.1543 Y1.3035
X1.1508 Y1.307
X1.1505 Y1.3073
X1.147 Y1.3111
X1.1467 Y1.3113
X1.1431 Y1.3153
X1.1429 Y1.3155
X1.1392 Y1.3197
X1.139 Y1.32
X1.1352 Y1.3244
X1.1351 Y1.3246
X1.1312 Y1.3293
X1.1311 Y1.3295
X1.127 Y1.3345
X1.1269 Y1.3346
X1.1228 Y1.3399
X1.1227 Y1.34
X1.1184 Y1.3456
X1.1183 Y1.3457
X1.1139 Y1.3515
X1.1138 Y1.3516
X1.1093 Y1.3576
X1.1092 Y1.3577
X1.1047 Y1.3639
X1.1046 Y1.364
X1.0999 Y1.3703
Y1.3704
X1.0952 Y1.3769
X1.0951 Y1.377
X1.0904 Y1.3836
X1.0903 Y1.3837
X1.0855 Y1.3904
Y1.3905
X1.0807 Y1.3972
Y1.3973
X1.0759 Y1.4041
Y1.4042
X1.0711 Y1.411
X1.0664 Y1.4178
X1.0617 Y1.4247
X1.0571 Y1.4314
X1.0526 Y1.438
X1.0482 Y1.4445
X1.0439 Y1.4509
X1.0397 Y1.4571
X1.0357 Y1.463
X1.0319 Y1.4688
X1.0282 Y1.4743
X1.0247 Y1.4794
X1.0215 Y1.4843
X1.0184 Y1.4889
X1.0157 Y1.4931
X1.0131 Y1.4969
X1.0108 Y1.5004
X1.0107 Y1.5005
X1.0086 Y1.5037
X1.0067 Y1.5066
Y1.5067
X1.005 Y1.5093
X1.0049 Y1.5094
X1.0034 Y1.5118
X1.0033 Y1.512
X1.0019 Y1.5141
X1.0018 Y1.5143
X1.0006 Y1.5163
X1.0004 Y1.5167
X0.9993 Y1.5185
X0.9991 Y1.5189
X0.9982 Y1.5206
X0.9979 Y1.5211
X0.9971 Y1.5227
X0.9968 Y1.5232
X0.9961 Y1.5247
X0.9958 Y1.5254
X0.9952 Y1.5269
X0.9949 Y1.5276
X0.9944 Y1.5291
X0.9941 Y1.5298
X0.9936 Y1.5313
X0.9934 Y1.532
X0.993 Y1.5336
X0.9928 Y1.5341
X0.9924 Y1.5358
X0.9923 Y1.5362
X0.9919 Y1.5379
X0.9918 Y1.5383
X0.9914 Y1.5402
Y1.5404
X0.991 Y1.5425
Y1.5426
X0.9906 Y1.5449
X0.9901 Y1.5474
X0.9896 Y1.5501
X0.989 Y1.5531
Y1.5532
X0.9884 Y1.5564
Y1.5565
X0.9878 Y1.5599
Y1.56
X0.9872 Y1.5637
X0.9871 Y1.5638
X0.9865 Y1.5676
Y1.5677
X0.9859 Y1.5716
Y1.5718
X0.9852 Y1.5759
Y1.576
X0.9846 Y1.5803
Y1.5804
X0.984 Y1.5848
Y1.585
X0.9835 Y1.5894
X0.9834 Y1.5896
X0.9829 Y1.5941
Y1.5944
X0.9825 Y1.5989
Y1.5992
X0.9821 Y1.6038
Y1.6041
X0.9817 Y1.6088
Y1.6091
X0.9815 Y1.6138
Y1.6141
X0.9813 Y1.6188
Y1.6192
Y1.6239
Y1.6242
Y1.6289
Y1.6294
X0.9814 Y1.634
X0.9815 Y1.6345
X0.9817 Y1.6391
X0.9818 Y1.6396
X0.9822 Y1.6441
Y1.6447
X0.9828 Y1.6491
Y1.6495
X0.9827 Y1.6507
X0.9822 Y1.6518
X0.9813 Y1.6526
X0.9802 Y1.653
X0.9771 Y1.6535
X0.9759 Y1.6537 Z0.0477
X0.9749 Y1.6538 Z0.0484
X0.9742 Y1.6539 Z0.0494
X0.974 Z0.0506
G0 Z0.2625
X0.9731 Y1.6477
G1 Z0.1019 F1.8
Z0.0356
X0.9733 Z0.0344 F14.2
X0.974 Y1.6476 Z0.0334
X0.975 Y1.6475 Z0.0327
X0.9762 Y1.6473 Z0.0325
X0.9793 Y1.6469
X0.9805
X0.9816 Y1.6475
X0.9824 Y1.6484
X0.9828 Y1.6495
Y1.6497
X0.9835 Y1.6541
X0.9836 Y1.6548
X0.9844 Y1.659
X0.9846 Y1.6598
X0.9856 Y1.6639
X0.9858 Y1.6646
X0.9869 Y1.6687
X0.9872 Y1.6694
X0.9885 Y1.6735
X0.9887 Y1.6741
X0.9902 Y1.6781
X0.9904 Y1.6788
X0.9921 Y1.6828
X0.9923 Y1.6833
X0.9941 Y1.6874
X0.9943 Y1.6879
X0.9963 Y1.6919
X0.9965 Y1.6924
X0.9986 Y1.6965
X0.9988 Y1.6969
X1.0011 Y1.7011
X1.0013 Y1.7014
X1.0037 Y1.7057
X1.0039 Y1.706
X1.0065 Y1.7105
X1.0066 Y1.7107
X1.0094 Y1.7152
Y1.7154
X1.0124 Y1.7201
Y1.7202
X1.0155 Y1.7252
X1.0187 Y1.7304
X1.0221 Y1.7358
X1.0256 Y1.7414
X1.0293 Y1.7472
X1.033 Y1.7533
X1.037 Y1.7596
X1.041 Y1.7663
X1.0452 Y1.7732
X1.0495 Y1.7806
X1.0539 Y1.7883
X1.0585 Y1.7963
X1.0632 Y1.8048
X1.068 Y1.8135
X1.073 Y1.8226
X1.0781 Y1.832
X1.0834 Y1.8416
X1.0888 Y1.8516
X1.0943 Y1.8617
X1.0944 Y1.8618
X1.1 Y1.8721
X1.1001 Y1.8722
X1.1059 Y1.8827
X1.106 Y1.8828
X1.112 Y1.8935
Y1.8936
X1.1182 Y1.9045
Y1.9046
X1.1245 Y1.9156
X1.1246 Y1.9157
X1.1311 Y1.9268
X1.1312 Y1.927
X1.1379 Y1.9382
X1.138 Y1.9384
X1.1448 Y1.9497
X1.1449 Y1.9499
X1.152 Y1.9613
X1.1521 Y1.9614
X1.1593 Y1.9729
X1.1594 Y1.9731
X1.1669 Y1.9846
X1.167 Y1.9848
X1.1747 Y1.9963
X1.1748 Y1.9965
X1.1826 Y2.0081
X1.1828 Y2.0083
X1.1909 Y2.0198
X1.191 Y2.02
X1.1993 Y2.0315
X1.1995 Y2.0317
X1.208 Y2.0432
X1.2082 Y2.0434
X1.2169 Y2.0548
X1.2171 Y2.055
X1.226 Y2.0663
X1.2261 Y2.0665
X1.2352 Y2.0777
X1.2354 Y2.0779
X1.2446 Y2.089
X1.2447 Y2.0891
X1.2541 Y2.1001
X1.2542 Y2.1002
X1.2636 Y2.1112
X1.2637 Y2.1113
X1.2732 Y2.1221
X1.2733 Y2.1222
X1.2828 Y2.1329
X1.2829 Y2.133
X1.2924 Y2.1437
X1.302 Y2.1543
X1.3115 Y2.1648
X1.3209 Y2.1753
X1.3302 Y2.1856
X1.3393 Y2.1959
X1.3483 Y2.2061
X1.3571 Y2.2162
X1.3657 Y2.2262
X1.3741 Y2.2362
X1.3821 Y2.246
X1.3899 Y2.2558
X1.3974 Y2.2655
X1.4045 Y2.2751
X1.4112 Y2.2846
X1.4175 Y2.2941
X1.4235 Y2.3034
X1.429 Y2.3128
X1.4342 Y2.322
X1.4391 Y2.3312
X1.4436 Y2.3403
X1.4479 Y2.3493
X1.4519 Y2.3582
X1.4557 Y2.3669
X1.4593 Y2.3756
X1.4626 Y2.3842
X1.4658 Y2.3926
X1.4689 Y2.4009
X1.4718 Y2.4091
X1.4746 Y2.4171
X1.4774 Y2.4249
X1.4801 Y2.4326
X1.4828 Y2.4401
Y2.4402
X1.4854 Y2.4474
X1.4855 Y2.4476
X1.4881 Y2.4545
X1.4882 Y2.4548
X1.4909 Y2.4614
X1.491 Y2.4618
X1.4937 Y2.4682
X1.4939 Y2.4686
X1.4967 Y2.4748
X1.4969 Y2.4753
X1.4998 Y2.4811
X1.5001 Y2.4818
X1.5031 Y2.4873
X1.5035 Y2.4879
X1.5066 Y2.4932
X1.507 Y2.4939
X1.5102 Y2.4988
X1.5107 Y2.4995
X1.5141 Y2.5042
X1.5146 Y2.5049
X1.5181 Y2.5094
X1.5186 Y2.51
X1.5223 Y2.5143
X1.5229 Y2.5149
X1.5267 Y2.519
X1.5273 Y2.5196
X1.5312 Y2.5234
X1.5319 Y2.524
X1.536 Y2.5276
X1.5366 Y2.5281
X1.5408 Y2.5315
X1.5415 Y2.532
X1.5458 Y2.5352
X1.5465 Y2.5357
X1.551 Y2.5386
X1.5517 Y2.5391
X1.5563 Y2.5418
X1.557 Y2.5423
X1.5618 Y2.5448
X1.5625 Y2.5452
X1.5673 Y2.5476
X1.568 Y2.5479
X1.573 Y2.5501
X1.5737 Y2.5504
X1.5788 Y2.5524
X1.5795 Y2.5526
X1.5847 Y2.5545
X1.5853 Y2.5547
X1.5907 Y2.5564
X1.5913 Y2.5566
X1.5968 Y2.5581
X1.5974 Y2.5582
X1.603 Y2.5596
X1.6035 Y2.5597
X1.6093 Y2.5609
X1.6098 Y2.561
X1.6157 Y2.5621
X1.6162 Y2.5622
X1.6221 Y2.5631
X1.6226 Y2.5632
X1.6287 Y2.564
X1.6292
X1.6354 Y2.5647
X1.6358
X1.6422 Y2.5653
X1.6425
X1.649 Y2.5658
X1.6492
X1.6559 Y2.5662
X1.656
X1.6628 Y2.5665
X1.6697 Y2.5669
X1.6766 Y2.5672
X1.6836 Y2.5676
X1.6906 Y2.5681
X1.6977 Y2.5687
X1.7047 Y2.5694
X1.7118 Y2.5702
X1.7189 Y2.5712
X1.726 Y2.5724
X1.7332 Y2.5738
X1.7403 Y2.5755
X1.7474 Y2.5774
X1.7546 Y2.5796
X1.7617 Y2.5822
X1.7689 Y2.585
X1.7761 Y2.5882
X1.7832 Y2.5919
X1.7904 Y2.5959
X1.7977 Y2.6004
X1.8049 Y2.6054
X1.8122 Y2.6109
X1.8195 Y2.6168
X1.8269 Y2.6232
X1.8342 Y2.63
X1.8415 Y2.6372
X1.8489 Y2.6447
X1.8562 Y2.6526
X1.8635 Y2.6609
X1.8707 Y2.6694
X1.8779 Y2.6783
X1.8851 Y2.6874
X1.8922 Y2.6967
X1.8993 Y2.7063
X1.9064 Y2.7161
X1.9134 Y2.726
X1.9203 Y2.7361
X1.9271 Y2.7463
X1.9339 Y2.7567
X1.9407 Y2.7671
X1.9473 Y2.7776
X1.9539 Y2.7881
X1.9604 Y2.7987
X1.9669 Y2.8093
X1.9732 Y2.8198
X1.9795 Y2.8303
X1.9856 Y2.8408
X1.9917 Y2.8512
X1.9977 Y2.8616
X2.0037 Y2.872
X2.0096 Y2.8824
X2.0154 Y2.8927
X2.0211 Y2.903
X2.0268 Y2.9132
X2.0324 Y2.9234
X2.038 Y2.9336
X2.0436 Y2.9437
X2.0491 Y2.9538
X2.0545 Y2.9638
X2.06 Y2.9738
X2.0654 Y2.9837
X2.0707 Y2.9936
X2.0761 Y3.0035
X2.0814 Y3.0133
X2.0867 Y3.023
X2.092 Y3.0327
X2.0973 Y3.0424
X2.1026 Y3.052
X2.1079 Y3.0615
X2.1132 Y3.071
X2.1185 Y3.0803
Y3.0804
X2.1238 Y3.0896
Y3.0897
X2.1291 Y3.0988
Y3.0989
X2.1344 Y3.1079
Y3.108
X2.1397 Y3.1169
X2.1398 Y3.117
X2.145 Y3.1257
X2.1451 Y3.1258
X2.1503 Y3.1343
X2.1504 Y3.1345
X2.1557 Y3.1428
X2.1558 Y3.143
X2.161 Y3.1512
X2.1611 Y3.1513
X2.1663 Y3.1593
X2.1664 Y3.1595
X2.1717 Y3.1672
X2.1718 Y3.1674
X2.177 Y3.175
X2.1772 Y3.1752
X2.1824 Y3.1825
X2.1825 Y3.1827
X2.1877 Y3.1898
X2.1879 Y3.19
X2.1931 Y3.1968
X2.1933 Y3.1971
X2.1985 Y3.2036
X2.1987 Y3.2039
X2.2039 Y3.2101
X2.2042 Y3.2104
X2.2093 Y3.2163
X2.2096 Y3.2167
X2.2148 Y3.2223
X2.2151 Y3.2227
X2.2202 Y3.2279
X2.2207 Y3.2284
X2.2258 Y3.2333
X2.2263 Y3.2337
X2.2313 Y3.2383
X2.2319 Y3.2388
X2.237 Y3.243
X2.2376 Y3.2435
X2.2427 Y3.2474
X2.2434 Y3.2479
X2.2485 Y3.2514
X2.2492 Y3.2519
X2.2543 Y3.255
X2.2552 Y3.2555
X2.2603 Y3.2583
X2.2612 Y3.2588
X2.2663 Y3.2613
X2.2672 Y3.2617
X2.2724 Y3.2638
X2.2734 Y3.2642
X2.2786 Y3.266
X2.2798 Y3.2664
X2.285 Y3.2678
X2.2861 Y3.2681
X2.2914 Y3.2693
X2.2926 Y3.2695
X2.298 Y3.2703
X2.2992 Y3.2704
X2.3047 Y3.2708
X2.3059 Y3.2709
X2.3114
X2.3126
X2.3182 Y3.2706
X2.3194 Y3.2705
X2.325 Y3.2698
X2.3262 Y3.2697
X2.3319 Y3.2686
X2.333 Y3.2684
X2.3389 Y3.267
X2.3399 Y3.2667
X2.3458 Y3.2649
X2.3468 Y3.2646
X2.3528 Y3.2624
X2.3537 Y3.2621
X2.3599 Y3.2595
X2.3606 Y3.2591
X2.367 Y3.2561
X2.3677 Y3.2558
X2.3741 Y3.2524
X2.3748 Y3.252
X2.3813 Y3.2483
X2.3819 Y3.2479
X2.3887 Y3.2437
X2.3892 Y3.2434
X2.3961 Y3.2387
X2.3965 Y3.2384
X2.4037 Y3.2334
X2.404 Y3.2331
X2.4113 Y3.2277
X2.4116 Y3.2275
X2.419 Y3.2217
X2.4193 Y3.2215
X2.4268 Y3.2154
X2.427 Y3.2153
X2.4347 Y3.2089
X2.4349 Y3.2088
X2.4426 Y3.2022
X2.4427 Y3.202
X2.4505 Y3.1952
X2.4507 Y3.1951
X2.4585 Y3.1881
X2.4587 Y3.188
X2.4665 Y3.1809
X2.4666 Y3.1808
X2.4746 Y3.1736
Y3.1735
X2.4825 Y3.1662
X2.4826 Y3.1661
X2.4905 Y3.1587
X2.4984 Y3.1513
Y3.1512
X2.5062 Y3.1438
X2.514 Y3.1365
X2.5216 Y3.1292
X2.5292 Y3.122
X2.5366 Y3.115
X2.5438 Y3.1082
X2.5508 Y3.1015
X2.5577 Y3.0952
X2.5643 Y3.0891
X2.5708 Y3.0833
X2.5769 Y3.0779
X2.5828 Y3.0728
X2.5886 Y3.068
X2.5942 Y3.0635
X2.5997 Y3.0593
X2.6051 Y3.0553
X2.6105 Y3.0515
X2.6158 Y3.0479
X2.6212 Y3.0445
X2.6266 Y3.0413
X2.6321 Y3.0382
X2.6377 Y3.0352
X2.6435 Y3.0323
X2.6496 Y3.0294
X2.6559 Y3.0266
X2.6624 Y3.0238
X2.6693 Y3.0211
X2.6765 Y3.0183
X2.6841 Y3.0155
X2.6921 Y3.0127
X2.7006 Y3.0098
X2.7095 Y3.0069
X2.7189 Y3.0039
X2.7289 Y3.0007
X2.7394 Y2.9975
X2.7505 Y2.9941
X2.762 Y2.9905
X2.7739 Y2.9869
X2.7862 Y2.9832
X2.7988 Y2.9793
X2.8117 Y2.9754
X2.8248 Y2.9714
X2.8249
X2.8381 Y2.9673
Y2.9672
X2.8515 Y2.9631
X2.8649 Y2.9588
X2.865
X2.8783 Y2.9545
X2.8784
X2.8917 Y2.9501
X2.8918
X2.9051 Y2.9457
X2.9052
X2.9182 Y2.9413
X2.9184 Y2.9412
X2.9312 Y2.9367
X2.9314
X2.944 Y2.9322
X2.9441 Y2.9321
X2.9564 Y2.9276
X2.9566
X2.9686 Y2.923
X2.9688 Y2.9229
X2.9803 Y2.9184
X2.9806 Y2.9183
X2.9917 Y2.9138
X2.992 Y2.9136
X3.0025 Y2.9091
X3.0029 Y2.909
X3.0129 Y2.9044
X3.0133 Y2.9043
X3.0227 Y2.8998
X3.0231 Y2.8995
X3.0319 Y2.8951
X3.0324 Y2.8948
X3.0405 Y2.8903
X3.041 Y2.89
X3.0485 Y2.8856
X3.0491 Y2.8852
X3.056 Y2.8807
X3.0566 Y2.8803
X3.063 Y2.8759
X3.0636 Y2.8753
X3.0694 Y2.8709
X3.0701 Y2.8703
X3.0754 Y2.8658
X3.0761 Y2.8651
X3.0809 Y2.8605
X3.0816 Y2.8598
X3.086 Y2.8552
X3.0867 Y2.8544
X3.0906 Y2.8496
X3.0913 Y2.8487
X3.0949 Y2.8439
X3.0956 Y2.8429
X3.0987 Y2.8379
X3.0993 Y2.8369
X3.1021 Y2.8318
X3.1027 Y2.8308
X3.1052 Y2.8255
X3.1056 Y2.8245
X3.1078 Y2.819
X3.1082 Y2.818
X3.1101 Y2.8123
X3.1104 Y2.8114
X3.1121 Y2.8055
X3.1123 Y2.8046
X3.1137 Y2.7984
X3.1138 Y2.7977
X3.115 Y2.7912
X3.1152 Y2.7906
X3.1162 Y2.7838
Y2.7832
X3.1171 Y2.7762
Y2.7757
X3.1178 Y2.7683
X3.1179 Y2.7679
X3.1184 Y2.7602
Y2.7598
X3.1189 Y2.7517
Y2.7515
X3.1193 Y2.7429
Y2.7427
X3.1195 Y2.7339
Y2.7337
X3.1198 Y2.7246
Y2.7245
X3.1199 Y2.7151
X3.1201 Y2.7054
X3.1203 Y2.6956
X3.1206 Y2.6858
X3.1209 Y2.6758
X3.1214 Y2.6658
X3.1219 Y2.6557
X3.1227 Y2.6457
X3.1236 Y2.6357
X3.1248 Y2.6258
X3.1262 Y2.6161
X3.1278 Y2.6065
X3.1298 Y2.5971
X3.1321 Y2.5879
X3.1346 Y2.579
X3.1376 Y2.5704
X3.1409 Y2.5621
X3.1446 Y2.5542
X3.1487 Y2.5466
X3.1532 Y2.5395
X3.1582 Y2.5327
X3.1636 Y2.5264
X3.1695 Y2.5204
X3.1759 Y2.5147
X3.1829 Y2.5093
X3.1904 Y2.5041
X3.1984 Y2.4991
X3.2069 Y2.4942
X3.2158 Y2.4894
X3.2253 Y2.4847
X3.2352 Y2.48
X3.2456 Y2.4754
X3.2564 Y2.4707
X3.2677 Y2.4659
X3.2793 Y2.461
X3.2914 Y2.4559
X3.3038 Y2.4506
X3.3039
X3.3166 Y2.4451
X3.3168 Y2.445
X3.3298 Y2.4393
X3.33 Y2.4392
X3.3433 Y2.4331
X3.3435 Y2.433
X3.3571 Y2.4266
X3.3574 Y2.4264
X3.3712 Y2.4196
X3.3716 Y2.4194
X3.3857 Y2.4121
X3.386 Y2.4119
X3.4004 Y2.4041
X3.4008 Y2.4039
X3.4155 Y2.3955
X3.4158 Y2.3953
X3.4307 Y2.3863
X3.4311 Y2.3861
X3.4462 Y2.3766
X3.4465 Y2.3764
X3.4618 Y2.3663
X3.4621 Y2.3661
X3.4776 Y2.3555
X3.4779 Y2.3553
X3.4935 Y2.3443
X3.4938 Y2.3441
X3.5095 Y2.3326
X3.5097 Y2.3324
X3.5255 Y2.3205
X3.5257 Y2.3203
X3.5416 Y2.308
X3.5418 Y2.3079
X3.5576 Y2.2953
X3.5578 Y2.2951
X3.5736 Y2.2822
X3.5738 Y2.282
X3.5895 Y2.2688
X3.5897 Y2.2686
X3.6053 Y2.2552
X3.6055 Y2.255
X3.621 Y2.2414
X3.6211 Y2.2412
X3.6364 Y2.2274
X3.6366 Y2.2272
X3.6517 Y2.2132
X3.6519 Y2.2131
X3.6668 Y2.199
X3.6669 Y2.1988
X3.6816 Y2.1846
X3.6817 Y2.1845
X3.696 Y2.1702
X3.6962 Y2.1701
X3.7102 Y2.1558
X3.7103 Y2.1557
X3.724 Y2.1414
X3.7241 Y2.1413
X3.7373 Y2.1271
X3.7375 Y2.1269
X3.7503 Y2.1128
X3.7505 Y2.1126
X3.7628 Y2.0987
X3.7629 Y2.0985
X3.7747 Y2.0846
X3.7749 Y2.0844
X3.7862 Y2.0708
X3.7864 Y2.0706
X3.7972 Y2.0571
X3.7974 Y2.0569
X3.8077 Y2.0436
X3.8079 Y2.0434
X3.8178 Y2.0303
X3.8179 Y2.0302
X3.8275 Y2.0173
X3.8276 Y2.0172
X3.8369 Y2.0045
X3.837 Y2.0044
X3.846 Y1.992
Y1.9919
X3.8548 Y1.9797
X3.8634 Y1.9678
X3.8718 Y1.9562
X3.88 Y1.9449
X3.8882 Y1.9339
X3.8963 Y1.9233
X3.9043 Y1.9131
X3.9124 Y1.9032
X3.9205 Y1.8937
X3.9287 Y1.8847
X3.937 Y1.876
X3.9455 Y1.8677
X3.9541 Y1.8599
X3.9631 Y1.8525
X3.9722 Y1.8455
X3.9818 Y1.8389
X3.9917 Y1.8327
X4.002 Y1.8269
X4.0128 Y1.8216
X4.0239 Y1.8166
X4.0354 Y1.812
X4.0471 Y1.8078
X4.0592 Y1.8039
X4.0715 Y1.8004
X4.084 Y1.7971
X4.0967 Y1.7941
X4.1096 Y1.7914
X4.1225 Y1.789
X4.1355 Y1.7868
X4.1486 Y1.7848
X4.1617 Y1.783
X4.1747 Y1.7813
X4.1876 Y1.7799
X4.2004 Y1.7785
X4.2132 Y1.7772
X4.2257 Y1.7761
X4.238 Y1.775
X4.2501 Y1.7739
X4.2619 Y1.7729
X4.262
X4.2734 Y1.7718
X4.2735
X4.2846 Y1.7708
X4.2847 Y1.7707
X4.2954 Y1.7697
X4.2955 Y1.7696
X4.3058 Y1.7685
X4.3059
X4.3159 Y1.7674
X4.3256 Y1.7663
X4.335 Y1.7652
X4.344 Y1.7642
X4.3528 Y1.7633
X4.3612 Y1.7625
X4.3694 Y1.7618
X4.3774 Y1.7612
X4.3851 Y1.7608
X4.3925 Y1.7605
X4.3998
X4.4068 Y1.7606
X4.4136 Y1.761
X4.4203 Y1.7615
X4.4268 Y1.7624
X4.4332 Y1.7635
X4.4396 Y1.7649
X4.4458 Y1.7665
X4.452 Y1.7685
X4.4582 Y1.7708
X4.4644 Y1.7735
X4.4707 Y1.7766
X4.477 Y1.7801
X4.4835 Y1.784
X4.49 Y1.7883
X4.4965 Y1.7929
X4.5032 Y1.7978
X4.5098 Y1.803
X4.5165 Y1.8084
X4.5232 Y1.8141
X4.5299 Y1.8199
X4.5366 Y1.8258
X4.5432 Y1.8319
X4.5499 Y1.838
X4.5565 Y1.8442
X4.563 Y1.8503
X4.5695 Y1.8565
X4.576 Y1.8626
X4.5823 Y1.8685
X4.5824 Y1.8686
X4.5886 Y1.8744
X4.5887 Y1.8745
X4.5949 Y1.8801
Y1.8802
X4.6009 Y1.8856
X4.6012 Y1.8858
X4.6071 Y1.891
X4.6073 Y1.8912
X4.613 Y1.8961
X4.6134 Y1.8964
X4.6191 Y1.901
X4.6194 Y1.9012
X4.6248 Y1.9054
X4.6253 Y1.9058
X4.6307 Y1.9097
X4.6312 Y1.91
X4.6364 Y1.9135
X4.6369 Y1.9139
X4.642 Y1.917
X4.6426 Y1.9174
X4.6475 Y1.9202
X4.6482 Y1.9205
X4.6529 Y1.923
X4.6536 Y1.9233
X4.6581 Y1.9254
X4.6589 Y1.9258
X4.6633 Y1.9275
X4.6642 Y1.9279
X4.6684 Y1.9293
X4.6694 Y1.9296
X4.6733 Y1.9308
X4.6745 Y1.9311
X4.6782 Y1.9319
X4.6795 Y1.9321
X4.683 Y1.9326
X4.6843 Y1.9328
X4.6877 Y1.933
X4.6889 Y1.9331
X4.692
X4.6935
X4.6965 Y1.9329
X4.6981 Y1.9327
X4.7009 Y1.9322
X4.7028 Y1.9318
X4.7053 Y1.9311
X4.7073 Y1.9305
X4.7097 Y1.9295
X4.7116 Y1.9287
X4.7139 Y1.9274
X4.7158 Y1.9263
X4.7179 Y1.9248
X4.7194 Y1.9237
X4.7214 Y1.922
X4.7229 Y1.9205
X4.7248 Y1.9185
X4.7258 Y1.9175
X4.7276 Y1.9152
X4.7286 Y1.9139
X4.7303 Y1.9113
X4.731 Y1.9102
X4.7327 Y1.9073
X4.7332 Y1.9063
X4.7348 Y1.9031
X4.7353 Y1.902
X4.7368 Y1.8985
X4.7373 Y1.8972
X4.7385 Y1.8933
X4.7388 Y1.8925
X4.7399 Y1.8884
X4.7402 Y1.8873
X4.7411 Y1.8829
X4.7413 Y1.8819
X4.7421 Y1.8772
X4.7422 Y1.8765
X4.7428 Y1.8715
Y1.8707
X4.7432 Y1.8655
X4.7433 Y1.8648
X4.7435 Y1.8593
Y1.8585
X4.7434 Y1.8528
Y1.8522
X4.7432 Y1.8463
X4.7431 Y1.8456
X4.7427 Y1.8395
X4.7426 Y1.8389
X4.742 Y1.8326
X4.7419 Y1.8319
X4.7409 Y1.8253
X4.7408 Y1.8249
X4.7397 Y1.8182
X4.7396 Y1.8175
X4.7382 Y1.8106
X4.738 Y1.81
X4.7363 Y1.803
X4.7362 Y1.8025
X4.7343 Y1.7953
X4.7341 Y1.7948
X4.7319 Y1.7874
X4.7318 Y1.7869
X4.7293 Y1.7795
X4.7291 Y1.779
X4.7264 Y1.7714
X4.7262 Y1.7708
X4.7231 Y1.7631
X4.7229 Y1.7627
X4.7195 Y1.7549
X4.7193 Y1.7544
X4.7157 Y1.7465
X4.7154 Y1.7461
X4.7115 Y1.7381
X4.7112 Y1.7377
X4.7069 Y1.7296
X4.7067 Y1.7293
X4.7022 Y1.7211
X4.7019 Y1.7208
X4.6971 Y1.7126
X4.6969 Y1.7123
X4.6918 Y1.7041
X4.6916 Y1.7037
X4.6862 Y1.6955
X4.6859 Y1.6952
X4.6803 Y1.6869
X4.6801 Y1.6866
X4.6742 Y1.6783
X4.674 Y1.678
X4.6679 Y1.6697
X4.6677 Y1.6694
X4.6613 Y1.6611
X4.6611 Y1.6609
X4.6545 Y1.6526
X4.6543 Y1.6524
X4.6475 Y1.6441
X4.6473 Y1.6438
X4.6403 Y1.6356
X4.6401 Y1.6354
X4.6329 Y1.6272
X4.6327 Y1.6269
X4.6253 Y1.6188
X4.6251 Y1.6185
X4.6175 Y1.6104
X4.6173 Y1.6103
X4.6096 Y1.6022
X4.6094 Y1.602
X4.6015 Y1.5941
X4.6013 Y1.5939
X4.5933 Y1.586
X4.593 Y1.5858
X4.5848 Y1.578
X4.5846 Y1.5779
X4.5763 Y1.5702
X4.5761 Y1.57
X4.5676 Y1.5624
X4.5674 Y1.5623
X4.5588 Y1.5548
X4.5586 Y1.5546
X4.5499 Y1.5474
X4.5497 Y1.5472
X4.5409 Y1.5401
X4.5407 Y1.5399
X4.5318 Y1.5329
X4.5315 Y1.5327
X4.5224 Y1.5258
X4.5221 Y1.5256
X4.5129 Y1.5189
X4.5126 Y1.5187
X4.5031 Y1.5121
X4.5028 Y1.5119
X4.493 Y1.5055
X4.4927 Y1.5052
X4.4827 Y1.4989
X4.4823 Y1.4987
X4.472 Y1.4926
X4.4716 Y1.4923
X4.4609 Y1.4863
X4.4605 Y1.4861
X4.4495 Y1.4803
X4.4491 Y1.48
X4.4376 Y1.4743
X4.4372 Y1.4741
X4.4253 Y1.4685
X4.4249 Y1.4683
X4.4125 Y1.4629
X4.4121 Y1.4627
X4.3991 Y1.4574
X4.3987 Y1.4572
X4.3853 Y1.452
X4.3849 Y1.4519
X4.3708 Y1.4468
X4.3705 Y1.4467
X4.3558 Y1.4417
X4.3554 Y1.4416
X4.3401 Y1.4368
X4.3398 Y1.4366
X4.3238 Y1.4319
X4.3235 Y1.4318
X4.3067 Y1.4273
X4.3064 Y1.4272
X4.289 Y1.4227
X4.2887 Y1.4226
X4.2704 Y1.4183
X4.2701 Y1.4182
X4.2511 Y1.414
X4.2508 Y1.4139
X4.2309 Y1.4098
X4.2307
X4.2099 Y1.4058
X4.2096 Y1.4057
X4.188 Y1.4019
X4.1878 Y1.4018
X4.1654 Y1.3981
X4.1652
X4.1419 Y1.3945
X4.1418
X4.1178 Y1.391
X4.1176
X4.0929 Y1.3878
X4.0927 Y1.3877
X4.0673 Y1.3846
X4.0672
X4.0411 Y1.3817
X4.041
X4.0143 Y1.3789
X4.0141
X3.9869 Y1.3764
X3.9867
X3.9588 Y1.3741
X3.9587 Y1.374
X3.9303 Y1.3719
X3.9302
X3.9013 Y1.37
X3.9011
X3.8718 Y1.3683
X3.8716
X3.8418 Y1.3669
X3.8416
X3.8114 Y1.3657
X3.8112
X3.7806 Y1.3647
X3.7804
X3.7495 Y1.3641
X3.7493
X3.718 Y1.3636
X3.7178
X3.6863 Y1.3635
X3.6861
X3.6542 Y1.3636
X3.654
X3.622 Y1.3641
X3.6218
X3.5895 Y1.3648
X3.5893
X3.5568 Y1.3659
X3.5566
X3.524 Y1.3673
X3.5239
X3.4911 Y1.3689
X3.491
X3.4582 Y1.3709
X3.4581
X3.4254 Y1.3731
X3.4252
X3.3926 Y1.3755
X3.3925
X3.36 Y1.3781
X3.3599
X3.3276 Y1.3809
X3.3275
X3.2954 Y1.3839
X3.2953
X3.2636 Y1.3869
X3.2635 Y1.387
X3.2322 Y1.3902
X3.2321
X3.2012 Y1.3935
X3.2011
X3.1707 Y1.3968
X3.1408 Y1.4003
X3.1115 Y1.4037
X3.0829 Y1.4071
Y1.4072
X3.0551 Y1.4106
X3.028 Y1.4139
X3.0018 Y1.4173
X2.9765 Y1.4205
X2.9522 Y1.4236
X2.9289 Y1.4266
X2.9068 Y1.4294
X2.8858 Y1.432
X2.866 Y1.4345
X2.8475 Y1.4367
X2.8302 Y1.4387
X2.8141 Y1.4404
X2.7991 Y1.4419
X2.7852 Y1.4431
X2.7722 Y1.444
X2.7602 Y1.4447
X2.7491 Y1.4451
X2.7389 Y1.4452
X2.7294 Y1.4449
X2.7206 Y1.4444
X2.7125 Y1.4435
X2.7049 Y1.4423
X2.6979 Y1.4408
X2.6914 Y1.439
X2.6852 Y1.4369
X2.6794 Y1.4345
X2.6737 Y1.4318
X2.6683 Y1.4287
X2.6628 Y1.4252
X2.6574 Y1.4213
X2.652 Y1.417
X2.6464 Y1.4122
X2.6408 Y1.407
X2.6348 Y1.4012
X2.6287 Y1.3949
X2.6223 Y1.3883
X2.6157 Y1.3812
X2.6088 Y1.3738
X2.6017 Y1.3661
X2.5943 Y1.358
X2.5867 Y1.3497
X2.5788 Y1.3412
X2.5787 Y1.3411
X2.5706 Y1.3324
X2.5705 Y1.3323
X2.5621 Y1.3235
X2.562 Y1.3233
X2.5533 Y1.3144
X2.5531 Y1.3142
X2.5441 Y1.3051
X2.5439 Y1.3049
X2.5346 Y1.2958
X2.5344 Y1.2956
X2.5247 Y1.2863
X2.5245 Y1.2861
X2.5144 Y1.2768
X2.5142 Y1.2766
X2.5038 Y1.2673
X2.5035 Y1.2671
X2.4927 Y1.2578
X2.4925 Y1.2575
X2.4813 Y1.2483
X2.481 Y1.248
X2.4694 Y1.2388
X2.4691 Y1.2386
X2.4571 Y1.2295
X2.4567 Y1.2292
X2.4443 Y1.2202
X2.4439 Y1.22
X2.431 Y1.2111
X2.4306 Y1.2109
X2.4173 Y1.2022
X2.4169 Y1.2019
X2.403 Y1.1934
X2.4027 Y1.1932
X2.3884 Y1.1848
X2.388 Y1.1846
X2.3733 Y1.1765
X2.373 Y1.1763
X2.3579 Y1.1683
X2.3576 Y1.1682
X2.3421 Y1.1603
X2.3418 Y1.1602
X2.326 Y1.1525
X2.3258 Y1.1524
X2.3097 Y1.1449
X2.3095 Y1.1448
X2.2932 Y1.1374
X2.293
X2.2764 Y1.1301
X2.2762
X2.2595 Y1.123
X2.2594 Y1.1229
X2.2425 Y1.116
X2.2424
X2.2254 Y1.1092
X2.2253 Y1.1091
X2.2083 Y1.1025
X2.2081 Y1.1024
X2.1911 Y1.0959
X2.191
X2.1739 Y1.0895
X2.1738
X2.1568 Y1.0833
X2.1567 Y1.0832
X2.1398 Y1.0771
X2.1397
X2.1229 Y1.0711
X2.1228 Y1.071
X2.1061 Y1.0651
X2.0896 Y1.0593
X2.0733 Y1.0537
X2.0572 Y1.0481
X2.0415 Y1.0426
X2.026 Y1.0373
X2.011 Y1.032
X1.9963 Y1.0268
X1.9962
X1.9819 Y1.0218
X1.9818
X1.9678 Y1.017
X1.9676 Y1.0169
X1.9539 Y1.0123
X1.9538
X1.9403 Y1.0079
X1.9401 Y1.0078
X1.9269 Y1.0037
X1.9267
X1.9138 Y0.9998
X1.9134 Y0.9997
X1.9007 Y0.9962
X1.9004 Y0.9961
X1.8878 Y0.9929
X1.8874 Y0.9928
X1.8751 Y0.99
X1.8746 Y0.9898
X1.8624 Y0.9874
X1.8618 Y0.9873
X1.8497 Y0.9852
X1.8491 Y0.9851
X1.8371 Y0.9835
X1.8364 Y0.9834
X1.8245 Y0.9822
X1.8238
X1.8119 Y0.9815
X1.8111
X1.7993 Y0.9813
X1.7985
X1.7867 Y0.9816
X1.7858
X1.7739 Y0.9825
X1.7731 Y0.9826
X1.7612 Y0.9841
X1.7603 Y0.9842
X1.7483 Y0.9863
X1.7474 Y0.9864
X1.7354 Y0.9891
X1.7345 Y0.9894
X1.7224 Y0.9927
X1.7215 Y0.9929
X1.7092 Y0.997
X1.7084 Y0.9972
X1.6959 Y1.002
X1.6952 Y1.0022
X1.6825 Y1.0076
X1.6819 Y1.0079
X1.6691 Y1.0139
X1.6685 Y1.0142
X1.6556 Y1.0208
X1.6551 Y1.0211
X1.642 Y1.0282
X1.6416 Y1.0284
X1.6285 Y1.036
X1.6282 Y1.0362
X1.6149 Y1.0443
X1.6146 Y1.0444
X1.6014 Y1.0528
X1.6011 Y1.053
X1.5878 Y1.0617
X1.5876 Y1.0619
X1.5744 Y1.0708
X1.5742 Y1.071
X1.5609 Y1.0802
X1.5608 Y1.0803
X1.5475 Y1.0896
X1.5474 Y1.0897
X1.5343 Y1.0992
X1.5342
X1.5211 Y1.1088
X1.521
X1.508 Y1.1183
Y1.1184
X1.4951 Y1.1278
X1.4824 Y1.1372
X1.4699 Y1.1464
X1.4576 Y1.1554
X1.4455 Y1.1641
X1.4337 Y1.1725
X1.4222 Y1.1805
X1.411 Y1.188
X1.4002 Y1.1951
X1.3897 Y1.2016
X1.3795 Y1.2076
X1.3696 Y1.2132
X1.3601 Y1.2183
X1.3508 Y1.2229
X1.3419 Y1.2272
X1.3332 Y1.2311
X1.3248 Y1.2346
X1.3167 Y1.2378
X1.3088 Y1.2407
X1.3012 Y1.2434
X1.2939 Y1.2458
X1.2868 Y1.2479
X1.28 Y1.2499
X1.2733 Y1.2517
X1.2669 Y1.2534
X1.2607 Y1.2549
X1.2547 Y1.2563
X1.2489 Y1.2577
X1.2433 Y1.259
X1.2378 Y1.2602
X1.2377 Y1.2603
X1.2325 Y1.2615
X1.2323 Y1.2616
X1.2274 Y1.2628
X1.227 Y1.2629
X1.2223 Y1.2642
X1.2219 Y1.2643
X1.2174 Y1.2657
X1.217 Y1.2658
X1.2126 Y1.2672
X1.2122 Y1.2673
X1.208 Y1.2688
X1.2075 Y1.269
X1.2034 Y1.2706
X1.2029 Y1.2708
X1.199 Y1.2724
X1.1984 Y1.2727
X1.1946 Y1.2744
X1.194 Y1.2747
X1.1903 Y1.2766
X1.1897 Y1.2769
X1.1861 Y1.2788
X1.1855 Y1.2792
X1.182 Y1.2813
X1.1814 Y1.2817
X1.1779 Y1.2839
X1.1773 Y1.2843
X1.1739 Y1.2867
X1.1734 Y1.2871
X1.17 Y1.2896
X1.1695 Y1.29
X1.1661 Y1.2928
X1.1656 Y1.2931
X1.1622 Y1.296
X1.1618 Y1.2964
X1.1584 Y1.2995
X1.158 Y1.2999
X1.1546 Y1.3032
X1.1543 Y1.3035
X1.1508 Y1.307
X1.1505 Y1.3073
X1.147 Y1.3111
X1.1467 Y1.3113
X1.1431 Y1.3153
X1.1429 Y1.3155
X1.1392 Y1.3197
X1.139 Y1.32
X1.1352 Y1.3244
X1.1351 Y1.3246
X1.1312 Y1.3293
X1.1311 Y1.3295
X1.127 Y1.3345
X1.1269 Y1.3346
X1.1228 Y1.3399
X1.1227 Y1.34
X1.1184 Y1.3456
X1.1183 Y1.3457
X1.1139 Y1.3515
X1.1138 Y1.3516
X1.1093 Y1.3576
X1.1092 Y1.3577
X1.1047 Y1.3639
X1.1046 Y1.364
X1.0999 Y1.3703
Y1.3704
X1.0952 Y1.3769
X1.0951 Y1.377
X1.0904 Y1.3836
X1.0903 Y1.3837
X1.0855 Y1.3904
Y1.3905
X1.0807 Y1.3972
Y1.3973
X1.0759 Y1.4041
Y1.4042
X1.0711 Y1.411
X1.0664 Y1.4178
X1.0617 Y1.4247
X1.0571 Y1.4314
X1.0526 Y1.438
X1.0482 Y1.4445
X1.0439 Y1.4509
X1.0397 Y1.4571
X1.0357 Y1.463
X1.0319 Y1.4688
X1.0282 Y1.4743
X1.0247 Y1.4794
X1.0215 Y1.4843
X1.0184 Y1.4889
X1.0157 Y1.4931
X1.0131 Y1.4969
X1.0108 Y1.5004
X1.0107 Y1.5005
X1.0086 Y1.5037
X1.0067 Y1.5066
Y1.5067
X1.005 Y1.5093
X1.0049 Y1.5094
X1.0034 Y1.5118
X1.0033 Y1.512
X1.0019 Y1.5141
X1.0018 Y1.5143
X1.0006 Y1.5163
X1.0004 Y1.5167
X0.9993 Y1.5185
X0.9991 Y1.5189
X0.9982 Y1.5206
X0.9979 Y1.5211
X0.9971 Y1.5227
X0.9968 Y1.5232
X0.9961 Y1.5247
X0.9958 Y1.5254
X0.9952 Y1.5269
X0.9949 Y1.5276
X0.9944 Y1.5291
X0.9941 Y1.5298
X0.9936 Y1.5313
X0.9934 Y1.532
X0.993 Y1.5336
X0.9928 Y1.5341
X0.9924 Y1.5358
X0.9923 Y1.5362
X0.9919 Y1.5379
X0.9918 Y1.5383
X0.9914 Y1.5402
Y1.5404
X0.991 Y1.5425
Y1.5426
X0.9906 Y1.5449
X0.9901 Y1.5474
X0.9896 Y1.5501
X0.989 Y1.5531
Y1.5532
X0.9884 Y1.5564
Y1.5565
X0.9878 Y1.5599
Y1.56
X0.9872 Y1.5637
X0.9871 Y1.5638
X0.9865 Y1.5676
Y1.5677
X0.9859 Y1.5716
Y1.5718
X0.9852 Y1.5759
Y1.576
X0.9846 Y1.5803
Y1.5804
X0.984 Y1.5848
Y1.585
X0.9835 Y1.5894
X0.9834 Y1.5896
X0.9829 Y1.5941
Y1.5944
X0.9825 Y1.5989
Y1.5992
X0.9821 Y1.6038
Y1.6041
X0.9817 Y1.6088
Y1.6091
X0.9815 Y1.6138
Y1.6141
X0.9813 Y1.6188
Y1.6192
Y1.6239
Y1.6242
Y1.6289
Y1.6294
X0.9814 Y1.634
X0.9815 Y1.6345
X0.9817 Y1.6391
X0.9818 Y1.6396
X0.9822 Y1.6441
Y1.6447
X0.9828 Y1.6491
Y1.6495
X0.9827 Y1.6507
X0.9822 Y1.6518
X0.9813 Y1.6526
X0.9802 Y1.653
X0.9771 Y1.6535
X0.9759 Y1.6537 Z0.0327
X0.9749 Y1.6538 Z0.0334
X0.9742 Y1.6539 Z0.0344
X0.974 Z0.0356
G0 Z0.2625
X0.9731 Y1.6477
G1 Z0.0869 F1.8
Z0.0206
X0.9733 Z0.0194 F14.2
X0.974 Y1.6476 Z0.0184
X0.975 Y1.6475 Z0.0177
X0.9762 Y1.6473 Z0.0175
X0.9793 Y1.6469
X0.9805
X0.9816 Y1.6475
X0.9824 Y1.6484
X0.9828 Y1.6495
Y1.6497
X0.9835 Y1.6541
X0.9836 Y1.6548
X0.9844 Y1.659
X0.9846 Y1.6598
X0.9856 Y1.6639
X0.9858 Y1.6646
X0.9869 Y1.6687
X0.9872 Y1.6694
X0.9885 Y1.6735
X0.9887 Y1.6741
X0.9902 Y1.6781
X0.9904 Y1.6788
X0.9921 Y1.6828
X0.9923 Y1.6833
X0.9941 Y1.6874
X0.9943 Y1.6879
X0.9963 Y1.6919
X0.9965 Y1.6924
X0.9986 Y1.6965
X0.9988 Y1.6969
X1.0011 Y1.7011
X1.0013 Y1.7014
X1.0037 Y1.7057
X1.0039 Y1.706
X1.0065 Y1.7105
X1.0066 Y1.7107
X1.0094 Y1.7152
Y1.7154
X1.0124 Y1.7201
Y1.7202
X1.0155 Y1.7252
X1.0187 Y1.7304
X1.0221 Y1.7358
X1.0256 Y1.7414
X1.0293 Y1.7472
X1.033 Y1.7533
X1.037 Y1.7596
X1.041 Y1.7663
X1.0452 Y1.7732
X1.0495 Y1.7806
X1.0539 Y1.7883
X1.0585 Y1.7963
X1.0632 Y1.8048
X1.068 Y1.8135
X1.073 Y1.8226
X1.0781 Y1.832
X1.0834 Y1.8416
X1.0888 Y1.8516
X1.0943 Y1.8617
X1.0944 Y1.8618
X1.1 Y1.8721
X1.1001 Y1.8722
X1.1059 Y1.8827
X1.106 Y1.8828
X1.112 Y1.8935
Y1.8936
X1.1182 Y1.9045
Y1.9046
X1.1245 Y1.9156
X1.1246 Y1.9157
X1.1311 Y1.9268
X1.1312 Y1.927
X1.1379 Y1.9382
X1.138 Y1.9384
X1.1448 Y1.9497
X1.1449 Y1.9499
X1.152 Y1.9613
X1.1521 Y1.9614
X1.1593 Y1.9729
X1.1594 Y1.9731
X1.1669 Y1.9846
X1.167 Y1.9848
X1.1747 Y1.9963
X1.1748 Y1.9965
X1.1826 Y2.0081
X1.1828 Y2.0083
X1.1909 Y2.0198
X1.191 Y2.02
X1.1993 Y2.0315
X1.1995 Y2.0317
X1.208 Y2.0432
X1.2082 Y2.0434
X1.2169 Y2.0548
X1.2171 Y2.055
X1.226 Y2.0663
X1.2261 Y2.0665
X1.2352 Y2.0777
X1.2354 Y2.0779
X1.2446 Y2.089
X1.2447 Y2.0891
X1.2541 Y2.1001
X1.2542 Y2.1002
X1.2636 Y2.1112
X1.2637 Y2.1113
X1.2732 Y2.1221
X1.2733 Y2.1222
X1.2828 Y2.1329
X1.2829 Y2.133
X1.2924 Y2.1437
X1.302 Y2.1543
X1.3115 Y2.1648
X1.3209 Y2.1753
X1.3302 Y2.1856
X1.3393 Y2.1959
X1.3483 Y2.2061
X1.3571 Y2.2162
X1.3657 Y2.2262
X1.3741 Y2.2362
X1.3821 Y2.246
X1.3899 Y2.2558
X1.3974 Y2.2655
X1.4045 Y2.2751
X1.4112 Y2.2846
X1.4175 Y2.2941
X1.4235 Y2.3034
X1.429 Y2.3128
X1.4342 Y2.322
X1.4391 Y2.3312
X1.4436 Y2.3403
X1.4479 Y2.3493
X1.4519 Y2.3582
X1.4557 Y2.3669
X1.4593 Y2.3756
X1.4626 Y2.3842
X1.4658 Y2.3926
X1.4689 Y2.4009
X1.4718 Y2.4091
X1.4746 Y2.4171
X1.4774 Y2.4249
X1.4801 Y2.4326
X1.4828 Y2.4401
Y2.4402
X1.4854 Y2.4474
X1.4855 Y2.4476
X1.4881 Y2.4545
X1.4882 Y2.4548
X1.4909 Y2.4614
X1.491 Y2.4618
X1.4937 Y2.4682
X1.4939 Y2.4686
X1.4967 Y2.4748
X1.4969 Y2.4753
X1.4998 Y2.4811
X1.5001 Y2.4818
X1.5031 Y2.4873
X1.5035 Y2.4879
X1.5066 Y2.4932
X1.507 Y2.4939
X1.5102 Y2.4988
X1.5107 Y2.4995
X1.5141 Y2.5042
X1.5146 Y2.5049
X1.5181 Y2.5094
X1.5186 Y2.51
X1.5223 Y2.5143
X1.5229 Y2.5149
X1.5267 Y2.519
X1.5273 Y2.5196
X1.5312 Y2.5234
X1.5319 Y2.524
X1.536 Y2.5276
X1.5366 Y2.5281
X1.5408 Y2.5315
X1.5415 Y2.532
X1.5458 Y2.5352
X1.5465 Y2.5357
X1.551 Y2.5386
X1.5517 Y2.5391
X1.5563 Y2.5418
X1.557 Y2.5423
X1.5618 Y2.5448
X1.5625 Y2.5452
X1.5673 Y2.5476
X1.568 Y2.5479
X1.573 Y2.5501
X1.5737 Y2.5504
X1.5788 Y2.5524
X1.5795 Y2.5526
X1.5847 Y2.5545
X1.5853 Y2.5547
X1.5907 Y2.5564
X1.5913 Y2.5566
X1.5968 Y2.5581
X1.5974 Y2.5582
X1.603 Y2.5596
X1.6035 Y2.5597
X1.6093 Y2.5609
X1.6098 Y2.561
X1.6157 Y2.5621
X1.6162 Y2.5622
X1.6221 Y2.5631
X1.6226 Y2.5632
X1.6287 Y2.564
X1.6292
X1.6354 Y2.5647
X1.6358
X1.6422 Y2.5653
X1.6425
X1.649 Y2.5658
X1.6492
X1.6559 Y2.5662
X1.656
X1.6628 Y2.5665
X1.6697 Y2.5669
X1.6766 Y2.5672
X1.6836 Y2.5676
X1.6906 Y2.5681
X1.6977 Y2.5687
X1.7047 Y2.5694
X1.7118 Y2.5702
X1.7189 Y2.5712
X1.726 Y2.5724
X1.7332 Y2.5738
X1.7403 Y2.5755
X1.7474 Y2.5774
X1.7546 Y2.5796
X1.7617 Y2.5822
X1.7689 Y2.585
X1.7761 Y2.5882
X1.7832 Y2.5919
X1.7904 Y2.5959
X1.7977 Y2.6004
X1.8049 Y2.6054
X1.8122 Y2.6109
X1.8195 Y2.6168
X1.8269 Y2.6232
X1.8342 Y2.63
X1.8415 Y2.6372
X1.8489 Y2.6447
X1.8562 Y2.6526
X1.8635 Y2.6609
X1.8707 Y2.6694
X1.8779 Y2.6783
X1.8851 Y2.6874
X1.8922 Y2.6967
X1.8993 Y2.7063
X1.9064 Y2.7161
X1.9134 Y2.726
X1.9203 Y2.7361
X1.9271 Y2.7463
X1.9339 Y2.7567
X1.9407 Y2.7671
X1.9473 Y2.7776
X1.9539 Y2.7881
X1.9604 Y2.7987
X1.9669 Y2.8093
X1.9732 Y2.8198
X1.9795 Y2.8303
X1.9856 Y2.8408
X1.9917 Y2.8512
X1.9977 Y2.8616
X2.0037 Y2.872
X2.0096 Y2.8824
X2.0154 Y2.8927
X2.0211 Y2.903
X2.0268 Y2.9132
X2.0324 Y2.9234
X2.038 Y2.9336
X2.0436 Y2.9437
X2.0491 Y2.9538
X2.0545 Y2.9638
X2.06 Y2.9738
X2.0654 Y2.9837
X2.0707 Y2.9936
X2.0761 Y3.0035
X2.0814 Y3.0133
X2.0867 Y3.023
X2.092 Y3.0327
X2.0973 Y3.0424
X2.1026 Y3.052
X2.1079 Y3.0615
X2.1132 Y3.071
X2.1185 Y3.0803
Y3.0804
X2.1238 Y3.0896
Y3.0897
X2.1291 Y3.0988
Y3.0989
X2.1344 Y3.1079
Y3.108
X2.1397 Y3.1169
X2.1398 Y3.117
X2.145 Y3.1257
X2.1451 Y3.1258
X2.1503 Y3.1343
X2.1504 Y3.1345
X2.1557 Y3.1428
X2.1558 Y3.143
X2.161 Y3.1512
X2.1611 Y3.1513
X2.1663 Y3.1593
X2.1664 Y3.1595
X2.1717 Y3.1672
X2.1718 Y3.1674
X2.177 Y3.175
X2.1772 Y3.1752
X2.1824 Y3.1825
X2.1825 Y3.1827
X2.1877 Y3.1898
X2.1879 Y3.19
X2.1931 Y3.1968
X2.1933 Y3.1971
X2.1985 Y3.2036
X2.1987 Y3.2039
X2.2039 Y3.2101
X2.2042 Y3.2104
X2.2093 Y3.2163
X2.2096 Y3.2167
X2.2148 Y3.2223
X2.2151 Y3.2227
X2.2202 Y3.2279
X2.2207 Y3.2284
X2.2258 Y3.2333
X2.2263 Y3.2337
X2.2313 Y3.2383
X2.2319 Y3.2388
X2.237 Y3.243
X2.2376 Y3.2435
X2.2427 Y3.2474
X2.2434 Y3.2479
X2.2485 Y3.2514
X2.2492 Y3.2519
X2.2543 Y3.255
X2.2552 Y3.2555
X2.2603 Y3.2583
X2.2612 Y3.2588
X2.2663 Y3.2613
X2.2672 Y3.2617
X2.2724 Y3.2638
X2.2734 Y3.2642
X2.2786 Y3.266
X2.2798 Y3.2664
X2.285 Y3.2678
X2.2861 Y3.2681
X2.2914 Y3.2693
X2.2926 Y3.2695
X2.298 Y3.2703
X2.2992 Y3.2704
X2.3047 Y3.2708
X2.3059 Y3.2709
X2.3114
X2.3126
X2.3182 Y3.2706
X2.3194 Y3.2705
X2.325 Y3.2698
X2.3262 Y3.2697
X2.3319 Y3.2686
X2.333 Y3.2684
X2.3389 Y3.267
X2.3399 Y3.2667
X2.3458 Y3.2649
X2.3468 Y3.2646
X2.3528 Y3.2624
X2.3537 Y3.2621
X2.3599 Y3.2595
X2.3606 Y3.2591
X2.367 Y3.2561
X2.3677 Y3.2558
X2.3741 Y3.2524
X2.3748 Y3.252
X2.3813 Y3.2483
X2.3819 Y3.2479
X2.3887 Y3.2437
X2.3892 Y3.2434
X2.3961 Y3.2387
X2.3965 Y3.2384
X2.4037 Y3.2334
X2.404 Y3.2331
X2.4113 Y3.2277
X2.4116 Y3.2275
X2.419 Y3.2217
X2.4193 Y3.2215
X2.4268 Y3.2154
X2.427 Y3.2153
X2.4347 Y3.2089
X2.4349 Y3.2088
X2.4426 Y3.2022
X2.4427 Y3.202
X2.4505 Y3.1952
X2.4507 Y3.1951
X2.4585 Y3.1881
X2.4587 Y3.188
X2.4665 Y3.1809
X2.4666 Y3.1808
X2.4746 Y3.1736
Y3.1735
X2.4825 Y3.1662
X2.4826 Y3.1661
X2.4905 Y3.1587
X2.4984 Y3.1513
Y3.1512
X2.5062 Y3.1438
X2.514 Y3.1365
X2.5216 Y3.1292
X2.5292 Y3.122
X2.5366 Y3.115
X2.5438 Y3.1082
X2.5508 Y3.1015
X2.5577 Y3.0952
X2.5643 Y3.0891
X2.5708 Y3.0833
X2.5769 Y3.0779
X2.5828 Y3.0728
X2.5886 Y3.068
X2.5942 Y3.0635
X2.5997 Y3.0593
X2.6051 Y3.0553
X2.6105 Y3.0515
X2.6158 Y3.0479
X2.6212 Y3.0445
X2.6266 Y3.0413
X2.6321 Y3.0382
X2.6377 Y3.0352
X2.6435 Y3.0323
X2.6496 Y3.0294
X2.6559 Y3.0266
X2.6624 Y3.0238
X2.6693 Y3.0211
X2.6765 Y3.0183
X2.6841 Y3.0155
X2.6921 Y3.0127
X2.7006 Y3.0098
X2.7095 Y3.0069
X2.7189 Y3.0039
X2.7289 Y3.0007
X2.7394 Y2.9975
X2.7505 Y2.9941
X2.762 Y2.9905
X2.7739 Y2.9869
X2.7862 Y2.9832
X2.7988 Y2.9793
X2.8117 Y2.9754
X2.8248 Y2.9714
X2.8249
X2.8381 Y2.9673
Y2.9672
X2.8515 Y2.9631
X2.8649 Y2.9588
X2.865
X2.8783 Y2.9545
X2.8784
X2.8917 Y2.9501
X2.8918
X2.9051 Y2.9457
X2.9052
X2.9182 Y2.9413
X2.9184 Y2.9412
X2.9312 Y2.9367
X2.9314
X2.944 Y2.9322
X2.9441 Y2.9321
X2.9564 Y2.9276
X2.9566
X2.9686 Y2.923
X2.9688 Y2.9229
X2.9803 Y2.9184
X2.9806 Y2.9183
X2.9917 Y2.9138
X2.992 Y2.9136
X3.0025 Y2.9091
X3.0029 Y2.909
X3.0129 Y2.9044
X3.0133 Y2.9043
X3.0227 Y2.8998
X3.0231 Y2.8995
X3.0319 Y2.8951
X3.0324 Y2.8948
X3.0405 Y2.8903
X3.041 Y2.89
X3.0485 Y2.8856
X3.0491 Y2.8852
X3.056 Y2.8807
X3.0566 Y2.8803
X3.063 Y2.8759
X3.0636 Y2.8753
X3.0694 Y2.8709
X3.0701 Y2.8703
X3.0754 Y2.8658
X3.0761 Y2.8651
X3.0809 Y2.8605
X3.0816 Y2.8598
X3.086 Y2.8552
X3.0867 Y2.8544
X3.0906 Y2.8496
X3.0913 Y2.8487
X3.0949 Y2.8439
X3.0956 Y2.8429
X3.0987 Y2.8379
X3.0993 Y2.8369
X3.1021 Y2.8318
X3.1027 Y2.8308
X3.1052 Y2.8255
X3.1056 Y2.8245
X3.1078 Y2.819
X3.1082 Y2.818
X3.1101 Y2.8123
X3.1104 Y2.8114
X3.1121 Y2.8055
X3.1123 Y2.8046
X3.1137 Y2.7984
X3.1138 Y2.7977
X3.115 Y2.7912
X3.1152 Y2.7906
X3.1162 Y2.7838
Y2.7832
X3.1171 Y2.7762
Y2.7757
X3.1178 Y2.7683
X3.1179 Y2.7679
X3.1184 Y2.7602
Y2.7598
X3.1189 Y2.7517
Y2.7515
X3.1193 Y2.7429
Y2.7427
X3.1195 Y2.7339
Y2.7337
X3.1198 Y2.7246
Y2.7245
X3.1199 Y2.7151
X3.1201 Y2.7054
X3.1203 Y2.6956
X3.1206 Y2.6858
X3.1209 Y2.6758
X3.1214 Y2.6658
X3.1219 Y2.6557
X3.1227 Y2.6457
X3.1236 Y2.6357
X3.1248 Y2.6258
X3.1262 Y2.6161
X3.1278 Y2.6065
X3.1298 Y2.5971
X3.1321 Y2.5879
X3.1346 Y2.579
X3.1376 Y2.5704
X3.1409 Y2.5621
X3.1446 Y2.5542
X3.1487 Y2.5466
X3.1532 Y2.5395
X3.1582 Y2.5327
X3.1636 Y2.5264
X3.1695 Y2.5204
X3.1759 Y2.5147
X3.1829 Y2.5093
X3.1904 Y2.5041
X3.1984 Y2.4991
X3.2069 Y2.4942
X3.2158 Y2.4894
X3.2253 Y2.4847
X3.2352 Y2.48
X3.2456 Y2.4754
X3.2564 Y2.4707
X3.2677 Y2.4659
X3.2793 Y2.461
X3.2914 Y2.4559
X3.3038 Y2.4506
X3.3039
X3.3166 Y2.4451
X3.3168 Y2.445
X3.3298 Y2.4393
X3.33 Y2.4392
X3.3433 Y2.4331
X3.3435 Y2.433
X3.3571 Y2.4266
X3.3574 Y2.4264
X3.3712 Y2.4196
X3.3716 Y2.4194
X3.3857 Y2.4121
X3.386 Y2.4119
X3.4004 Y2.4041
X3.4008 Y2.4039
X3.4155 Y2.3955
X3.4158 Y2.3953
X3.4307 Y2.3863
X3.4311 Y2.3861
X3.4462 Y2.3766
X3.4465 Y2.3764
X3.4618 Y2.3663
X3.4621 Y2.3661
X3.4776 Y2.3555
X3.4779 Y2.3553
X3.4935 Y2.3443
X3.4938 Y2.3441
X3.5095 Y2.3326
X3.5097 Y2.3324
X3.5255 Y2.3205
X3.5257 Y2.3203
X3.5416 Y2.308
X3.5418 Y2.3079
X3.5576 Y2.2953
X3.5578 Y2.2951
X3.5736 Y2.2822
X3.5738 Y2.282
X3.5895 Y2.2688
X3.5897 Y2.2686
X3.6053 Y2.2552
X3.6055 Y2.255
X3.621 Y2.2414
X3.6211 Y2.2412
X3.6364 Y2.2274
X3.6366 Y2.2272
X3.6517 Y2.2132
X3.6519 Y2.2131
X3.6668 Y2.199
X3.6669 Y2.1988
X3.6816 Y2.1846
X3.6817 Y2.1845
X3.696 Y2.1702
X3.6962 Y2.1701
X3.7102 Y2.1558
X3.7103 Y2.1557
X3.724 Y2.1414
X3.7241 Y2.1413
X3.7373 Y2.1271
X3.7375 Y2.1269
X3.7503 Y2.1128
X3.7505 Y2.1126
X3.7628 Y2.0987
X3.7629 Y2.0985
X3.7747 Y2.0846
X3.7749 Y2.0844
X3.7862 Y2.0708
X3.7864 Y2.0706
X3.7972 Y2.0571
X3.7974 Y2.0569
X3.8077 Y2.0436
X3.8079 Y2.0434
X3.8178 Y2.0303
X3.8179 Y2.0302
X3.8275 Y2.0173
X3.8276 Y2.0172
X3.8369 Y2.0045
X3.837 Y2.0044
X3.846 Y1.992
Y1.9919
X3.8548 Y1.9797
X3.8634 Y1.9678
X3.8718 Y1.9562
X3.88 Y1.9449
X3.8882 Y1.9339
X3.8963 Y1.9233
X3.9043 Y1.9131
X3.9124 Y1.9032
X3.9205 Y1.8937
X3.9287 Y1.8847
X3.937 Y1.876
X3.9455 Y1.8677
X3.9541 Y1.8599
X3.9631 Y1.8525
X3.9722 Y1.8455
X3.9818 Y1.8389
X3.9917 Y1.8327
X4.002 Y1.8269
X4.0128 Y1.8216
X4.0239 Y1.8166
X4.0354 Y1.812
X4.0471 Y1.8078
X4.0592 Y1.8039
X4.0715 Y1.8004
X4.084 Y1.7971
X4.0967 Y1.7941
X4.1096 Y1.7914
X4.1225 Y1.789
X4.1355 Y1.7868
X4.1486 Y1.7848
X4.1617 Y1.783
X4.1747 Y1.7813
X4.1876 Y1.7799
X4.2004 Y1.7785
X4.2132 Y1.7772
X4.2257 Y1.7761
X4.238 Y1.775
X4.2501 Y1.7739
X4.2619 Y1.7729
X4.262
X4.2734 Y1.7718
X4.2735
X4.2846 Y1.7708
X4.2847 Y1.7707
X4.2954 Y1.7697
X4.2955 Y1.7696
X4.3058 Y1.7685
X4.3059
X4.3159 Y1.7674
X4.3256 Y1.7663
X4.335 Y1.7652
X4.344 Y1.7642
X4.3528 Y1.7633
X4.3612 Y1.7625
X4.3694 Y1.7618
X4.3774 Y1.7612
X4.3851 Y1.7608
X4.3925 Y1.7605
X4.3998
X4.4068 Y1.7606
X4.4136 Y1.761
X4.4203 Y1.7615
X4.4268 Y1.7624
X4.4332 Y1.7635
X4.4396 Y1.7649
X4.4458 Y1.7665
X4.452 Y1.7685
X4.4582 Y1.7708
X4.4644 Y1.7735
X4.4707 Y1.7766
X4.477 Y1.7801
X4.4835 Y1.784
X4.49 Y1.7883
X4.4965 Y1.7929
X4.5032 Y1.7978
X4.5098 Y1.803
X4.5165 Y1.8084
X4.5232 Y1.8141
X4.5299 Y1.8199
X4.5366 Y1.8258
X4.5432 Y1.8319
X4.5499 Y1.838
X4.5565 Y1.8442
X4.563 Y1.8503
X4.5695 Y1.8565
X4.576 Y1.8626
X4.5823 Y1.8685
X4.5824 Y1.8686
X4.5886 Y1.8744
X4.5887 Y1.8745
X4.5949 Y1.8801
Y1.8802
X4.6009 Y1.8856
X4.6012 Y1.8858
X4.6071 Y1.891
X4.6073 Y1.8912
X4.613 Y1.8961
X4.6134 Y1.8964
X4.6191 Y1.901
X4.6194 Y1.9012
X4.6248 Y1.9054
X4.6253 Y1.9058
X4.6307 Y1.9097
X4.6312 Y1.91
X4.6364 Y1.9135
X4.6369 Y1.9139
X4.642 Y1.917
X4.6426 Y1.9174
X4.6475 Y1.9202
X4.6482 Y1.9205
X4.6529 Y1.923
X4.6536 Y1.9233
X4.6581 Y1.9254
X4.6589 Y1.9258
X4.6633 Y1.9275
X4.6642 Y1.9279
X4.6684 Y1.9293
X4.6694 Y1.9296
X4.6733 Y1.9308
X4.6745 Y1.9311
X4.6782 Y1.9319
X4.6795 Y1.9321
X4.683 Y1.9326
X4.6843 Y1.9328
X4.6877 Y1.933
X4.6889 Y1.9331
X4.692
X4.6935
X4.6965 Y1.9329
X4.6981 Y1.9327
X4.7009 Y1.9322
X4.7028 Y1.9318
X4.7053 Y1.9311
X4.7073 Y1.9305
X4.7097 Y1.9295
X4.7116 Y1.9287
X4.7139 Y1.9274
X4.7158 Y1.9263
X4.7179 Y1.9248
X4.7194 Y1.9237
X4.7214 Y1.922
X4.7229 Y1.9205
X4.7248 Y1.9185
X4.7258 Y1.9175
X4.7276 Y1.9152
X4.7286 Y1.9139
X4.7303 Y1.9113
X4.731 Y1.9102
X4.7327 Y1.9073
X4.7332 Y1.9063
X4.7348 Y1.9031
X4.7353 Y1.902
X4.7368 Y1.8985
X4.7373 Y1.8972
X4.7385 Y1.8933
X4.7388 Y1.8925
X4.7399 Y1.8884
X4.7402 Y1.8873
X4.7411 Y1.8829
X4.7413 Y1.8819
X4.7421 Y1.8772
X4.7422 Y1.8765
X4.7428 Y1.8715
Y1.8707
X4.7432 Y1.8655
X4.7433 Y1.8648
X4.7435 Y1.8593
Y1.8585
X4.7434 Y1.8528
Y1.8522
X4.7432 Y1.8463
X4.7431 Y1.8456
X4.7427 Y1.8395
X4.7426 Y1.8389
X4.742 Y1.8326
X4.7419 Y1.8319
X4.7409 Y1.8253
X4.7408 Y1.8249
X4.7397 Y1.8182
X4.7396 Y1.8175
X4.7382 Y1.8106
X4.738 Y1.81
X4.7363 Y1.803
X4.7362 Y1.8025
X4.7343 Y1.7953
X4.7341 Y1.7948
X4.7319 Y1.7874
X4.7318 Y1.7869
X4.7293 Y1.7795
X4.7291 Y1.779
X4.7264 Y1.7714
X4.7262 Y1.7708
X4.7231 Y1.7631
X4.7229 Y1.7627
X4.7195 Y1.7549
X4.7193 Y1.7544
X4.7157 Y1.7465
X4.7154 Y1.7461
X4.7115 Y1.7381
X4.7112 Y1.7377
X4.7069 Y1.7296
X4.7067 Y1.7293
X4.7022 Y1.7211
X4.7019 Y1.7208
X4.6971 Y1.7126
X4.6969 Y1.7123
X4.6918 Y1.7041
X4.6916 Y1.7037
X4.6862 Y1.6955
X4.6859 Y1.6952
X4.6803 Y1.6869
X4.6801 Y1.6866
X4.6742 Y1.6783
X4.674 Y1.678
X4.6679 Y1.6697
X4.6677 Y1.6694
X4.6613 Y1.6611
X4.6611 Y1.6609
X4.6545 Y1.6526
X4.6543 Y1.6524
X4.6475 Y1.6441
X4.6473 Y1.6438
X4.6403 Y1.6356
X4.6401 Y1.6354
X4.6329 Y1.6272
X4.6327 Y1.6269
X4.6253 Y1.6188
X4.6251 Y1.6185
X4.6175 Y1.6104
X4.6173 Y1.6103
X4.6096 Y1.6022
X4.6094 Y1.602
X4.6015 Y1.5941
X4.6013 Y1.5939
X4.5933 Y1.586
X4.593 Y1.5858
X4.5848 Y1.578
X4.5846 Y1.5779
X4.5763 Y1.5702
X4.5761 Y1.57
X4.5676 Y1.5624
X4.5674 Y1.5623
X4.5588 Y1.5548
X4.5586 Y1.5546
X4.5499 Y1.5474
X4.5497 Y1.5472
X4.5409 Y1.5401
X4.5407 Y1.5399
X4.5318 Y1.5329
X4.5315 Y1.5327
X4.5224 Y1.5258
X4.5221 Y1.5256
X4.5129 Y1.5189
X4.5126 Y1.5187
X4.5031 Y1.5121
X4.5028 Y1.5119
X4.493 Y1.5055
X4.4927 Y1.5052
X4.4827 Y1.4989
X4.4823 Y1.4987
X4.472 Y1.4926
X4.4716 Y1.4923
X4.4609 Y1.4863
X4.4605 Y1.4861
X4.4495 Y1.4803
X4.4491 Y1.48
X4.4376 Y1.4743
X4.4372 Y1.4741
X4.4253 Y1.4685
X4.4249 Y1.4683
X4.4125 Y1.4629
X4.4121 Y1.4627
X4.3991 Y1.4574
X4.3987 Y1.4572
X4.3853 Y1.452
X4.3849 Y1.4519
X4.3708 Y1.4468
X4.3705 Y1.4467
X4.3558 Y1.4417
X4.3554 Y1.4416
X4.3401 Y1.4368
X4.3398 Y1.4366
X4.3238 Y1.4319
X4.3235 Y1.4318
X4.3067 Y1.4273
X4.3064 Y1.4272
X4.289 Y1.4227
X4.2887 Y1.4226
X4.2704 Y1.4183
X4.2701 Y1.4182
X4.2511 Y1.414
X4.2508 Y1.4139
X4.2309 Y1.4098
X4.2307
X4.2099 Y1.4058
X4.2096 Y1.4057
X4.188 Y1.4019
X4.1878 Y1.4018
X4.1654 Y1.3981
X4.1652
X4.1419 Y1.3945
X4.1418
X4.1178 Y1.391
X4.1176
X4.0929 Y1.3878
X4.0927 Y1.3877
X4.0673 Y1.3846
X4.0672
X4.0411 Y1.3817
X4.041
X4.0143 Y1.3789
X4.0141
X3.9869 Y1.3764
X3.9867
X3.9588 Y1.3741
X3.9587 Y1.374
X3.9303 Y1.3719
X3.9302
X3.9013 Y1.37
X3.9011
X3.8718 Y1.3683
X3.8716
X3.8418 Y1.3669
X3.8416
X3.8114 Y1.3657
X3.8112
X3.7806 Y1.3647
X3.7804
X3.7495 Y1.3641
X3.7493
X3.718 Y1.3636
X3.7178
X3.6863 Y1.3635
X3.6861
X3.6542 Y1.3636
X3.654
X3.622 Y1.3641
X3.6218
X3.5895 Y1.3648
X3.5893
X3.5568 Y1.3659
X3.5566
X3.524 Y1.3673
X3.5239
X3.4911 Y1.3689
X3.491
X3.4582 Y1.3709
X3.4581
X3.4254 Y1.3731
X3.4252
X3.3926 Y1.3755
X3.3925
X3.36 Y1.3781
X3.3599
X3.3276 Y1.3809
X3.3275
X3.2954 Y1.3839
X3.2953
X3.2636 Y1.3869
X3.2635 Y1.387
X3.2322 Y1.3902
X3.2321
X3.2012 Y1.3935
X3.2011
X3.1707 Y1.3968
X3.1408 Y1.4003
X3.1115 Y1.4037
X3.0829 Y1.4071
Y1.4072
X3.0551 Y1.4106
X3.028 Y1.4139
X3.0018 Y1.4173
X2.9765 Y1.4205
X2.9522 Y1.4236
X2.9289 Y1.4266
X2.9068 Y1.4294
X2.8858 Y1.432
X2.866 Y1.4345
X2.8475 Y1.4367
X2.8302 Y1.4387
X2.8141 Y1.4404
X2.7991 Y1.4419
X2.7852 Y1.4431
X2.7722 Y1.444
X2.7602 Y1.4447
X2.7491 Y1.4451
X2.7389 Y1.4452
X2.7294 Y1.4449
X2.7206 Y1.4444
X2.7125 Y1.4435
X2.7049 Y1.4423
X2.6979 Y1.4408
X2.6914 Y1.439
X2.6852 Y1.4369
X2.6794 Y1.4345
X2.6737 Y1.4318
X2.6683 Y1.4287
X2.6628 Y1.4252
X2.6574 Y1.4213
X2.652 Y1.417
X2.6464 Y1.4122
X2.6408 Y1.407
X2.6348 Y1.4012
X2.6287 Y1.3949
X2.6223 Y1.3883
X2.6157 Y1.3812
X2.6088 Y1.3738
X2.6017 Y1.3661
X2.5943 Y1.358
X2.5867 Y1.3497
X2.5788 Y1.3412
X2.5787 Y1.3411
X2.5706 Y1.3324
X2.5705 Y1.3323
X2.5621 Y1.3235
X2.562 Y1.3233
X2.5533 Y1.3144
X2.5531 Y1.3142
X2.5441 Y1.3051
X2.5439 Y1.3049
X2.5346 Y1.2958
X2.5344 Y1.2956
X2.5247 Y1.2863
X2.5245 Y1.2861
X2.5144 Y1.2768
X2.5142 Y1.2766
X2.5038 Y1.2673
X2.5035 Y1.2671
X2.4927 Y1.2578
X2.4925 Y1.2575
X2.4813 Y1.2483
X2.481 Y1.248
X2.4694 Y1.2388
X2.4691 Y1.2386
X2.4571 Y1.2295
X2.4567 Y1.2292
X2.4443 Y1.2202
X2.4439 Y1.22
X2.431 Y1.2111
X2.4306 Y1.2109
X2.4173 Y1.2022
X2.4169 Y1.2019
X2.403 Y1.1934
X2.4027 Y1.1932
X2.3884 Y1.1848
X2.388 Y1.1846
X2.3733 Y1.1765
X2.373 Y1.1763
X2.3579 Y1.1683
X2.3576 Y1.1682
X2.3421 Y1.1603
X2.3418 Y1.1602
X2.326 Y1.1525
X2.3258 Y1.1524
X2.3097 Y1.1449
X2.3095 Y1.1448
X2.2932 Y1.1374
X2.293
X2.2764 Y1.1301
X2.2762
X2.2595 Y1.123
X2.2594 Y1.1229
X2.2425 Y1.116
X2.2424
X2.2254 Y1.1092
X2.2253 Y1.1091
X2.2083 Y1.1025
X2.2081 Y1.1024
X2.1911 Y1.0959
X2.191
X2.1739 Y1.0895
X2.1738
X2.1568 Y1.0833
X2.1567 Y1.0832
X2.1398 Y1.0771
X2.1397
X2.1229 Y1.0711
X2.1228 Y1.071
X2.1061 Y1.0651
X2.0896 Y1.0593
X2.0733 Y1.0537
X2.0572 Y1.0481
X2.0415 Y1.0426
X2.026 Y1.0373
X2.011 Y1.032
X1.9963 Y1.0268
X1.9962
X1.9819 Y1.0218
X1.9818
X1.9678 Y1.017
X1.9676 Y1.0169
X1.9539 Y1.0123
X1.9538
X1.9403 Y1.0079
X1.9401 Y1.0078
X1.9269 Y1.0037
X1.9267
X1.9138 Y0.9998
X1.9134 Y0.9997
X1.9007 Y0.9962
X1.9004 Y0.9961
X1.8878 Y0.9929
X1.8874 Y0.9928
X1.8751 Y0.99
X1.8746 Y0.9898
X1.8624 Y0.9874
X1.8618 Y0.9873
X1.8497 Y0.9852
X1.8491 Y0.9851
X1.8371 Y0.9835
X1.8364 Y0.9834
X1.8245 Y0.9822
X1.8238
X1.8119 Y0.9815
X1.8111
X1.7993 Y0.9813
X1.7985
X1.7867 Y0.9816
X1.7858
X1.7739 Y0.9825
X1.7731 Y0.9826
X1.7612 Y0.9841
X1.7603 Y0.9842
X1.7483 Y0.9863
X1.7474 Y0.9864
X1.7354 Y0.9891
X1.7345 Y0.9894
X1.7224 Y0.9927
X1.7215 Y0.9929
X1.7092 Y0.997
X1.7084 Y0.9972
X1.6959 Y1.002
X1.6952 Y1.0022
X1.6825 Y1.0076
X1.6819 Y1.0079
X1.6691 Y1.0139
X1.6685 Y1.0142
X1.6556 Y1.0208
X1.6551 Y1.0211
X1.642 Y1.0282
X1.6416 Y1.0284
X1.6285 Y1.036
X1.6282 Y1.0362
X1.6149 Y1.0443
X1.6146 Y1.0444
X1.6014 Y1.0528
X1.6011 Y1.053
X1.5878 Y1.0617
X1.5876 Y1.0619
X1.5744 Y1.0708
X1.5742 Y1.071
X1.5609 Y1.0802
X1.5608 Y1.0803
X1.5475 Y1.0896
X1.5474 Y1.0897
X1.5343 Y1.0992
X1.5342
X1.5211 Y1.1088
X1.521
X1.508 Y1.1183
Y1.1184
X1.4951 Y1.1278
X1.4824 Y1.1372
X1.4699 Y1.1464
X1.4576 Y1.1554
X1.4455 Y1.1641
X1.4337 Y1.1725
X1.4222 Y1.1805
X1.411 Y1.188
X1.4002 Y1.1951
X1.3897 Y1.2016
X1.3795 Y1.2076
X1.3696 Y1.2132
X1.3601 Y1.2183
X1.3508 Y1.2229
X1.3419 Y1.2272
X1.3332 Y1.2311
X1.3248 Y1.2346
X1.3167 Y1.2378
X1.3088 Y1.2407
X1.3012 Y1.2434
X1.2939 Y1.2458
X1.2868 Y1.2479
X1.28 Y1.2499
X1.2733 Y1.2517
X1.2669 Y1.2534
X1.2607 Y1.2549
X1.2547 Y1.2563
X1.2489 Y1.2577
X1.2433 Y1.259
X1.2378 Y1.2602
X1.2377 Y1.2603
X1.2325 Y1.2615
X1.2323 Y1.2616
X1.2274 Y1.2628
X1.227 Y1.2629
X1.2223 Y1.2642
X1.2219 Y1.2643
X1.2174 Y1.2657
X1.217 Y1.2658
X1.2126 Y1.2672
X1.2122 Y1.2673
X1.208 Y1.2688
X1.2075 Y1.269
X1.2034 Y1.2706
X1.2029 Y1.2708
X1.199 Y1.2724
X1.1984 Y1.2727
X1.1946 Y1.2744
X1.194 Y1.2747
X1.1903 Y1.2766
X1.1897 Y1.2769
X1.1861 Y1.2788
X1.1855 Y1.2792
X1.182 Y1.2813
X1.1814 Y1.2817
X1.1779 Y1.2839
X1.1773 Y1.2843
X1.1739 Y1.2867
X1.1734 Y1.2871
X1.17 Y1.2896
X1.1695 Y1.29
X1.1661 Y1.2928
X1.1656 Y1.2931
X1.1622 Y1.296
X1.1618 Y1.2964
X1.1584 Y1.2995
X1.158 Y1.2999
X1.1546 Y1.3032
X1.1543 Y1.3035
X1.1508 Y1.307
X1.1505 Y1.3073
X1.147 Y1.3111
X1.1467 Y1.3113
X1.1431 Y1.3153
X1.1429 Y1.3155
X1.1392 Y1.3197
X1.139 Y1.32
X1.1352 Y1.3244
X1.1351 Y1.3246
X1.1312 Y1.3293
X1.1311 Y1.3295
X1.127 Y1.3345
X1.1269 Y1.3346
X1.1228 Y1.3399
X1.1227 Y1.34
X1.1184 Y1.3456
X1.1183 Y1.3457
X1.1139 Y1.3515
X1.1138 Y1.3516
X1.1093 Y1.3576
X1.1092 Y1.3577
X1.1047 Y1.3639
X1.1046 Y1.364
X1.0999 Y1.3703
Y1.3704
X1.0952 Y1.3769
X1.0951 Y1.377
X1.0904 Y1.3836
X1.0903 Y1.3837
X1.0855 Y1.3904
Y1.3905
X1.0807 Y1.3972
Y1.3973
X1.0759 Y1.4041
Y1.4042
X1.0711 Y1.411
X1.0664 Y1.4178
X1.0617 Y1.4247
X1.0571 Y1.4314
X1.0526 Y1.438
X1.0482 Y1.4445
X1.0439 Y1.4509
X1.0397 Y1.4571
X1.0357 Y1.463
X1.0319 Y1.4688
X1.0282 Y1.4743
X1.0247 Y1.4794
X1.0215 Y1.4843
X1.0184 Y1.4889
X1.0157 Y1.4931
X1.0131 Y1.4969
X1.0108 Y1.5004
X1.0107 Y1.5005
X1.0086 Y1.5037
X1.0067 Y1.5066
Y1.5067
X1.005 Y1.5093
X1.0049 Y1.5094
X1.0034 Y1.5118
X1.0033 Y1.512
X1.0019 Y1.5141
X1.0018 Y1.5143
X1.0006 Y1.5163
X1.0004 Y1.5167
X0.9993 Y1.5185
X0.9991 Y1.5189
X0.9982 Y1.5206
X0.9979 Y1.5211
X0.9971 Y1.5227
X0.9968 Y1.5232
X0.9961 Y1.5247
X0.9958 Y1.5254
X0.9952 Y1.5269
X0.9949 Y1.5276
X0.9944 Y1.5291
X0.9941 Y1.5298
X0.9936 Y1.5313
X0.9934 Y1.532
X0.993 Y1.5336
X0.9928 Y1.5341
X0.9924 Y1.5358
X0.9923 Y1.5362
X0.9919 Y1.5379
X0.9918 Y1.5383
X0.9914 Y1.5402
Y1.5404
X0.991 Y1.5425
Y1.5426
X0.9906 Y1.5449
X0.9901 Y1.5474
X0.9896 Y1.5501
X0.989 Y1.5531
Y1.5532
X0.9884 Y1.5564
Y1.5565
X0.9878 Y1.5599
Y1.56
X0.9872 Y1.5637
X0.9871 Y1.5638
X0.9865 Y1.5676
Y1.5677
X0.9859 Y1.5716
Y1.5718
X0.9852 Y1.5759
Y1.576
X0.9846 Y1.5803
Y1.5804
X0.984 Y1.5848
Y1.585
X0.9835 Y1.5894
X0.9834 Y1.5896
X0.9829 Y1.5941
Y1.5944
X0.9825 Y1.5989
Y1.5992
X0.9821 Y1.6038
Y1.6041
X0.9817 Y1.6088
Y1.6091
X0.9815 Y1.6138
Y1.6141
X0.9813 Y1.6188
Y1.6192
Y1.6239
Y1.6242
Y1.6289
Y1.6294
X0.9814 Y1.634
X0.9815 Y1.6345
X0.9817 Y1.6391
X0.9818 Y1.6396
X0.9822 Y1.6441
Y1.6447
X0.9828 Y1.6491
Y1.6495
X0.9827 Y1.6507
X0.9822 Y1.6518
X0.9813 Y1.6526
X0.9802 Y1.653
X0.9771 Y1.6535
X0.9759 Y1.6537 Z0.0177
X0.9749 Y1.6538 Z0.0184
X0.9742 Y1.6539 Z0.0194
X0.974 Z0.0206
G0 Z0.2625
X0.9731 Y1.6477
G1 Z0.0719 F1.8
Z0.0119
X0.9733 Z0.0107 F14.2
X0.974 Y1.6476 Z0.0097
X0.975 Y1.6475 Z0.009
X0.9762 Y1.6473 Z0.0087
X0.9793 Y1.6469
X0.9805
X0.9816 Y1.6475
X0.9824 Y1.6484
X0.9828 Y1.6495
Y1.6497
X0.9835 Y1.6541
X0.9836 Y1.6548
X0.9844 Y1.659
X0.9846 Y1.6598
X0.9856 Y1.6639
X0.9858 Y1.6646
X0.9869 Y1.6687
X0.9872 Y1.6694
X0.9885 Y1.6735
X0.9887 Y1.6741
X0.9902 Y1.6781
X0.9904 Y1.6788
X0.9921 Y1.6828
X0.9923 Y1.6833
X0.9941 Y1.6874
X0.9943 Y1.6879
X0.9963 Y1.6919
X0.9965 Y1.6924
X0.9986 Y1.6965
X0.9988 Y1.6969
X1.0011 Y1.7011
X1.0013 Y1.7014
X1.0037 Y1.7057
X1.0039 Y1.706
X1.0065 Y1.7105
X1.0066 Y1.7107
X1.0094 Y1.7152
Y1.7154
X1.0124 Y1.7201
Y1.7202
X1.0155 Y1.7252
X1.0187 Y1.7304
X1.0221 Y1.7358
X1.0256 Y1.7414
X1.0293 Y1.7472
X1.033 Y1.7533
X1.037 Y1.7596
X1.041 Y1.7663
X1.0452 Y1.7732
X1.0495 Y1.7806
X1.0539 Y1.7883
X1.0585 Y1.7963
X1.0632 Y1.8048
X1.068 Y1.8135
X1.073 Y1.8226
X1.0781 Y1.832
X1.0834 Y1.8416
X1.0888 Y1.8516
X1.0943 Y1.8617
X1.0944 Y1.8618
X1.1 Y1.8721
X1.1001 Y1.8722
X1.1059 Y1.8827
X1.106 Y1.8828
X1.112 Y1.8935
Y1.8936
X1.1182 Y1.9045
Y1.9046
X1.1245 Y1.9156
X1.1246 Y1.9157
X1.1311 Y1.9268
X1.1312 Y1.927
X1.1379 Y1.9382
X1.138 Y1.9384
X1.1448 Y1.9497
X1.1449 Y1.9499
X1.152 Y1.9613
X1.1521 Y1.9614
X1.1593 Y1.9729
X1.1594 Y1.9731
X1.1669 Y1.9846
X1.167 Y1.9848
X1.1747 Y1.9963
X1.1748 Y1.9965
X1.1826 Y2.0081
X1.1828 Y2.0083
X1.1909 Y2.0198
X1.191 Y2.02
X1.1993 Y2.0315
X1.1995 Y2.0317
X1.208 Y2.0432
X1.2082 Y2.0434
X1.2169 Y2.0548
X1.2171 Y2.055
X1.226 Y2.0663
X1.2261 Y2.0665
X1.2352 Y2.0777
X1.2354 Y2.0779
X1.2446 Y2.089
X1.2447 Y2.0891
X1.2541 Y2.1001
X1.2542 Y2.1002
X1.2636 Y2.1112
X1.2637 Y2.1113
X1.2732 Y2.1221
X1.2733 Y2.1222
X1.2828 Y2.1329
X1.2829 Y2.133
X1.2924 Y2.1437
X1.302 Y2.1543
X1.3115 Y2.1648
X1.3209 Y2.1753
X1.3302 Y2.1856
X1.3393 Y2.1959
X1.3483 Y2.2061
X1.3571 Y2.2162
X1.3657 Y2.2262
X1.3741 Y2.2362
X1.3821 Y2.246
X1.3899 Y2.2558
X1.3974 Y2.2655
X1.4045 Y2.2751
X1.4112 Y2.2846
X1.4175 Y2.2941
X1.4235 Y2.3034
X1.429 Y2.3128
X1.4342 Y2.322
X1.4391 Y2.3312
X1.4436 Y2.3403
X1.4479 Y2.3493
X1.4519 Y2.3582
X1.4557 Y2.3669
X1.4593 Y2.3756
X1.4626 Y2.3842
X1.4658 Y2.3926
X1.4689 Y2.4009
X1.4718 Y2.4091
X1.4746 Y2.4171
X1.4774 Y2.4249
X1.4801 Y2.4326
X1.4828 Y2.4401
Y2.4402
X1.4854 Y2.4474
X1.4855 Y2.4476
X1.4881 Y2.4545
X1.4882 Y2.4548
X1.4909 Y2.4614
X1.491 Y2.4618
X1.4937 Y2.4682
X1.4939 Y2.4686
X1.4967 Y2.4748
X1.4969 Y2.4753
X1.4998 Y2.4811
X1.5001 Y2.4818
X1.5031 Y2.4873
X1.5035 Y2.4879
X1.5066 Y2.4932
X1.507 Y2.4939
X1.5102 Y2.4988
X1.5107 Y2.4995
X1.5141 Y2.5042
X1.5146 Y2.5049
X1.5181 Y2.5094
X1.5186 Y2.51
X1.5223 Y2.5143
X1.5229 Y2.5149
X1.5267 Y2.519
X1.5273 Y2.5196
X1.5312 Y2.5234
X1.5319 Y2.524
X1.536 Y2.5276
X1.5366 Y2.5281
X1.5408 Y2.5315
X1.5415 Y2.532
X1.5458 Y2.5352
X1.5465 Y2.5357
X1.551 Y2.5386
X1.5517 Y2.5391
X1.5563 Y2.5418
X1.557 Y2.5423
X1.5618 Y2.5448
X1.5625 Y2.5452
X1.5673 Y2.5476
X1.568 Y2.5479
X1.573 Y2.5501
X1.5737 Y2.5504
X1.5788 Y2.5524
X1.5795 Y2.5526
X1.5847 Y2.5545
X1.5853 Y2.5547
X1.5907 Y2.5564
X1.5913 Y2.5566
X1.5968 Y2.5581
X1.5974 Y2.5582
X1.603 Y2.5596
X1.6035 Y2.5597
X1.6093 Y2.5609
X1.6098 Y2.561
X1.6157 Y2.5621
X1.6162 Y2.5622
X1.6221 Y2.5631
X1.6226 Y2.5632
X1.6287 Y2.564
X1.6292
X1.6354 Y2.5647
X1.6358
X1.6422 Y2.5653
X1.6425
X1.649 Y2.5658
X1.6492
X1.6559 Y2.5662
X1.656
X1.6628 Y2.5665
X1.6697 Y2.5669
X1.6766 Y2.5672
X1.6836 Y2.5676
X1.6906 Y2.5681
X1.6977 Y2.5687
X1.7047 Y2.5694
X1.7118 Y2.5702
X1.7189 Y2.5712
X1.726 Y2.5724
X1.7332 Y2.5738
X1.7403 Y2.5755
X1.7474 Y2.5774
X1.7546 Y2.5796
X1.7617 Y2.5822
X1.7689 Y2.585
X1.7761 Y2.5882
X1.7832 Y2.5919
X1.7904 Y2.5959
X1.7977 Y2.6004
X1.8049 Y2.6054
X1.8122 Y2.6109
X1.8195 Y2.6168
X1.8269 Y2.6232
X1.8342 Y2.63
X1.8415 Y2.6372
X1.8489 Y2.6447
X1.8562 Y2.6526
X1.8635 Y2.6609
X1.8707 Y2.6694
X1.8779 Y2.6783
X1.8851 Y2.6874
X1.8922 Y2.6967
X1.8993 Y2.7063
X1.9064 Y2.7161
X1.9134 Y2.726
X1.9203 Y2.7361
X1.9271 Y2.7463
X1.9339 Y2.7567
X1.9407 Y2.7671
X1.9473 Y2.7776
X1.9539 Y2.7881
X1.9604 Y2.7987
X1.9669 Y2.8093
X1.9732 Y2.8198
X1.9795 Y2.8303
X1.9856 Y2.8408
X1.9917 Y2.8512
X1.9977 Y2.8616
X2.0037 Y2.872
X2.0096 Y2.8824
X2.0154 Y2.8927
X2.0211 Y2.903
X2.0268 Y2.9132
X2.0324 Y2.9234
X2.038 Y2.9336
X2.0436 Y2.9437
X2.0491 Y2.9538
X2.0545 Y2.9638
X2.06 Y2.9738
X2.0654 Y2.9837
X2.0707 Y2.9936
X2.0761 Y3.0035
X2.0814 Y3.0133
X2.0867 Y3.023
X2.092 Y3.0327
X2.0973 Y3.0424
X2.1026 Y3.052
X2.1079 Y3.0615
X2.1132 Y3.071
X2.1185 Y3.0803
Y3.0804
X2.1238 Y3.0896
Y3.0897
X2.1291 Y3.0988
Y3.0989
X2.1344 Y3.1079
Y3.108
X2.1397 Y3.1169
X2.1398 Y3.117
X2.145 Y3.1257
X2.1451 Y3.1258
X2.1503 Y3.1343
X2.1504 Y3.1345
X2.1557 Y3.1428
X2.1558 Y3.143
X2.161 Y3.1512
X2.1611 Y3.1513
X2.1663 Y3.1593
X2.1664 Y3.1595
X2.1717 Y3.1672
X2.1718 Y3.1674
X2.177 Y3.175
X2.1772 Y3.1752
X2.1824 Y3.1825
X2.1825 Y3.1827
X2.1877 Y3.1898
X2.1879 Y3.19
X2.1931 Y3.1968
X2.1933 Y3.1971
X2.1985 Y3.2036
X2.1987 Y3.2039
X2.2039 Y3.2101
X2.2042 Y3.2104
X2.2093 Y3.2163
X2.2096 Y3.2167
X2.2148 Y3.2223
X2.2151 Y3.2227
X2.2202 Y3.2279
X2.2207 Y3.2284
X2.2258 Y3.2333
X2.2263 Y3.2337
X2.2313 Y3.2383
X2.2319 Y3.2388
X2.237 Y3.243
X2.2376 Y3.2435
X2.2427 Y3.2474
X2.2434 Y3.2479
X2.2485 Y3.2514
X2.2492 Y3.2519
X2.2543 Y3.255
X2.2552 Y3.2555
X2.2603 Y3.2583
X2.2612 Y3.2588
X2.2663 Y3.2613
X2.2672 Y3.2617
X2.2724 Y3.2638
X2.2734 Y3.2642
X2.2786 Y3.266
X2.2798 Y3.2664
X2.285 Y3.2678
X2.2861 Y3.2681
X2.2914 Y3.2693
X2.2926 Y3.2695
X2.298 Y3.2703
X2.2992 Y3.2704
X2.3047 Y3.2708
X2.3059 Y3.2709
X2.3114
X2.3126
X2.3182 Y3.2706
X2.3194 Y3.2705
X2.325 Y3.2698
X2.3262 Y3.2697
X2.3319 Y3.2686
X2.333 Y3.2684
X2.3389 Y3.267
X2.3399 Y3.2667
X2.3458 Y3.2649
X2.3468 Y3.2646
X2.3528 Y3.2624
X2.3537 Y3.2621
X2.3599 Y3.2595
X2.3606 Y3.2591
X2.367 Y3.2561
X2.3677 Y3.2558
X2.3741 Y3.2524
X2.3748 Y3.252
X2.3813 Y3.2483
X2.3819 Y3.2479
X2.3887 Y3.2437
X2.3892 Y3.2434
X2.3961 Y3.2387
X2.3965 Y3.2384
X2.4037 Y3.2334
X2.404 Y3.2331
X2.4113 Y3.2277
X2.4116 Y3.2275
X2.419 Y3.2217
X2.4193 Y3.2215
X2.4268 Y3.2154
X2.427 Y3.2153
X2.4347 Y3.2089
X2.4349 Y3.2088
X2.4426 Y3.2022
X2.4427 Y3.202
X2.4505 Y3.1952
X2.4507 Y3.1951
X2.4585 Y3.1881
X2.4587 Y3.188
X2.4665 Y3.1809
X2.4666 Y3.1808
X2.4746 Y3.1736
Y3.1735
X2.4825 Y3.1662
X2.4826 Y3.1661
X2.4905 Y3.1587
X2.4984 Y3.1513
Y3.1512
X2.5062 Y3.1438
X2.514 Y3.1365
X2.5216 Y3.1292
X2.5292 Y3.122
X2.5366 Y3.115
X2.5438 Y3.1082
X2.5508 Y3.1015
X2.5577 Y3.0952
X2.5643 Y3.0891
X2.5708 Y3.0833
X2.5769 Y3.0779
X2.5828 Y3.0728
X2.5886 Y3.068
X2.5942 Y3.0635
X2.5997 Y3.0593
X2.6051 Y3.0553
X2.6105 Y3.0515
X2.6158 Y3.0479
X2.6212 Y3.0445
X2.6266 Y3.0413
X2.6321 Y3.0382
X2.6377 Y3.0352
X2.6435 Y3.0323
X2.6496 Y3.0294
X2.6559 Y3.0266
X2.6624 Y3.0238
X2.6693 Y3.0211
X2.6765 Y3.0183
X2.6841 Y3.0155
X2.6921 Y3.0127
X2.7006 Y3.0098
X2.7095 Y3.0069
X2.7189 Y3.0039
X2.7289 Y3.0007
X2.7394 Y2.9975
X2.7505 Y2.9941
X2.762 Y2.9905
X2.7739 Y2.9869
X2.7862 Y2.9832
X2.7988 Y2.9793
X2.8117 Y2.9754
X2.8248 Y2.9714
X2.8249
X2.8381 Y2.9673
Y2.9672
X2.8515 Y2.9631
X2.8649 Y2.9588
X2.865
X2.8783 Y2.9545
X2.8784
X2.8917 Y2.9501
X2.8918
X2.9051 Y2.9457
X2.9052
X2.9182 Y2.9413
X2.9184 Y2.9412
X2.9312 Y2.9367
X2.9314
X2.944 Y2.9322
X2.9441 Y2.9321
X2.9564 Y2.9276
X2.9566
X2.9686 Y2.923
X2.9688 Y2.9229
X2.9803 Y2.9184
X2.9806 Y2.9183
X2.9917 Y2.9138
X2.992 Y2.9136
X3.0025 Y2.9091
X3.0029 Y2.909
X3.0129 Y2.9044
X3.0133 Y2.9043
X3.0227 Y2.8998
X3.0231 Y2.8995
X3.0319 Y2.8951
X3.0324 Y2.8948
X3.0405 Y2.8903
X3.041 Y2.89
X3.0485 Y2.8856
X3.0491 Y2.8852
X3.056 Y2.8807
X3.0566 Y2.8803
X3.063 Y2.8759
X3.0636 Y2.8753
X3.0694 Y2.8709
X3.0701 Y2.8703
X3.0754 Y2.8658
X3.0761 Y2.8651
X3.0809 Y2.8605
X3.0816 Y2.8598
X3.086 Y2.8552
X3.0867 Y2.8544
X3.0906 Y2.8496
X3.0913 Y2.8487
X3.0949 Y2.8439
X3.0956 Y2.8429
X3.0987 Y2.8379
X3.0993 Y2.8369
X3.1021 Y2.8318
X3.1027 Y2.8308
X3.1052 Y2.8255
X3.1056 Y2.8245
X3.1078 Y2.819
X3.1082 Y2.818
X3.1101 Y2.8123
X3.1104 Y2.8114
X3.1121 Y2.8055
X3.1123 Y2.8046
X3.1137 Y2.7984
X3.1138 Y2.7977
X3.115 Y2.7912
X3.1152 Y2.7906
X3.1162 Y2.7838
Y2.7832
X3.1171 Y2.7762
Y2.7757
X3.1178 Y2.7683
X3.1179 Y2.7679
X3.1184 Y2.7602
Y2.7598
X3.1189 Y2.7517
Y2.7515
X3.1193 Y2.7429
Y2.7427
X3.1195 Y2.7339
Y2.7337
X3.1198 Y2.7246
Y2.7245
X3.1199 Y2.7151
X3.1201 Y2.7054
X3.1203 Y2.6956
X3.1206 Y2.6858
X3.1209 Y2.6758
X3.1214 Y2.6658
X3.1219 Y2.6557
X3.1227 Y2.6457
X3.1236 Y2.6357
X3.1248 Y2.6258
X3.1262 Y2.6161
X3.1278 Y2.6065
X3.1298 Y2.5971
X3.1321 Y2.5879
X3.1346 Y2.579
X3.1376 Y2.5704
X3.1409 Y2.5621
X3.1446 Y2.5542
X3.1487 Y2.5466
X3.1532 Y2.5395
X3.1582 Y2.5327
X3.1636 Y2.5264
X3.1695 Y2.5204
X3.1759 Y2.5147
X3.1829 Y2.5093
X3.1904 Y2.5041
X3.1984 Y2.4991
X3.2069 Y2.4942
X3.2158 Y2.4894
X3.2253 Y2.4847
X3.2352 Y2.48
X3.2456 Y2.4754
X3.2564 Y2.4707
X3.2677 Y2.4659
X3.2793 Y2.461
X3.2914 Y2.4559
X3.3038 Y2.4506
X3.3039
X3.3166 Y2.4451
X3.3168 Y2.445
X3.3298 Y2.4393
X3.33 Y2.4392
X3.3433 Y2.4331
X3.3435 Y2.433
X3.3571 Y2.4266
X3.3574 Y2.4264
X3.3712 Y2.4196
X3.3716 Y2.4194
X3.3857 Y2.4121
X3.386 Y2.4119
X3.4004 Y2.4041
X3.4008 Y2.4039
X3.4155 Y2.3955
X3.4158 Y2.3953
X3.4307 Y2.3863
X3.4311 Y2.3861
X3.4462 Y2.3766
X3.4465 Y2.3764
X3.4618 Y2.3663
X3.4621 Y2.3661
X3.4776 Y2.3555
X3.4779 Y2.3553
X3.4935 Y2.3443
X3.4938 Y2.3441
X3.5095 Y2.3326
X3.5097 Y2.3324
X3.5255 Y2.3205
X3.5257 Y2.3203
X3.5416 Y2.308
X3.5418 Y2.3079
X3.5576 Y2.2953
X3.5578 Y2.2951
X3.5736 Y2.2822
X3.5738 Y2.282
X3.5895 Y2.2688
X3.5897 Y2.2686
X3.6053 Y2.2552
X3.6055 Y2.255
X3.621 Y2.2414
X3.6211 Y2.2412
X3.6364 Y2.2274
X3.6366 Y2.2272
X3.6517 Y2.2132
X3.6519 Y2.2131
X3.6668 Y2.199
X3.6669 Y2.1988
X3.6816 Y2.1846
X3.6817 Y2.1845
X3.696 Y2.1702
X3.6962 Y2.1701
X3.7102 Y2.1558
X3.7103 Y2.1557
X3.724 Y2.1414
X3.7241 Y2.1413
X3.7373 Y2.1271
X3.7375 Y2.1269
X3.7503 Y2.1128
X3.7505 Y2.1126
X3.7628 Y2.0987
X3.7629 Y2.0985
X3.7747 Y2.0846
X3.7749 Y2.0844
X3.7862 Y2.0708
X3.7864 Y2.0706
X3.7972 Y2.0571
X3.7974 Y2.0569
X3.8077 Y2.0436
X3.8079 Y2.0434
X3.8178 Y2.0303
X3.8179 Y2.0302
X3.8275 Y2.0173
X3.8276 Y2.0172
X3.8369 Y2.0045
X3.837 Y2.0044
X3.846 Y1.992
Y1.9919
X3.8548 Y1.9797
X3.8634 Y1.9678
X3.8718 Y1.9562
X3.88 Y1.9449
X3.8882 Y1.9339
X3.8963 Y1.9233
X3.9043 Y1.9131
X3.9124 Y1.9032
X3.9205 Y1.8937
X3.9287 Y1.8847
X3.937 Y1.876
X3.9455 Y1.8677
X3.9541 Y1.8599
X3.9631 Y1.8525
X3.9722 Y1.8455
X3.9818 Y1.8389
X3.9917 Y1.8327
X4.002 Y1.8269
X4.0128 Y1.8216
X4.0239 Y1.8166
X4.0354 Y1.812
X4.0471 Y1.8078
X4.0592 Y1.8039
X4.0715 Y1.8004
X4.084 Y1.7971
X4.0967 Y1.7941
X4.1096 Y1.7914
X4.1225 Y1.789
X4.1355 Y1.7868
X4.1486 Y1.7848
X4.1617 Y1.783
X4.1747 Y1.7813
X4.1876 Y1.7799
X4.2004 Y1.7785
X4.2132 Y1.7772
X4.2257 Y1.7761
X4.238 Y1.775
X4.2501 Y1.7739
X4.2619 Y1.7729
X4.262
X4.2734 Y1.7718
X4.2735
X4.2846 Y1.7708
X4.2847 Y1.7707
X4.2954 Y1.7697
X4.2955 Y1.7696
X4.3058 Y1.7685
X4.3059
X4.3159 Y1.7674
X4.3256 Y1.7663
X4.335 Y1.7652
X4.344 Y1.7642
X4.3528 Y1.7633
X4.3612 Y1.7625
X4.3694 Y1.7618
X4.3774 Y1.7612
X4.3851 Y1.7608
X4.3925 Y1.7605
X4.3998
X4.4068 Y1.7606
X4.4136 Y1.761
X4.4203 Y1.7615
X4.4268 Y1.7624
X4.4332 Y1.7635
X4.4396 Y1.7649
X4.4458 Y1.7665
X4.452 Y1.7685
X4.4582 Y1.7708
X4.4644 Y1.7735
X4.4707 Y1.7766
X4.477 Y1.7801
X4.4835 Y1.784
X4.49 Y1.7883
X4.4965 Y1.7929
X4.5032 Y1.7978
X4.5098 Y1.803
X4.5165 Y1.8084
X4.5232 Y1.8141
X4.5299 Y1.8199
X4.5366 Y1.8258
X4.5432 Y1.8319
X4.5499 Y1.838
X4.5565 Y1.8442
X4.563 Y1.8503
X4.5695 Y1.8565
X4.576 Y1.8626
X4.5823 Y1.8685
X4.5824 Y1.8686
X4.5886 Y1.8744
X4.5887 Y1.8745
X4.5949 Y1.8801
Y1.8802
X4.6009 Y1.8856
X4.6012 Y1.8858
X4.6071 Y1.891
X4.6073 Y1.8912
X4.613 Y1.8961
X4.6134 Y1.8964
X4.6191 Y1.901
X4.6194 Y1.9012
X4.6248 Y1.9054
X4.6253 Y1.9058
X4.6307 Y1.9097
X4.6312 Y1.91
X4.6364 Y1.9135
X4.6369 Y1.9139
X4.642 Y1.917
X4.6426 Y1.9174
X4.6475 Y1.9202
X4.6482 Y1.9205
X4.6529 Y1.923
X4.6536 Y1.9233
X4.6581 Y1.9254
X4.6589 Y1.9258
X4.6633 Y1.9275
X4.6642 Y1.9279
X4.6684 Y1.9293
X4.6694 Y1.9296
X4.6733 Y1.9308
X4.6745 Y1.9311
X4.6782 Y1.9319
X4.6795 Y1.9321
X4.683 Y1.9326
X4.6843 Y1.9328
X4.6877 Y1.933
X4.6889 Y1.9331
X4.692
X4.6935
X4.6965 Y1.9329
X4.6981 Y1.9327
X4.7009 Y1.9322
X4.7028 Y1.9318
X4.7053 Y1.9311
X4.7073 Y1.9305
X4.7097 Y1.9295
X4.7116 Y1.9287
X4.7139 Y1.9274
X4.7158 Y1.9263
X4.7179 Y1.9248
X4.7194 Y1.9237
X4.7214 Y1.922
X4.7229 Y1.9205
X4.7248 Y1.9185
X4.7258 Y1.9175
X4.7276 Y1.9152
X4.7286 Y1.9139
X4.7303 Y1.9113
X4.731 Y1.9102
X4.7327 Y1.9073
X4.7332 Y1.9063
X4.7348 Y1.9031
X4.7353 Y1.902
X4.7368 Y1.8985
X4.7373 Y1.8972
X4.7385 Y1.8933
X4.7388 Y1.8925
X4.7399 Y1.8884
X4.7402 Y1.8873
X4.7411 Y1.8829
X4.7413 Y1.8819
X4.7421 Y1.8772
X4.7422 Y1.8765
X4.7428 Y1.8715
Y1.8707
X4.7432 Y1.8655
X4.7433 Y1.8648
X4.7435 Y1.8593
Y1.8585
X4.7434 Y1.8528
Y1.8522
X4.7432 Y1.8463
X4.7431 Y1.8456
X4.7427 Y1.8395
X4.7426 Y1.8389
X4.742 Y1.8326
X4.7419 Y1.8319
X4.7409 Y1.8253
X4.7408 Y1.8249
X4.7397 Y1.8182
X4.7396 Y1.8175
X4.7382 Y1.8106
X4.738 Y1.81
X4.7363 Y1.803
X4.7362 Y1.8025
X4.7343 Y1.7953
X4.7341 Y1.7948
X4.7319 Y1.7874
X4.7318 Y1.7869
X4.7293 Y1.7795
X4.7291 Y1.779
X4.7264 Y1.7714
X4.7262 Y1.7708
X4.7231 Y1.7631
X4.7229 Y1.7627
X4.7195 Y1.7549
X4.7193 Y1.7544
X4.7157 Y1.7465
X4.7154 Y1.7461
X4.7115 Y1.7381
X4.7112 Y1.7377
X4.7069 Y1.7296
X4.7067 Y1.7293
X4.7022 Y1.7211
X4.7019 Y1.7208
X4.6971 Y1.7126
X4.6969 Y1.7123
X4.6918 Y1.7041
X4.6916 Y1.7037
X4.6862 Y1.6955
X4.6859 Y1.6952
X4.6803 Y1.6869
X4.6801 Y1.6866
X4.6742 Y1.6783
X4.674 Y1.678
X4.6679 Y1.6697
X4.6677 Y1.6694
X4.6613 Y1.6611
X4.6611 Y1.6609
X4.6545 Y1.6526
X4.6543 Y1.6524
X4.6475 Y1.6441
X4.6473 Y1.6438
X4.6403 Y1.6356
X4.6401 Y1.6354
X4.6329 Y1.6272
X4.6327 Y1.6269
X4.6253 Y1.6188
X4.6251 Y1.6185
X4.6175 Y1.6104
X4.6173 Y1.6103
X4.6096 Y1.6022
X4.6094 Y1.602
X4.6015 Y1.5941
X4.6013 Y1.5939
X4.5933 Y1.586
X4.593 Y1.5858
X4.5848 Y1.578
X4.5846 Y1.5779
X4.5763 Y1.5702
X4.5761 Y1.57
X4.5676 Y1.5624
X4.5674 Y1.5623
X4.5588 Y1.5548
X4.5586 Y1.5546
X4.5499 Y1.5474
X4.5497 Y1.5472
X4.5409 Y1.5401
X4.5407 Y1.5399
X4.5318 Y1.5329
X4.5315 Y1.5327
X4.5224 Y1.5258
X4.5221 Y1.5256
X4.5129 Y1.5189
X4.5126 Y1.5187
X4.5031 Y1.5121
X4.5028 Y1.5119
X4.493 Y1.5055
X4.4927 Y1.5052
X4.4827 Y1.4989
X4.4823 Y1.4987
X4.472 Y1.4926
X4.4716 Y1.4923
X4.4609 Y1.4863
X4.4605 Y1.4861
X4.4495 Y1.4803
X4.4491 Y1.48
X4.4376 Y1.4743
X4.4372 Y1.4741
X4.4253 Y1.4685
X4.4249 Y1.4683
X4.4125 Y1.4629
X4.4121 Y1.4627
X4.3991 Y1.4574
X4.3987 Y1.4572
X4.3853 Y1.452
X4.3849 Y1.4519
X4.3708 Y1.4468
X4.3705 Y1.4467
X4.3558 Y1.4417
X4.3554 Y1.4416
X4.3401 Y1.4368
X4.3398 Y1.4366
X4.3238 Y1.4319
X4.3235 Y1.4318
X4.3067 Y1.4273
X4.3064 Y1.4272
X4.289 Y1.4227
X4.2887 Y1.4226
X4.2704 Y1.4183
X4.2701 Y1.4182
X4.2511 Y1.414
X4.2508 Y1.4139
X4.2309 Y1.4098
X4.2307
X4.2099 Y1.4058
X4.2096 Y1.4057
X4.188 Y1.4019
X4.1878 Y1.4018
X4.1654 Y1.3981
X4.1652
X4.1419 Y1.3945
X4.1418
X4.1178 Y1.391
X4.1176
X4.0929 Y1.3878
X4.0927 Y1.3877
X4.0673 Y1.3846
X4.0672
X4.0411 Y1.3817
X4.041
X4.0143 Y1.3789
X4.0141
X3.9869 Y1.3764
X3.9867
X3.9588 Y1.3741
X3.9587 Y1.374
X3.9303 Y1.3719
X3.9302
X3.9013 Y1.37
X3.9011
X3.8718 Y1.3683
X3.8716
X3.8418 Y1.3669
X3.8416
X3.8114 Y1.3657
X3.8112
X3.7806 Y1.3647
X3.7804
X3.7495 Y1.3641
X3.7493
X3.718 Y1.3636
X3.7178
X3.6863 Y1.3635
X3.6861
X3.6542 Y1.3636
X3.654
X3.622 Y1.3641
X3.6218
X3.5895 Y1.3648
X3.5893
X3.5568 Y1.3659
X3.5566
X3.524 Y1.3673
X3.5239
X3.4911 Y1.3689
X3.491
X3.4582 Y1.3709
X3.4581
X3.4254 Y1.3731
X3.4252
X3.3926 Y1.3755
X3.3925
X3.36 Y1.3781
X3.3599
X3.3276 Y1.3809
X3.3275
X3.2954 Y1.3839
X3.2953
X3.2636 Y1.3869
X3.2635 Y1.387
X3.2322 Y1.3902
X3.2321
X3.2012 Y1.3935
X3.2011
X3.1707 Y1.3968
X3.1408 Y1.4003
X3.1115 Y1.4037
X3.0829 Y1.4071
Y1.4072
X3.0551 Y1.4106
X3.028 Y1.4139
X3.0018 Y1.4173
X2.9765 Y1.4205
X2.9522 Y1.4236
X2.9289 Y1.4266
X2.9068 Y1.4294
X2.8858 Y1.432
X2.866 Y1.4345
X2.8475 Y1.4367
X2.8302 Y1.4387
X2.8141 Y1.4404
X2.7991 Y1.4419
X2.7852 Y1.4431
X2.7722 Y1.444
X2.7602 Y1.4447
X2.7491 Y1.4451
X2.7389 Y1.4452
X2.7294 Y1.4449
X2.7206 Y1.4444
X2.7125 Y1.4435
X2.7049 Y1.4423
X2.6979 Y1.4408
X2.6914 Y1.439
X2.6852 Y1.4369
X2.6794 Y1.4345
X2.6737 Y1.4318
X2.6683 Y1.4287
X2.6628 Y1.4252
X2.6574 Y1.4213
X2.652 Y1.417
X2.6464 Y1.4122
X2.6408 Y1.407
X2.6348 Y1.4012
X2.6287 Y1.3949
X2.6223 Y1.3883
X2.6157 Y1.3812
X2.6088 Y1.3738
X2.6017 Y1.3661
X2.5943 Y1.358
X2.5867 Y1.3497
X2.5788 Y1.3412
X2.5787 Y1.3411
X2.5706 Y1.3324
X2.5705 Y1.3323
X2.5621 Y1.3235
X2.562 Y1.3233
X2.5533 Y1.3144
X2.5531 Y1.3142
X2.5441 Y1.3051
X2.5439 Y1.3049
X2.5346 Y1.2958
X2.5344 Y1.2956
X2.5247 Y1.2863
X2.5245 Y1.2861
X2.5144 Y1.2768
X2.5142 Y1.2766
X2.5038 Y1.2673
X2.5035 Y1.2671
X2.4927 Y1.2578
X2.4925 Y1.2575
X2.4813 Y1.2483
X2.481 Y1.248
X2.4694 Y1.2388
X2.4691 Y1.2386
X2.4571 Y1.2295
X2.4567 Y1.2292
X2.4443 Y1.2202
X2.4439 Y1.22
X2.431 Y1.2111
X2.4306 Y1.2109
X2.4173 Y1.2022
X2.4169 Y1.2019
X2.403 Y1.1934
X2.4027 Y1.1932
X2.3884 Y1.1848
X2.388 Y1.1846
X2.3733 Y1.1765
X2.373 Y1.1763
X2.3579 Y1.1683
X2.3576 Y1.1682
X2.3421 Y1.1603
X2.3418 Y1.1602
X2.326 Y1.1525
X2.3258 Y1.1524
X2.3097 Y1.1449
X2.3095 Y1.1448
X2.2932 Y1.1374
X2.293
X2.2764 Y1.1301
X2.2762
X2.2595 Y1.123
X2.2594 Y1.1229
X2.2425 Y1.116
X2.2424
X2.2254 Y1.1092
X2.2253 Y1.1091
X2.2083 Y1.1025
X2.2081 Y1.1024
X2.1911 Y1.0959
X2.191
X2.1739 Y1.0895
X2.1738
X2.1568 Y1.0833
X2.1567 Y1.0832
X2.1398 Y1.0771
X2.1397
X2.1229 Y1.0711
X2.1228 Y1.071
X2.1061 Y1.0651
X2.0896 Y1.0593
X2.0733 Y1.0537
X2.0572 Y1.0481
X2.0415 Y1.0426
X2.026 Y1.0373
X2.011 Y1.032
X1.9963 Y1.0268
X1.9962
X1.9819 Y1.0218
X1.9818
X1.9678 Y1.017
X1.9676 Y1.0169
X1.9539 Y1.0123
X1.9538
X1.9403 Y1.0079
X1.9401 Y1.0078
X1.9269 Y1.0037
X1.9267
X1.9138 Y0.9998
X1.9134 Y0.9997
X1.9007 Y0.9962
X1.9004 Y0.9961
X1.8878 Y0.9929
X1.8874 Y0.9928
X1.8751 Y0.99
X1.8746 Y0.9898
X1.8624 Y0.9874
X1.8618 Y0.9873
X1.8497 Y0.9852
X1.8491 Y0.9851
X1.8371 Y0.9835
X1.8364 Y0.9834
X1.8245 Y0.9822
X1.8238
X1.8119 Y0.9815
X1.8111
X1.7993 Y0.9813
X1.7985
X1.7867 Y0.9816
X1.7858
X1.7739 Y0.9825
X1.7731 Y0.9826
X1.7612 Y0.9841
X1.7603 Y0.9842
X1.7483 Y0.9863
X1.7474 Y0.9864
X1.7354 Y0.9891
X1.7345 Y0.9894
X1.7224 Y0.9927
X1.7215 Y0.9929
X1.7092 Y0.997
X1.7084 Y0.9972
X1.6959 Y1.002
X1.6952 Y1.0022
X1.6825 Y1.0076
X1.6819 Y1.0079
X1.6691 Y1.0139
X1.6685 Y1.0142
X1.6556 Y1.0208
X1.6551 Y1.0211
X1.642 Y1.0282
X1.6416 Y1.0284
X1.6285 Y1.036
X1.6282 Y1.0362
X1.6149 Y1.0443
X1.6146 Y1.0444
X1.6014 Y1.0528
X1.6011 Y1.053
X1.5878 Y1.0617
X1.5876 Y1.0619
X1.5744 Y1.0708
X1.5742 Y1.071
X1.5609 Y1.0802
X1.5608 Y1.0803
X1.5475 Y1.0896
X1.5474 Y1.0897
X1.5343 Y1.0992
X1.5342
X1.5211 Y1.1088
X1.521
X1.508 Y1.1183
Y1.1184
X1.4951 Y1.1278
X1.4824 Y1.1372
X1.4699 Y1.1464
X1.4576 Y1.1554
X1.4455 Y1.1641
X1.4337 Y1.1725
X1.4222 Y1.1805
X1.411 Y1.188
X1.4002 Y1.1951
X1.3897 Y1.2016
X1.3795 Y1.2076
X1.3696 Y1.2132
X1.3601 Y1.2183
X1.3508 Y1.2229
X1.3419 Y1.2272
X1.3332 Y1.2311
X1.3248 Y1.2346
X1.3167 Y1.2378
X1.3088 Y1.2407
X1.3012 Y1.2434
X1.2939 Y1.2458
X1.2868 Y1.2479
X1.28 Y1.2499
X1.2733 Y1.2517
X1.2669 Y1.2534
X1.2607 Y1.2549
X1.2547 Y1.2563
X1.2489 Y1.2577
X1.2433 Y1.259
X1.2378 Y1.2602
X1.2377 Y1.2603
X1.2325 Y1.2615
X1.2323 Y1.2616
X1.2274 Y1.2628
X1.227 Y1.2629
X1.2223 Y1.2642
X1.2219 Y1.2643
X1.2174 Y1.2657
X1.217 Y1.2658
X1.2126 Y1.2672
X1.2122 Y1.2673
X1.208 Y1.2688
X1.2075 Y1.269
X1.2034 Y1.2706
X1.2029 Y1.2708
X1.199 Y1.2724
X1.1984 Y1.2727
X1.1946 Y1.2744
X1.194 Y1.2747
X1.1903 Y1.2766
X1.1897 Y1.2769
X1.1861 Y1.2788
X1.1855 Y1.2792
X1.182 Y1.2813
X1.1814 Y1.2817
X1.1779 Y1.2839
X1.1773 Y1.2843
X1.1739 Y1.2867
X1.1734 Y1.2871
X1.17 Y1.2896
X1.1695 Y1.29
X1.1661 Y1.2928
X1.1656 Y1.2931
X1.1622 Y1.296
X1.1618 Y1.2964
X1.1584 Y1.2995
X1.158 Y1.2999
X1.1546 Y1.3032
X1.1543 Y1.3035
X1.1508 Y1.307
X1.1505 Y1.3073
X1.147 Y1.3111
X1.1467 Y1.3113
X1.1431 Y1.3153
X1.1429 Y1.3155
X1.1392 Y1.3197
X1.139 Y1.32
X1.1352 Y1.3244
X1.1351 Y1.3246
X1.1312 Y1.3293
X1.1311 Y1.3295
X1.127 Y1.3345
X1.1269 Y1.3346
X1.1228 Y1.3399
X1.1227 Y1.34
X1.1184 Y1.3456
X1.1183 Y1.3457
X1.1139 Y1.3515
X1.1138 Y1.3516
X1.1093 Y1.3576
X1.1092 Y1.3577
X1.1047 Y1.3639
X1.1046 Y1.364
X1.0999 Y1.3703
Y1.3704
X1.0952 Y1.3769
X1.0951 Y1.377
X1.0904 Y1.3836
X1.0903 Y1.3837
X1.0855 Y1.3904
Y1.3905
X1.0807 Y1.3972
Y1.3973
X1.0759 Y1.4041
Y1.4042
X1.0711 Y1.411
X1.0664 Y1.4178
X1.0617 Y1.4247
X1.0571 Y1.4314
X1.0526 Y1.438
X1.0482 Y1.4445
X1.0439 Y1.4509
X1.0397 Y1.4571
X1.0357 Y1.463
X1.0319 Y1.4688
X1.0282 Y1.4743
X1.0247 Y1.4794
X1.0215 Y1.4843
X1.0184 Y1.4889
X1.0157 Y1.4931
X1.0131 Y1.4969
X1.0108 Y1.5004
X1.0107 Y1.5005
X1.0086 Y1.5037
X1.0067 Y1.5066
Y1.5067
X1.005 Y1.5093
X1.0049 Y1.5094
X1.0034 Y1.5118
X1.0033 Y1.512
X1.0019 Y1.5141
X1.0018 Y1.5143
X1.0006 Y1.5163
X1.0004 Y1.5167
X0.9993 Y1.5185
X0.9991 Y1.5189
X0.9982 Y1.5206
X0.9979 Y1.5211
X0.9971 Y1.5227
X0.9968 Y1.5232
X0.9961 Y1.5247
X0.9958 Y1.5254
X0.9952 Y1.5269
X0.9949 Y1.5276
X0.9944 Y1.5291
X0.9941 Y1.5298
X0.9936 Y1.5313
X0.9934 Y1.532
X0.993 Y1.5336
X0.9928 Y1.5341
X0.9924 Y1.5358
X0.9923 Y1.5362
X0.9919 Y1.5379
X0.9918 Y1.5383
X0.9914 Y1.5402
Y1.5404
X0.991 Y1.5425
Y1.5426
X0.9906 Y1.5449
X0.9901 Y1.5474
X0.9896 Y1.5501
X0.989 Y1.5531
Y1.5532
X0.9884 Y1.5564
Y1.5565
X0.9878 Y1.5599
Y1.56
X0.9872 Y1.5637
X0.9871 Y1.5638
X0.9865 Y1.5676
Y1.5677
X0.9859 Y1.5716
Y1.5718
X0.9852 Y1.5759
Y1.576
X0.9846 Y1.5803
Y1.5804
X0.984 Y1.5848
Y1.585
X0.9835 Y1.5894
X0.9834 Y1.5896
X0.9829 Y1.5941
Y1.5944
X0.9825 Y1.5989
Y1.5992
X0.9821 Y1.6038
Y1.6041
X0.9817 Y1.6088
Y1.6091
X0.9815 Y1.6138
Y1.6141
X0.9813 Y1.6188
Y1.6192
Y1.6239
Y1.6242
Y1.6289
Y1.6294
X0.9814 Y1.634
X0.9815 Y1.6345
X0.9817 Y1.6391
X0.9818 Y1.6396
X0.9822 Y1.6441
Y1.6447
X0.9828 Y1.6491
Y1.6495
X0.9827 Y1.6507
X0.9822 Y1.6518
X0.9813 Y1.6526
X0.9802 Y1.653
X0.9771 Y1.6535
X0.9759 Y1.6537 Z0.009
X0.9749 Y1.6538 Z0.0097
X0.9742 Y1.6539 Z0.0107
X0.974 Z0.0119
G0 Z0.2625
X0.9731 Y1.6477
G1 Z0.0631 F1.8
Z0.0031
X0.9733 Z0.0019 F14.2
X0.974 Y1.6476 Z0.0009
X0.975 Y1.6475 Z0.0002
X0.9762 Y1.6473 Z0.
X0.9793 Y1.6469
X0.9805
X0.9816 Y1.6475
X0.9824 Y1.6484
X0.9828 Y1.6495
Y1.6497
X0.9835 Y1.6541
X0.9836 Y1.6548
X0.9844 Y1.659
X0.9846 Y1.6598
X0.9856 Y1.6639
X0.9858 Y1.6646
X0.9869 Y1.6687
X0.9872 Y1.6694
X0.9885 Y1.6735
X0.9887 Y1.6741
X0.9902 Y1.6781
X0.9904 Y1.6788
X0.9921 Y1.6828
X0.9923 Y1.6833
X0.9941 Y1.6874
X0.9943 Y1.6879
X0.9963 Y1.6919
X0.9965 Y1.6924
X0.9986 Y1.6965
X0.9988 Y1.6969
X1.0011 Y1.7011
X1.0013 Y1.7014
X1.0037 Y1.7057
X1.0039 Y1.706
X1.0065 Y1.7105
X1.0066 Y1.7107
X1.0094 Y1.7152
Y1.7154
X1.0124 Y1.7201
Y1.7202
X1.0155 Y1.7252
X1.0187 Y1.7304
X1.0221 Y1.7358
X1.0256 Y1.7414
X1.0293 Y1.7472
X1.033 Y1.7533
X1.037 Y1.7596
X1.041 Y1.7663
X1.0452 Y1.7732
X1.0495 Y1.7806
X1.0539 Y1.7883
X1.0585 Y1.7963
X1.0632 Y1.8048
X1.068 Y1.8135
X1.073 Y1.8226
X1.0781 Y1.832
X1.0834 Y1.8416
X1.0888 Y1.8516
X1.0943 Y1.8617
X1.0944 Y1.8618
X1.1 Y1.8721
X1.1001 Y1.8722
X1.1059 Y1.8827
X1.106 Y1.8828
X1.112 Y1.8935
Y1.8936
X1.1182 Y1.9045
Y1.9046
X1.1245 Y1.9156
X1.1246 Y1.9157
X1.1311 Y1.9268
X1.1312 Y1.927
X1.1379 Y1.9382
X1.138 Y1.9384
X1.1448 Y1.9497
X1.1449 Y1.9499
X1.152 Y1.9613
X1.1521 Y1.9614
X1.1593 Y1.9729
X1.1594 Y1.9731
X1.1669 Y1.9846
X1.167 Y1.9848
X1.1747 Y1.9963
X1.1748 Y1.9965
X1.1826 Y2.0081
X1.1828 Y2.0083
X1.1909 Y2.0198
X1.191 Y2.02
X1.1993 Y2.0315
X1.1995 Y2.0317
X1.208 Y2.0432
X1.2082 Y2.0434
X1.2169 Y2.0548
X1.2171 Y2.055
X1.226 Y2.0663
X1.2261 Y2.0665
X1.2352 Y2.0777
X1.2354 Y2.0779
X1.2446 Y2.089
X1.2447 Y2.0891
X1.2541 Y2.1001
X1.2542 Y2.1002
X1.2636 Y2.1112
X1.2637 Y2.1113
X1.2732 Y2.1221
X1.2733 Y2.1222
X1.2828 Y2.1329
X1.2829 Y2.133
X1.2924 Y2.1437
X1.302 Y2.1543
X1.3115 Y2.1648
X1.3209 Y2.1753
X1.3302 Y2.1856
X1.3393 Y2.1959
X1.3483 Y2.2061
X1.3571 Y2.2162
X1.3657 Y2.2262
X1.3741 Y2.2362
X1.3821 Y2.246
X1.3899 Y2.2558
X1.3974 Y2.2655
X1.4045 Y2.2751
X1.4112 Y2.2846
X1.4175 Y2.2941
X1.4235 Y2.3034
X1.429 Y2.3128
X1.4342 Y2.322
X1.4391 Y2.3312
X1.4436 Y2.3403
X1.4479 Y2.3493
X1.4519 Y2.3582
X1.4557 Y2.3669
X1.4593 Y2.3756
X1.4626 Y2.3842
X1.4658 Y2.3926
X1.4689 Y2.4009
X1.4718 Y2.4091
X1.4746 Y2.4171
X1.4774 Y2.4249
X1.4801 Y2.4326
X1.4828 Y2.4401
Y2.4402
X1.4854 Y2.4474
X1.4855 Y2.4476
X1.4881 Y2.4545
X1.4882 Y2.4548
X1.4909 Y2.4614
X1.491 Y2.4618
X1.4937 Y2.4682
X1.4939 Y2.4686
X1.4967 Y2.4748
X1.4969 Y2.4753
X1.4998 Y2.4811
X1.5001 Y2.4818
X1.5031 Y2.4873
X1.5035 Y2.4879
X1.5066 Y2.4932
X1.507 Y2.4939
X1.5102 Y2.4988
X1.5107 Y2.4995
X1.5141 Y2.5042
X1.5146 Y2.5049
X1.5181 Y2.5094
X1.5186 Y2.51
X1.5223 Y2.5143
X1.5229 Y2.5149
X1.5267 Y2.519
X1.5273 Y2.5196
X1.5312 Y2.5234
X1.5319 Y2.524
X1.536 Y2.5276
X1.5366 Y2.5281
X1.5408 Y2.5315
X1.5415 Y2.532
X1.5458 Y2.5352
X1.5465 Y2.5357
X1.551 Y2.5386
X1.5517 Y2.5391
X1.5563 Y2.5418
X1.557 Y2.5423
X1.5618 Y2.5448
X1.5625 Y2.5452
X1.5673 Y2.5476
X1.568 Y2.5479
X1.573 Y2.5501
X1.5737 Y2.5504
X1.5788 Y2.5524
X1.5795 Y2.5526
X1.5847 Y2.5545
X1.5853 Y2.5547
X1.5907 Y2.5564
X1.5913 Y2.5566
X1.5968 Y2.5581
X1.5974 Y2.5582
X1.603 Y2.5596
X1.6035 Y2.5597
X1.6093 Y2.5609
X1.6098 Y2.561
X1.6157 Y2.5621
X1.6162 Y2.5622
X1.6221 Y2.5631
X1.6226 Y2.5632
X1.6287 Y2.564
X1.6292
X1.6354 Y2.5647
X1.6358
X1.6422 Y2.5653
X1.6425
X1.649 Y2.5658
X1.6492
X1.6559 Y2.5662
X1.656
X1.6628 Y2.5665
X1.6697 Y2.5669
X1.6766 Y2.5672
X1.6836 Y2.5676
X1.6906 Y2.5681
X1.6977 Y2.5687
X1.7047 Y2.5694
X1.7118 Y2.5702
X1.7189 Y2.5712
X1.726 Y2.5724
X1.7332 Y2.5738
X1.7403 Y2.5755
X1.7474 Y2.5774
X1.7546 Y2.5796
X1.7617 Y2.5822
X1.7689 Y2.585
X1.7761 Y2.5882
X1.7832 Y2.5919
X1.7904 Y2.5959
X1.7977 Y2.6004
X1.8049 Y2.6054
X1.8122 Y2.6109
X1.8195 Y2.6168
X1.8269 Y2.6232
X1.8342 Y2.63
X1.8415 Y2.6372
X1.8489 Y2.6447
X1.8562 Y2.6526
X1.8635 Y2.6609
X1.8707 Y2.6694
X1.8779 Y2.6783
X1.8851 Y2.6874
X1.8922 Y2.6967
X1.8993 Y2.7063
X1.9064 Y2.7161
X1.9134 Y2.726
X1.9203 Y2.7361
X1.9271 Y2.7463
X1.9339 Y2.7567
X1.9407 Y2.7671
X1.9473 Y2.7776
X1.9539 Y2.7881
X1.9604 Y2.7987
X1.9669 Y2.8093
X1.9732 Y2.8198
X1.9795 Y2.8303
X1.9856 Y2.8408
X1.9917 Y2.8512
X1.9977 Y2.8616
X2.0037 Y2.872
X2.0096 Y2.8824
X2.0154 Y2.8927
X2.0211 Y2.903
X2.0268 Y2.9132
X2.0324 Y2.9234
X2.038 Y2.9336
X2.0436 Y2.9437
X2.0491 Y2.9538
X2.0545 Y2.9638
X2.06 Y2.9738
X2.0654 Y2.9837
X2.0707 Y2.9936
X2.0761 Y3.0035
X2.0814 Y3.0133
X2.0867 Y3.023
X2.092 Y3.0327
X2.0973 Y3.0424
X2.1026 Y3.052
X2.1079 Y3.0615
X2.1132 Y3.071
X2.1185 Y3.0803
Y3.0804
X2.1238 Y3.0896
Y3.0897
X2.1291 Y3.0988
Y3.0989
X2.1344 Y3.1079
Y3.108
X2.1397 Y3.1169
X2.1398 Y3.117
X2.145 Y3.1257
X2.1451 Y3.1258
X2.1503 Y3.1343
X2.1504 Y3.1345
X2.1557 Y3.1428
X2.1558 Y3.143
X2.161 Y3.1512
X2.1611 Y3.1513
X2.1663 Y3.1593
X2.1664 Y3.1595
X2.1717 Y3.1672
X2.1718 Y3.1674
X2.177 Y3.175
X2.1772 Y3.1752
X2.1824 Y3.1825
X2.1825 Y3.1827
X2.1877 Y3.1898
X2.1879 Y3.19
X2.1931 Y3.1968
X2.1933 Y3.1971
X2.1985 Y3.2036
X2.1987 Y3.2039
X2.2039 Y3.2101
X2.2042 Y3.2104
X2.2093 Y3.2163
X2.2096 Y3.2167
X2.2148 Y3.2223
X2.2151 Y3.2227
X2.2202 Y3.2279
X2.2207 Y3.2284
X2.2258 Y3.2333
X2.2263 Y3.2337
X2.2313 Y3.2383
X2.2319 Y3.2388
X2.237 Y3.243
X2.2376 Y3.2435
X2.2427 Y3.2474
X2.2434 Y3.2479
X2.2485 Y3.2514
X2.2492 Y3.2519
X2.2543 Y3.255
X2.2552 Y3.2555
X2.2603 Y3.2583
X2.2612 Y3.2588
X2.2663 Y3.2613
X2.2672 Y3.2617
X2.2724 Y3.2638
X2.2734 Y3.2642
X2.2786 Y3.266
X2.2798 Y3.2664
X2.285 Y3.2678
X2.2861 Y3.2681
X2.2914 Y3.2693
X2.2926 Y3.2695
X2.298 Y3.2703
X2.2992 Y3.2704
X2.3047 Y3.2708
X2.3059 Y3.2709
X2.3114
X2.3126
X2.3182 Y3.2706
X2.3194 Y3.2705
X2.325 Y3.2698
X2.3262 Y3.2697
X2.3319 Y3.2686
X2.333 Y3.2684
X2.3389 Y3.267
X2.3399 Y3.2667
X2.3458 Y3.2649
X2.3468 Y3.2646
X2.3528 Y3.2624
X2.3537 Y3.2621
X2.3599 Y3.2595
X2.3606 Y3.2591
X2.367 Y3.2561
X2.3677 Y3.2558
X2.3741 Y3.2524
X2.3748 Y3.252
X2.3813 Y3.2483
X2.3819 Y3.2479
X2.3887 Y3.2437
X2.3892 Y3.2434
X2.3961 Y3.2387
X2.3965 Y3.2384
X2.4037 Y3.2334
X2.404 Y3.2331
X2.4113 Y3.2277
X2.4116 Y3.2275
X2.419 Y3.2217
X2.4193 Y3.2215
X2.4268 Y3.2154
X2.427 Y3.2153
X2.4347 Y3.2089
X2.4349 Y3.2088
X2.4426 Y3.2022
X2.4427 Y3.202
X2.4505 Y3.1952
X2.4507 Y3.1951
X2.4585 Y3.1881
X2.4587 Y3.188
X2.4665 Y3.1809
X2.4666 Y3.1808
X2.4746 Y3.1736
Y3.1735
X2.4825 Y3.1662
X2.4826 Y3.1661
X2.4905 Y3.1587
X2.4984 Y3.1513
Y3.1512
X2.5062 Y3.1438
X2.514 Y3.1365
X2.5216 Y3.1292
X2.5292 Y3.122
X2.5366 Y3.115
X2.5438 Y3.1082
X2.5508 Y3.1015
X2.5577 Y3.0952
X2.5643 Y3.0891
X2.5708 Y3.0833
X2.5769 Y3.0779
X2.5828 Y3.0728
X2.5886 Y3.068
X2.5942 Y3.0635
X2.5997 Y3.0593
X2.6051 Y3.0553
X2.6105 Y3.0515
X2.6158 Y3.0479
X2.6212 Y3.0445
X2.6266 Y3.0413
X2.6321 Y3.0382
X2.6377 Y3.0352
X2.6435 Y3.0323
X2.6496 Y3.0294
X2.6559 Y3.0266
X2.6624 Y3.0238
X2.6693 Y3.0211
X2.6765 Y3.0183
X2.6841 Y3.0155
X2.6921 Y3.0127
X2.7006 Y3.0098
X2.7095 Y3.0069
X2.7189 Y3.0039
X2.7289 Y3.0007
X2.7394 Y2.9975
X2.7505 Y2.9941
X2.762 Y2.9905
X2.7739 Y2.9869
X2.7862 Y2.9832
X2.7988 Y2.9793
X2.8117 Y2.9754
X2.8248 Y2.9714
X2.8249
X2.8381 Y2.9673
Y2.9672
X2.8515 Y2.9631
X2.8649 Y2.9588
X2.865
X2.8783 Y2.9545
X2.8784
X2.8917 Y2.9501
X2.8918
X2.9051 Y2.9457
X2.9052
X2.9182 Y2.9413
X2.9184 Y2.9412
X2.9312 Y2.9367
X2.9314
X2.944 Y2.9322
X2.9441 Y2.9321
X2.9564 Y2.9276
X2.9566
X2.9686 Y2.923
X2.9688 Y2.9229
X2.9803 Y2.9184
X2.9806 Y2.9183
X2.9917 Y2.9138
X2.992 Y2.9136
X3.0025 Y2.9091
X3.0029 Y2.909
X3.0129 Y2.9044
X3.0133 Y2.9043
X3.0227 Y2.8998
X3.0231 Y2.8995
X3.0319 Y2.8951
X3.0324 Y2.8948
X3.0405 Y2.8903
X3.041 Y2.89
X3.0485 Y2.8856
X3.0491 Y2.8852
X3.056 Y2.8807
X3.0566 Y2.8803
X3.063 Y2.8759
X3.0636 Y2.8753
X3.0694 Y2.8709
X3.0701 Y2.8703
X3.0754 Y2.8658
X3.0761 Y2.8651
X3.0809 Y2.8605
X3.0816 Y2.8598
X3.086 Y2.8552
X3.0867 Y2.8544
X3.0906 Y2.8496
X3.0913 Y2.8487
X3.0949 Y2.8439
X3.0956 Y2.8429
X3.0987 Y2.8379
X3.0993 Y2.8369
X3.1021 Y2.8318
X3.1027 Y2.8308
X3.1052 Y2.8255
X3.1056 Y2.8245
X3.1078 Y2.819
X3.1082 Y2.818
X3.1101 Y2.8123
X3.1104 Y2.8114
X3.1121 Y2.8055
X3.1123 Y2.8046
X3.1137 Y2.7984
X3.1138 Y2.7977
X3.115 Y2.7912
X3.1152 Y2.7906
X3.1162 Y2.7838
Y2.7832
X3.1171 Y2.7762
Y2.7757
X3.1178 Y2.7683
X3.1179 Y2.7679
X3.1184 Y2.7602
Y2.7598
X3.1189 Y2.7517
Y2.7515
X3.1193 Y2.7429
Y2.7427
X3.1195 Y2.7339
Y2.7337
X3.1198 Y2.7246
Y2.7245
X3.1199 Y2.7151
X3.1201 Y2.7054
X3.1203 Y2.6956
X3.1206 Y2.6858
X3.1209 Y2.6758
X3.1214 Y2.6658
X3.1219 Y2.6557
X3.1227 Y2.6457
X3.1236 Y2.6357
X3.1248 Y2.6258
X3.1262 Y2.6161
X3.1278 Y2.6065
X3.1298 Y2.5971
X3.1321 Y2.5879
X3.1346 Y2.579
X3.1376 Y2.5704
X3.1409 Y2.5621
X3.1446 Y2.5542
X3.1487 Y2.5466
X3.1532 Y2.5395
X3.1582 Y2.5327
X3.1636 Y2.5264
X3.1695 Y2.5204
X3.1759 Y2.5147
X3.1829 Y2.5093
X3.1904 Y2.5041
X3.1984 Y2.4991
X3.2069 Y2.4942
X3.2158 Y2.4894
X3.2253 Y2.4847
X3.2352 Y2.48
X3.2456 Y2.4754
X3.2564 Y2.4707
X3.2677 Y2.4659
X3.2793 Y2.461
X3.2914 Y2.4559
X3.3038 Y2.4506
X3.3039
X3.3166 Y2.4451
X3.3168 Y2.445
X3.3298 Y2.4393
X3.33 Y2.4392
X3.3433 Y2.4331
X3.3435 Y2.433
X3.3571 Y2.4266
X3.3574 Y2.4264
X3.3712 Y2.4196
X3.3716 Y2.4194
X3.3857 Y2.4121
X3.386 Y2.4119
X3.4004 Y2.4041
X3.4008 Y2.4039
X3.4155 Y2.3955
X3.4158 Y2.3953
X3.4307 Y2.3863
X3.4311 Y2.3861
X3.4462 Y2.3766
X3.4465 Y2.3764
X3.4618 Y2.3663
X3.4621 Y2.3661
X3.4776 Y2.3555
X3.4779 Y2.3553
X3.4935 Y2.3443
X3.4938 Y2.3441
X3.5095 Y2.3326
X3.5097 Y2.3324
X3.5255 Y2.3205
X3.5257 Y2.3203
X3.5416 Y2.308
X3.5418 Y2.3079
X3.5576 Y2.2953
X3.5578 Y2.2951
X3.5736 Y2.2822
X3.5738 Y2.282
X3.5895 Y2.2688
X3.5897 Y2.2686
X3.6053 Y2.2552
X3.6055 Y2.255
X3.621 Y2.2414
X3.6211 Y2.2412
X3.6364 Y2.2274
X3.6366 Y2.2272
X3.6517 Y2.2132
X3.6519 Y2.2131
X3.6668 Y2.199
X3.6669 Y2.1988
X3.6816 Y2.1846
X3.6817 Y2.1845
X3.696 Y2.1702
X3.6962 Y2.1701
X3.7102 Y2.1558
X3.7103 Y2.1557
X3.724 Y2.1414
X3.7241 Y2.1413
X3.7373 Y2.1271
X3.7375 Y2.1269
X3.7503 Y2.1128
X3.7505 Y2.1126
X3.7628 Y2.0987
X3.7629 Y2.0985
X3.7747 Y2.0846
X3.7749 Y2.0844
X3.7862 Y2.0708
X3.7864 Y2.0706
X3.7972 Y2.0571
X3.7974 Y2.0569
X3.8077 Y2.0436
X3.8079 Y2.0434
X3.8178 Y2.0303
X3.8179 Y2.0302
X3.8275 Y2.0173
X3.8276 Y2.0172
X3.8369 Y2.0045
X3.837 Y2.0044
X3.846 Y1.992
Y1.9919
X3.8548 Y1.9797
X3.8634 Y1.9678
X3.8718 Y1.9562
X3.88 Y1.9449
X3.8882 Y1.9339
X3.8963 Y1.9233
X3.9043 Y1.9131
X3.9124 Y1.9032
X3.9205 Y1.8937
X3.9287 Y1.8847
X3.937 Y1.876
X3.9455 Y1.8677
X3.9541 Y1.8599
X3.9631 Y1.8525
X3.9722 Y1.8455
X3.9818 Y1.8389
X3.9917 Y1.8327
X4.002 Y1.8269
X4.0128 Y1.8216
X4.0239 Y1.8166
X4.0354 Y1.812
X4.0471 Y1.8078
X4.0592 Y1.8039
X4.0715 Y1.8004
X4.084 Y1.7971
X4.0967 Y1.7941
X4.1096 Y1.7914
X4.1225 Y1.789
X4.1355 Y1.7868
X4.1486 Y1.7848
X4.1617 Y1.783
X4.1747 Y1.7813
X4.1876 Y1.7799
X4.2004 Y1.7785
X4.2132 Y1.7772
X4.2257 Y1.7761
X4.238 Y1.775
X4.2501 Y1.7739
X4.2619 Y1.7729
X4.262
X4.2734 Y1.7718
X4.2735
X4.2846 Y1.7708
X4.2847 Y1.7707
X4.2954 Y1.7697
X4.2955 Y1.7696
X4.3058 Y1.7685
X4.3059
X4.3159 Y1.7674
X4.3256 Y1.7663
X4.335 Y1.7652
X4.344 Y1.7642
X4.3528 Y1.7633
X4.3612 Y1.7625
X4.3694 Y1.7618
X4.3774 Y1.7612
X4.3851 Y1.7608
X4.3925 Y1.7605
X4.3998
X4.4068 Y1.7606
X4.4136 Y1.761
X4.4203 Y1.7615
X4.4268 Y1.7624
X4.4332 Y1.7635
X4.4396 Y1.7649
X4.4458 Y1.7665
X4.452 Y1.7685
X4.4582 Y1.7708
X4.4644 Y1.7735
X4.4707 Y1.7766
X4.477 Y1.7801
X4.4835 Y1.784
X4.49 Y1.7883
X4.4965 Y1.7929
X4.5032 Y1.7978
X4.5098 Y1.803
X4.5165 Y1.8084
X4.5232 Y1.8141
X4.5299 Y1.8199
X4.5366 Y1.8258
X4.5432 Y1.8319
X4.5499 Y1.838
X4.5565 Y1.8442
X4.563 Y1.8503
X4.5695 Y1.8565
X4.576 Y1.8626
X4.5823 Y1.8685
X4.5824 Y1.8686
X4.5886 Y1.8744
X4.5887 Y1.8745
X4.5949 Y1.8801
Y1.8802
X4.6009 Y1.8856
X4.6012 Y1.8858
X4.6071 Y1.891
X4.6073 Y1.8912
X4.613 Y1.8961
X4.6134 Y1.8964
X4.6191 Y1.901
X4.6194 Y1.9012
X4.6248 Y1.9054
X4.6253 Y1.9058
X4.6307 Y1.9097
X4.6312 Y1.91
X4.6364 Y1.9135
X4.6369 Y1.9139
X4.642 Y1.917
X4.6426 Y1.9174
X4.6475 Y1.9202
X4.6482 Y1.9205
X4.6529 Y1.923
X4.6536 Y1.9233
X4.6581 Y1.9254
X4.6589 Y1.9258
X4.6633 Y1.9275
X4.6642 Y1.9279
X4.6684 Y1.9293
X4.6694 Y1.9296
X4.6733 Y1.9308
X4.6745 Y1.9311
X4.6782 Y1.9319
X4.6795 Y1.9321
X4.683 Y1.9326
X4.6843 Y1.9328
X4.6877 Y1.933
X4.6889 Y1.9331
X4.692
X4.6935
X4.6965 Y1.9329
X4.6981 Y1.9327
X4.7009 Y1.9322
X4.7028 Y1.9318
X4.7053 Y1.9311
X4.7073 Y1.9305
X4.7097 Y1.9295
X4.7116 Y1.9287
X4.7139 Y1.9274
X4.7158 Y1.9263
X4.7179 Y1.9248
X4.7194 Y1.9237
X4.7214 Y1.922
X4.7229 Y1.9205
X4.7248 Y1.9185
X4.7258 Y1.9175
X4.7276 Y1.9152
X4.7286 Y1.9139
X4.7303 Y1.9113
X4.731 Y1.9102
X4.7327 Y1.9073
X4.7332 Y1.9063
X4.7348 Y1.9031
X4.7353 Y1.902
X4.7368 Y1.8985
X4.7373 Y1.8972
X4.7385 Y1.8933
X4.7388 Y1.8925
X4.7399 Y1.8884
X4.7402 Y1.8873
X4.7411 Y1.8829
X4.7413 Y1.8819
X4.7421 Y1.8772
X4.7422 Y1.8765
X4.7428 Y1.8715
Y1.8707
X4.7432 Y1.8655
X4.7433 Y1.8648
X4.7435 Y1.8593
Y1.8585
X4.7434 Y1.8528
Y1.8522
X4.7432 Y1.8463
X4.7431 Y1.8456
X4.7427 Y1.8395
X4.7426 Y1.8389
X4.742 Y1.8326
X4.7419 Y1.8319
X4.7409 Y1.8253
X4.7408 Y1.8249
X4.7397 Y1.8182
X4.7396 Y1.8175
X4.7382 Y1.8106
X4.738 Y1.81
X4.7363 Y1.803
X4.7362 Y1.8025
X4.7343 Y1.7953
X4.7341 Y1.7948
X4.7319 Y1.7874
X4.7318 Y1.7869
X4.7293 Y1.7795
X4.7291 Y1.779
X4.7264 Y1.7714
X4.7262 Y1.7708
X4.7231 Y1.7631
X4.7229 Y1.7627
X4.7195 Y1.7549
X4.7193 Y1.7544
X4.7157 Y1.7465
X4.7154 Y1.7461
X4.7115 Y1.7381
X4.7112 Y1.7377
X4.7069 Y1.7296
X4.7067 Y1.7293
X4.7022 Y1.7211
X4.7019 Y1.7208
X4.6971 Y1.7126
X4.6969 Y1.7123
X4.6918 Y1.7041
X4.6916 Y1.7037
X4.6862 Y1.6955
X4.6859 Y1.6952
X4.6803 Y1.6869
X4.6801 Y1.6866
X4.6742 Y1.6783
X4.674 Y1.678
X4.6679 Y1.6697
X4.6677 Y1.6694
X4.6613 Y1.6611
X4.6611 Y1.6609
X4.6545 Y1.6526
X4.6543 Y1.6524
X4.6475 Y1.6441
X4.6473 Y1.6438
X4.6403 Y1.6356
X4.6401 Y1.6354
X4.6329 Y1.6272
X4.6327 Y1.6269
X4.6253 Y1.6188
X4.6251 Y1.6185
X4.6175 Y1.6104
X4.6173 Y1.6103
X4.6096 Y1.6022
X4.6094 Y1.602
X4.6015 Y1.5941
X4.6013 Y1.5939
X4.5933 Y1.586
X4.593 Y1.5858
